;FLAVOR:Marlin
;TIME:2981
;Filament used: 0.804503m
;Layer height: 0.12
;MINX:133.736
;MINY:119.259
;MINZ:0.12
;MAXX:166.264
;MAXY:180.741
;MAXZ:18.72
;Generated with Cura_SteamEngine 5.2.1
M140 S60
M105
M190 S60
M104 S210
M105
M109 S210
M82 ;absolute extrusion mode
; Ender 3 Max Custom Start G-code
G92 E0 ; Reset Extruder
G28 ; Home all axes
G1 Z2.0 F3000 ; Move Z Axis up little to prevent scratching of Heat Bed
G1 X0.1 Y20 Z0.3 F5000.0 ; Move to start position
G1 X0.1 Y200.0 Z0.3 F1500.0 E15 ; Draw the first line
G1 X0.4 Y200.0 Z0.3 F5000.0 ; Move to side a little
G1 X0.4 Y20 Z0.3 F1500.0 E30 ; Draw the second line
G92 E0 ; Reset Extruder
G1 Z2.0 F3000 ; Move Z Axis up little to prevent scratching of Heat Bed
G1 X5 Y20 Z0.3 F5000.0 ; Move over to prevent blob squish
G92 E0
G92 E0
G1 F1500 E-6.5
;LAYER_COUNT:156
;LAYER:0
M107
G0 F6000 X136.302 Y123.217 Z0.12
;TYPE:SKIRT
G1 F1500 E0
G1 F1200 X136.934 Y122.523 E0.01873
G1 X137.622 Y121.886 E0.03744
G1 X138.362 Y121.31 E0.05616
G1 X139.148 Y120.798 E0.07488
G1 X139.975 Y120.356 E0.09359
G1 X140.837 Y119.986 E0.11231
G1 X141.727 Y119.69 E0.13103
G1 X142.639 Y119.472 E0.14974
G1 X143.566 Y119.331 E0.16845
G1 X144.437 Y119.272 E0.18587
G1 X145.066 Y119.259 E0.19843
G1 X154.715 Y119.26 E0.39098
G1 X155.413 Y119.27 E0.40492
G1 X156.349 Y119.324 E0.42362
G1 X157.277 Y119.456 E0.44233
G1 X158.191 Y119.668 E0.46105
G1 X159.083 Y119.957 E0.47977
G1 X159.948 Y120.32 E0.49849
G1 X160.778 Y120.756 E0.5172
G1 X161.569 Y121.261 E0.53592
G1 X162.313 Y121.832 E0.55464
G1 X163.006 Y122.464 E0.57336
G1 X163.643 Y123.152 E0.59207
G1 X164.218 Y123.893 E0.61079
G1 X164.729 Y124.679 E0.62949
G1 X165.171 Y125.507 E0.64823
G1 X165.54 Y126.369 E0.66694
G1 X165.835 Y127.259 E0.68565
G1 X166.053 Y128.171 E0.70436
G1 X166.193 Y129.099 E0.72309
G1 X166.251 Y129.96 E0.74031
G1 X166.264 Y130.589 E0.75287
G1 X166.263 Y147.693 E1.0942
G1 X166.253 Y148.41 E1.1085
G1 X166.227 Y149.033 E1.12095
G1 X166.158 Y150.009 E1.14047
G1 X166.017 Y152.496 E1.19018
G1 X165.944 Y155.084 E1.24185
G1 X165.935 Y156.381 E1.26774
G1 X165.934 Y169.156 E1.52267
G1 X165.924 Y169.883 E1.53718
G1 X165.871 Y170.82 E1.55591
G1 X165.739 Y171.748 E1.57462
G1 X165.528 Y172.662 E1.59334
G1 X165.239 Y173.554 E1.61205
G1 X164.876 Y174.419 E1.63077
G1 X164.441 Y175.25 E1.64949
G1 X163.936 Y176.04 E1.6682
G1 X163.366 Y176.785 E1.68692
G1 X162.735 Y177.479 E1.70564
G1 X162.046 Y178.116 E1.72436
G1 X161.306 Y178.692 E1.74308
G1 X160.52 Y179.203 E1.76179
G1 X159.693 Y179.645 E1.7805
G1 X158.831 Y180.015 E1.79922
G1 X157.941 Y180.31 E1.81793
G1 X157.029 Y180.529 E1.83665
G1 X156.102 Y180.669 E1.85536
G1 X155.234 Y180.728 E1.87272
G1 X154.605 Y180.741 E1.88527
G1 X145.633 Y180.74 E2.06432
G1 X144.935 Y180.731 E2.07825
G1 X143.999 Y180.679 E2.09696
G1 X143.07 Y180.547 E2.11568
G1 X142.156 Y180.337 E2.1344
G1 X141.263 Y180.05 E2.15312
G1 X140.398 Y179.687 E2.17184
G1 X139.567 Y179.253 E2.19055
G1 X138.776 Y178.749 E2.20926
G1 X138.031 Y178.179 E2.22798
G1 X137.337 Y177.548 E2.2467
G1 X136.7 Y176.861 E2.2654
G1 X136.123 Y176.121 E2.28412
G1 X135.611 Y175.335 E2.30284
G1 X135.168 Y174.508 E2.32157
G1 X134.797 Y173.647 E2.34027
G1 X134.501 Y172.757 E2.35899
G1 X134.282 Y171.845 E2.37771
G1 X134.141 Y170.918 E2.39642
G1 X134.081 Y170.029 E2.4142
G1 X134.068 Y169.399 E2.42678
G1 X134.068 Y156.381 E2.68657
G1 X134.031 Y153.779 E2.7385
G1 X133.925 Y151.278 E2.78845
G1 X133.809 Y149.658 E2.82086
G1 X133.749 Y148.565 E2.84271
G1 X133.736 Y147.936 E2.85526
G1 X133.737 Y130.784 E3.19755
G1 X133.746 Y130.119 E3.21082
G1 X133.799 Y129.183 E3.22953
G1 X133.931 Y128.254 E3.24826
G1 X134.142 Y127.34 E3.26698
G1 X134.43 Y126.448 E3.28568
G1 X134.793 Y125.583 E3.3044
G1 X135.228 Y124.752 E3.32312
G1 X135.732 Y123.962 E3.34182
G1 X136.302 Y123.217 E3.36054
G0 F6000 X136.697 Y123.37
G1 F1200 X137.325 Y122.698 E3.3789
G1 X138.01 Y122.082 E3.39728
G1 X138.746 Y121.529 E3.41565
G1 X139.527 Y121.041 E3.43403
G1 X140.347 Y120.623 E3.4524
G1 X141.201 Y120.278 E3.47078
G1 X142.081 Y120.008 E3.48915
G1 X142.981 Y119.816 E3.50751
G1 X143.895 Y119.702 E3.52589
G1 X144.448 Y119.672 E3.53694
G1 X145.066 Y119.659 E3.54928
G1 X154.557 Y119.659 E3.73868
G1 X155.407 Y119.67 E3.75565
G1 X156.326 Y119.723 E3.77402
G1 X157.237 Y119.856 E3.79239
G1 X158.133 Y120.067 E3.81076
G1 X159.007 Y120.355 E3.82912
G1 X159.854 Y120.718 E3.84751
G1 X160.665 Y121.153 E3.86588
G1 X161.435 Y121.657 E3.88424
G1 X162.159 Y122.226 E3.90262
G1 X162.831 Y122.856 E3.921
G1 X163.446 Y123.541 E3.93937
G1 X163.999 Y124.277 E3.95775
G1 X164.486 Y125.058 E3.97611
G1 X164.903 Y125.879 E3.99449
G1 X165.248 Y126.733 E4.01287
G1 X165.517 Y127.613 E4.03123
G1 X165.709 Y128.514 E4.04962
G1 X165.822 Y129.427 E4.06798
G1 X165.851 Y129.971 E4.07885
G1 X165.864 Y130.589 E4.09118
G1 X165.863 Y147.688 E4.43241
G1 X165.853 Y148.405 E4.44672
G1 X165.828 Y149.005 E4.45871
G1 X165.762 Y149.937 E4.47735
G1 X165.617 Y152.498 E4.52854
G1 X165.544 Y155.07 E4.57989
G1 X165.535 Y156.379 E4.60601
G1 X165.534 Y169.151 E4.86089
G1 X165.524 Y169.878 E4.8754
G1 X165.471 Y170.797 E4.89377
G1 X165.339 Y171.708 E4.91214
G1 X165.128 Y172.604 E4.93051
G1 X164.841 Y173.479 E4.94889
G1 X164.478 Y174.325 E4.96726
G1 X164.044 Y175.137 E4.98563
G1 X163.54 Y175.908 E5.00401
G1 X162.972 Y176.632 E5.02238
G1 X162.343 Y177.304 E5.04075
G1 X161.658 Y177.919 E5.05912
G1 X160.922 Y178.472 E5.07749
G1 X160.141 Y178.96 E5.09587
G1 X159.321 Y179.378 E5.11423
G1 X158.467 Y179.723 E5.13262
G1 X157.587 Y179.992 E5.15098
G1 X156.686 Y180.185 E5.16937
G1 X155.773 Y180.298 E5.18773
G1 X155.223 Y180.328 E5.19872
G1 X154.605 Y180.341 E5.21105
G1 X145.638 Y180.34 E5.39
G1 X144.94 Y180.331 E5.40393
G1 X144.021 Y180.279 E5.4223
G1 X143.11 Y180.148 E5.44067
G1 X142.214 Y179.938 E5.45903
G1 X141.339 Y179.651 E5.47741
G1 X140.492 Y179.289 E5.49579
G1 X139.68 Y178.855 E5.51416
G1 X138.909 Y178.353 E5.53252
G1 X138.184 Y177.785 E5.5509
G1 X137.511 Y177.156 E5.56929
G1 X136.896 Y176.472 E5.58764
G1 X136.342 Y175.737 E5.60601
G1 X135.854 Y174.956 E5.62439
G1 X135.435 Y174.136 E5.64277
G1 X135.089 Y173.283 E5.66113
G1 X134.819 Y172.403 E5.6795
G1 X134.626 Y171.502 E5.69789
G1 X134.512 Y170.589 E5.71625
G1 X134.481 Y170.018 E5.72767
G1 X134.468 Y169.399 E5.74002
G1 X134.468 Y156.379 E5.99985
G1 X134.431 Y153.756 E6.0522
G1 X134.325 Y151.266 E6.10194
G1 X134.199 Y149.49 E6.13747
G1 X134.149 Y148.554 E6.15617
G1 X134.136 Y147.936 E6.16851
G1 X134.137 Y130.79 E6.51067
G1 X134.146 Y130.125 E6.52395
G1 X134.198 Y129.205 E6.54234
G1 X134.33 Y128.294 E6.5607
G1 X134.541 Y127.398 E6.57907
G1 X134.828 Y126.523 E6.59745
G1 X135.191 Y125.677 E6.61582
G1 X135.625 Y124.865 E6.6342
G1 X136.128 Y124.094 E6.65257
G1 X136.697 Y123.37 E6.67094
G0 F6000 X137.091 Y123.526
G1 F1200 X137.717 Y122.876 E6.68895
G1 X138.398 Y122.283 E6.70697
G1 X139.13 Y121.753 E6.72501
G1 X139.905 Y121.29 E6.74302
G1 X140.718 Y120.897 E6.76104
G1 X141.563 Y120.577 E6.77908
G1 X142.432 Y120.334 E6.79708
G1 X143.32 Y120.168 E6.81511
G1 X144.459 Y120.072 E6.83792
G1 X145.066 Y120.059 E6.85004
G1 X154.557 Y120.059 E7.03944
G1 X155.401 Y120.07 E7.05629
G1 X156.303 Y120.123 E7.07432
G1 X157.196 Y120.255 E7.09233
G1 X158.074 Y120.466 E7.11035
G1 X158.93 Y120.754 E7.12837
G1 X159.757 Y121.116 E7.14639
G1 X160.549 Y121.551 E7.16442
G1 X161.3 Y122.053 E7.18245
G1 X162.003 Y122.62 E7.20047
G1 X162.653 Y123.247 E7.2185
G1 X163.245 Y123.929 E7.23652
G1 X163.775 Y124.66 E7.25454
G1 X164.237 Y125.436 E7.27256
G1 X164.63 Y126.249 E7.29058
G1 X164.948 Y127.094 E7.3086
G1 X165.191 Y127.964 E7.32662
G1 X165.356 Y128.852 E7.34465
G1 X165.451 Y129.982 E7.36728
G1 X165.464 Y130.589 E7.37939
G1 X165.463 Y147.682 E7.7205
G1 X165.453 Y148.399 E7.73481
G1 X165.429 Y148.976 E7.74634
G1 X165.365 Y149.884 E7.7645
G1 X165.217 Y152.498 E7.81675
G1 X165.144 Y155.057 E7.86784
G1 X165.135 Y156.376 E7.89416
G1 X165.134 Y169.145 E8.14898
G1 X165.124 Y169.872 E8.16349
G1 X165.072 Y170.774 E8.18152
G1 X164.94 Y171.667 E8.19954
G1 X164.729 Y172.546 E8.21758
G1 X164.442 Y173.402 E8.23559
G1 X164.08 Y174.229 E8.25361
G1 X163.646 Y175.021 E8.27163
G1 X163.144 Y175.772 E8.28966
G1 X162.578 Y176.475 E8.30767
G1 X161.951 Y177.126 E8.32571
G1 X161.27 Y177.718 E8.34371
G1 X160.539 Y178.248 E8.36173
G1 X159.763 Y178.711 E8.37976
G1 X158.95 Y179.104 E8.39779
G1 X158.105 Y179.424 E8.41582
G1 X157.236 Y179.667 E8.43382
G1 X156.348 Y179.832 E8.45185
G1 X155.212 Y179.928 E8.4746
G1 X154.605 Y179.941 E8.48672
G1 X145.643 Y179.94 E8.66556
G1 X144.945 Y179.931 E8.67949
G1 X144.044 Y179.88 E8.6975
G1 X143.15 Y179.748 E8.71554
G1 X142.272 Y179.539 E8.73355
G1 X141.415 Y179.252 E8.75158
G1 X140.588 Y178.891 E8.76959
G1 X139.795 Y178.458 E8.78762
G1 X139.044 Y177.957 E8.80564
G1 X138.34 Y177.391 E8.82366
G1 X137.689 Y176.765 E8.84169
G1 X137.096 Y176.084 E8.85971
G1 X136.566 Y175.353 E8.87773
G1 X136.102 Y174.578 E8.89575
G1 X135.708 Y173.765 E8.91378
G1 X135.388 Y172.921 E8.93179
G1 X135.144 Y172.051 E8.94982
G1 X134.978 Y171.163 E8.96785
G1 X134.881 Y170.008 E8.99098
G1 X134.868 Y169.399 E9.00314
G1 X134.868 Y156.375 E9.26305
G1 X134.831 Y153.769 E9.31506
G1 X134.723 Y151.222 E9.36593
G1 X134.598 Y149.467 E9.40104
G1 X134.562 Y148.85 E9.41338
G1 X134.54 Y148.223 E9.4259
G1 X134.537 Y130.795 E9.77369
G1 X134.546 Y130.13 E9.78696
G1 X134.598 Y129.228 E9.80499
G1 X134.73 Y128.335 E9.82301
G1 X134.94 Y127.457 E9.84102
G1 X135.227 Y126.6 E9.85906
G1 X135.589 Y125.773 E9.87708
G1 X136.022 Y124.981 E9.89509
G1 X136.524 Y124.23 E9.91312
G1 X137.091 Y123.526 E9.93116
G1 F1500 E3.43116
;MESH:Porta_Micro_SD.stl
G0 F6000 X144.071 Y130.673
G0 X145.15 Y130.673
G0 X145.736 Y147.266
;TYPE:WALL-INNER
G1 F1500 E9.93116
G1 F1200 X154.264 Y147.266 E10.10134
G1 X154.264 Y135.523 E10.33568
G1 X154.264 Y131.259 E10.42078
G1 X145.736 Y131.259 E10.59096
G1 X145.736 Y147.266 E10.9104
G0 F6000 X145.336 Y147.666
G1 F1200 X154.664 Y147.666 E11.09655
G1 X154.664 Y135.523 E11.33888
G1 X154.664 Y130.859 E11.43195
G1 X145.336 Y130.859 E11.6181
G1 X145.336 Y147.666 E11.9535
G0 F6000 X144.936 Y148.066
;TYPE:WALL-OUTER
G1 F1200 X155.064 Y148.066 E12.15562
G1 X155.064 Y135.523 E12.40593
G1 X155.064 Y130.459 E12.50699
G1 X144.936 Y130.459 E12.7091
G1 X144.936 Y148.066 E13.06047
G0 F6000 X145.206 Y147.796
G0 X145.836 Y146.906
G0 X146.096 Y146.906
;TYPE:SKIN
G1 F1200 X153.904 Y146.906 E13.21629
G1 X153.904 Y143.002 E13.29419
G1 X153.904 Y131.619 E13.52135
G1 X146.096 Y131.619 E13.67717
G1 X146.096 Y146.906 E13.98224
G0 F6000 X146.704 Y146.704
G1 F1200 X146.295 Y146.295 E13.99378
G0 F6000 X146.295 Y145.729
G1 F1200 X147.27 Y146.704 E14.0213
G0 F6000 X147.836 Y146.704
G1 F1200 X146.295 Y145.164 E14.06478
G0 F6000 X146.295 Y144.598
G1 F1200 X148.401 Y146.704 E14.12421
G0 F6000 X148.967 Y146.704
G1 F1200 X146.295 Y144.032 E14.19962
G0 F6000 X146.295 Y143.467
G1 F1200 X149.533 Y146.704 E14.29099
G0 F6000 X150.098 Y146.704
G1 F1200 X146.295 Y142.901 E14.39832
G0 F6000 X146.295 Y142.335
G1 F1200 X150.664 Y146.704 E14.52162
G0 F6000 X151.23 Y146.704
G1 F1200 X146.295 Y141.769 E14.6609
G0 F6000 X146.295 Y141.204
G1 F1200 X151.796 Y146.704 E14.81613
G0 F6000 X152.361 Y146.704
G1 F1200 X146.295 Y140.638 E14.98733
G0 F6000 X146.295 Y140.072
G1 F1200 X152.927 Y146.704 E15.1745
G0 F6000 X153.493 Y146.704
G1 F1200 X146.295 Y139.507 E15.37763
G0 F6000 X146.295 Y138.941
G1 F1200 X153.703 Y146.349 E15.5867
G0 F6000 X153.703 Y145.784
G1 F1200 X146.295 Y138.375 E15.79578
G0 F6000 X146.295 Y137.81
G1 F1200 X153.703 Y145.218 E16.00485
G0 F6000 X153.703 Y144.652
G1 F1200 X146.295 Y137.244 E16.21392
G0 F6000 X146.295 Y136.678
G1 F1200 X153.703 Y144.087 E16.423
G0 F6000 X153.703 Y143.521
G1 F1200 X146.295 Y136.113 E16.63207
G0 F6000 X146.295 Y135.547
G1 F1200 X153.703 Y142.955 E16.84114
G0 F6000 X153.703 Y142.39
G1 F1200 X146.295 Y134.981 E17.05023
G0 F6000 X146.295 Y134.416
G1 F1200 X153.703 Y141.824 E17.2593
G0 F6000 X153.703 Y141.258
G1 F1200 X146.295 Y133.85 E17.46837
G0 F6000 X146.295 Y133.284
G1 F1200 X153.703 Y140.693 E17.67745
G0 F6000 X153.703 Y140.127
G1 F1200 X146.295 Y132.718 E17.88654
G0 F6000 X146.295 Y132.153
G1 F1200 X153.703 Y139.561 E18.09561
G0 F6000 X153.703 Y138.995
G1 F1200 X146.527 Y131.819 E18.29813
G0 F6000 X147.093 Y131.819
G1 F1200 X153.703 Y138.43 E18.48469
G0 F6000 X153.703 Y137.864
G1 F1200 X147.658 Y131.819 E18.65529
G0 F6000 X148.224 Y131.819
G1 F1200 X153.703 Y137.298 E18.80992
G0 F6000 X153.703 Y136.733
G1 F1200 X148.79 Y131.819 E18.94859
G0 F6000 X149.355 Y131.819
G1 F1200 X153.703 Y136.167 E19.0713
G0 F6000 X153.703 Y135.601
G1 F1200 X149.921 Y131.819 E19.17804
G0 F6000 X150.487 Y131.819
G1 F1200 X153.703 Y135.036 E19.26881
G0 F6000 X153.703 Y134.47
G1 F1200 X151.052 Y131.819 E19.34363
G0 F6000 X151.618 Y131.819
G1 F1200 X153.703 Y133.904 E19.40247
G0 F6000 X153.703 Y133.339
G1 F1200 X152.184 Y131.819 E19.44536
G0 F6000 X152.749 Y131.819
G1 F1200 X153.703 Y132.773 E19.47228
G0 F6000 X153.703 Y132.207
G1 F1200 X153.315 Y131.819 E19.48323
G1 F1500 E12.98323
G0 F6000 X153.315 Y131.359
G0 X145.908 Y131.431
G0 X145.908 Y147.094
G0 X146.069 Y147.846
G0 X146.069 Y148.931
G0 X146.069 Y151.886
G0 X146.069 Y152.971
G0 X146.069 Y168.741
;TYPE:WALL-INNER
G1 F1500 E19.48323
G1 F1200 X153.935 Y168.741 E19.64021
G1 X153.935 Y157.485 E19.86483
G1 X153.935 Y153.552 E19.94332
G1 X146.069 Y153.552 E20.10029
G1 X146.069 Y168.741 E20.40341
G0 F6000 X145.669 Y169.141
G1 F1200 X154.335 Y169.141 E20.57635
G1 X154.335 Y157.485 E20.80895
G1 X154.335 Y153.152 E20.89542
G1 X145.669 Y153.152 E21.06836
G1 X145.669 Y169.141 E21.38744
G0 F6000 X145.269 Y169.541
;TYPE:WALL-OUTER
G1 F1200 X154.735 Y169.541 E21.57635
G1 X154.735 Y157.485 E21.81694
G1 X154.735 Y152.752 E21.91139
G1 X145.269 Y152.752 E22.10029
G1 X145.269 Y169.541 E22.43534
G0 F6000 X145.538 Y169.271
G0 X146.169 Y168.381
G0 X146.429 Y168.381
;TYPE:SKIN
G1 F1200 X153.575 Y168.381 E22.57794
G1 X153.575 Y164.808 E22.64924
G1 X153.575 Y153.912 E22.86669
G1 X146.429 Y153.912 E23.00929
G1 X146.429 Y168.381 E23.29804
G0 F6000 X147.25 Y168.18
G1 F1200 X146.629 Y167.559 E23.31556
G0 F6000 X146.629 Y166.993
G1 F1200 X147.815 Y168.18 E23.34905
G0 F6000 X148.381 Y168.18
G1 F1200 X146.629 Y166.428 E23.39849
G0 F6000 X146.629 Y165.862
G1 F1200 X148.947 Y168.18 E23.46391
G0 F6000 X149.512 Y168.18
G1 F1200 X146.629 Y165.296 E23.54529
G0 F6000 X146.629 Y164.731
G1 F1200 X150.078 Y168.18 E23.64263
G0 F6000 X150.644 Y168.18
G1 F1200 X146.629 Y164.165 E23.75594
G0 F6000 X146.629 Y163.599
G1 F1200 X151.209 Y168.18 E23.88521
G0 F6000 X151.775 Y168.18
G1 F1200 X146.629 Y163.034 E24.03044
G0 F6000 X146.629 Y162.468
G1 F1200 X152.341 Y168.18 E24.19165
G0 F6000 X152.906 Y168.18
G1 F1200 X146.629 Y161.902 E24.36881
G0 F6000 X146.629 Y161.337
G1 F1200 X153.374 Y168.082 E24.55917
G0 F6000 X153.374 Y167.517
G1 F1200 X146.629 Y160.771 E24.74954
G0 F6000 X146.629 Y160.205
G1 F1200 X153.374 Y166.951 E24.93992
G0 F6000 X153.374 Y166.385
G1 F1200 X146.629 Y159.639 E25.13029
G0 F6000 X146.629 Y159.074
G1 F1200 X153.374 Y165.82 E25.32066
G0 F6000 X153.374 Y165.254
G1 F1200 X146.629 Y158.508 E25.51104
G0 F6000 X146.629 Y157.942
G1 F1200 X153.374 Y164.688 E25.70141
G0 F6000 X153.374 Y164.123
G1 F1200 X146.629 Y157.377 E25.89178
G0 F6000 X146.629 Y156.811
G1 F1200 X153.374 Y163.557 E26.08215
G0 F6000 X153.374 Y162.991
G1 F1200 X146.629 Y156.245 E26.27253
G0 F6000 X146.629 Y155.68
G1 F1200 X153.374 Y162.425 E26.46288
G0 F6000 X153.374 Y161.86
G1 F1200 X146.629 Y155.114 E26.65326
G0 F6000 X146.629 Y154.548
G1 F1200 X153.374 Y161.294 E26.84363
