;FLAVOR:Marlin
;TIME:3855
;Filament used: 2.3385m
;Layer height: 0.2
;MINX:79.276
;MINY:102.875
;MINZ:0.2
;MAXX:198.274
;MAXY:165.674
;MAXZ:3.2
;Generated with Cura_SteamEngine 5.2.1
M140 S60
M105
M190 S60
M104 S200
M105
M109 S200
M82 ;absolute extrusion mode
; Ender 3 Max Custom Start G-code
G92 E0 ; Reset Extruder
G28 ; Home all axes
G1 Z2.0 F3000 ; Move Z Axis up little to prevent scratching of Heat Bed
G1 X0.1 Y20 Z0.3 F5000.0 ; Move to start position
G1 X0.1 Y200.0 Z0.3 F1500.0 E15 ; Draw the first line
G1 X0.4 Y200.0 Z0.3 F5000.0 ; Move to side a little
G1 X0.4 Y20 Z0.3 F1500.0 E30 ; Draw the second line
G92 E0 ; Reset Extruder
G1 Z2.0 F3000 ; Move Z Axis up little to prevent scratching of Heat Bed
G1 X5 Y20 Z0.3 F5000.0 ; Move over to prevent blob squish
G92 E0
G92 E0
G1 F1500 E-6.5
;LAYER_COUNT:16
;LAYER:0
M107
G0 F6000 X83.871 Y105.72 Z0.2
;TYPE:SKIRT
G1 F1500 E0
G1 F1200 X84.171 Y105.482 E0.01274
G1 X84.93 Y104.931 E0.04393
G1 X85.733 Y104.447 E0.07512
G1 X86.606 Y104.019 E0.10745
G1 X86.961 Y103.864 E0.12034
G1 X87.836 Y103.526 E0.15154
G1 X88.737 Y103.263 E0.18275
G1 X89.734 Y103.066 E0.21656
G1 X90.128 Y103.007 E0.22981
G1 X91.328 Y102.894 E0.26989
G1 X92.039 Y102.875 E0.29355
G1 X186.725 Y102.875 E3.44282
G1 X187.423 Y102.885 E3.46604
G1 X188.359 Y102.939 E3.49722
G1 X189.287 Y103.071 E3.5284
G1 X190.201 Y103.283 E3.5596
G1 X191.093 Y103.572 E3.59079
G1 X191.958 Y103.935 E3.62199
G1 X192.788 Y104.371 E3.65317
G1 X193.579 Y104.876 E3.68439
G1 X194.323 Y105.447 E3.71558
G1 X195.016 Y106.079 E3.74678
G1 X195.653 Y106.767 E3.77796
G1 X196.228 Y107.508 E3.80916
G1 X196.739 Y108.294 E3.84034
G1 X197.181 Y109.122 E3.87156
G1 X197.55 Y109.984 E3.90274
G1 X197.845 Y110.874 E3.93393
G1 X198.063 Y111.786 E3.96512
G1 X198.203 Y112.714 E3.99633
G1 X198.26 Y113.563 E4.02463
G1 X198.274 Y114.192 E4.04556
G1 X198.273 Y154.074 E5.37204
G1 X198.264 Y154.801 E5.39622
G1 X198.213 Y155.738 E5.42743
G1 X198.081 Y156.666 E5.45861
G1 X197.872 Y157.58 E5.48979
G1 X197.585 Y158.473 E5.52099
G1 X197.223 Y159.339 E5.55221
G1 X196.789 Y160.17 E5.58339
G1 X196.285 Y160.961 E5.61458
G1 X195.716 Y161.706 E5.64576
G1 X195.085 Y162.401 E5.67699
G1 X194.398 Y163.039 E5.70817
G1 X193.659 Y163.616 E5.73935
G1 X192.873 Y164.128 E5.77055
G1 X192.047 Y164.571 E5.80173
G1 X191.185 Y164.943 E5.83295
G1 X190.296 Y165.239 E5.86412
G1 X189.384 Y165.459 E5.89532
G1 X188.457 Y165.6 E5.92651
G1 X187.573 Y165.661 E5.95598
G1 X186.944 Y165.674 E5.9769
G1 X92.308 Y165.672 E9.12451
G1 X91.557 Y165.661 E9.14949
G1 X90.621 Y165.607 E9.18067
G1 X90.064 Y165.537 E9.19935
G1 X89.755 Y165.49 E9.20974
G1 X88.835 Y165.309 E9.24093
G1 X87.933 Y165.051 E9.27213
G1 X87.39 Y164.854 E9.29134
G1 X87.041 Y164.717 E9.30381
G1 X86.183 Y164.338 E9.33501
G1 X85.361 Y163.886 E9.36621
G1 X84.498 Y163.306 E9.4008
G1 X84.163 Y163.057 E9.41468
G1 X83.435 Y162.466 E9.44587
G1 X82.76 Y161.815 E9.47706
G1 X82.044 Y160.985 E9.51351
G1 X81.83 Y160.71 E9.5251
G1 X81.286 Y159.945 E9.55633
G1 X80.809 Y159.138 E9.5875
G1 X80.431 Y158.358 E9.61633
G1 X80.258 Y157.962 E9.63071
G1 X79.919 Y157.087 E9.66192
G1 X79.657 Y156.187 E9.69309
G1 X79.44 Y155.052 E9.73153
G1 X79.379 Y154.607 E9.74647
G1 X79.291 Y153.673 E9.77767
G1 X79.277 Y153.114 E9.79627
G1 X79.276 Y115.909 E11.03371
G1 X79.286 Y115.212 E11.0569
G1 X79.378 Y113.941 E11.09928
G1 X79.427 Y113.567 E11.11183
G1 X79.589 Y112.643 E11.14303
G1 X79.828 Y111.736 E11.17422
G1 X80.142 Y110.859 E11.20521
G1 X80.28 Y110.519 E11.21741
G1 X80.669 Y109.666 E11.24859
G1 X81.13 Y108.849 E11.27979
G1 X81.639 Y108.101 E11.30989
G1 X81.875 Y107.783 E11.32306
G1 X82.465 Y107.054 E11.35425
G1 X83.116 Y106.378 E11.38546
G1 X83.871 Y105.72 E11.41877
G0 F6000 X84.12 Y106.034
G1 F1200 X84.42 Y105.796 E11.43151
G1 X85.165 Y105.256 E11.46211
G1 X85.955 Y104.782 E11.49276
G1 X86.766 Y104.386 E11.52277
G1 X87.121 Y104.231 E11.53566
G1 X87.98 Y103.899 E11.56629
G1 X88.865 Y103.644 E11.59692
G1 X89.793 Y103.462 E11.62837
G1 X90.187 Y103.403 E11.64162
G1 X91.344 Y103.294 E11.68028
G1 X92.039 Y103.275 E11.7034
G1 X186.567 Y103.274 E14.84742
G1 X187.417 Y103.285 E14.87569
G1 X188.336 Y103.338 E14.90631
G1 X189.247 Y103.471 E14.93693
G1 X190.143 Y103.682 E14.96754
G1 X191.017 Y103.97 E14.99815
G1 X191.864 Y104.333 E15.0288
G1 X192.675 Y104.768 E15.05941
G1 X193.445 Y105.272 E15.09002
G1 X194.169 Y105.841 E15.12064
G1 X194.841 Y106.471 E15.15128
G1 X195.456 Y107.156 E15.1819
G1 X196.009 Y107.892 E15.21252
G1 X196.496 Y108.673 E15.24313
G1 X196.913 Y109.494 E15.27376
G1 X197.258 Y110.348 E15.30439
G1 X197.527 Y111.228 E15.335
G1 X197.719 Y112.129 E15.36564
G1 X197.832 Y113.042 E15.39624
G1 X197.86 Y113.574 E15.41396
G1 X197.874 Y114.192 E15.43452
G1 X197.873 Y154.069 E16.76083
G1 X197.864 Y154.796 E16.78501
G1 X197.813 Y155.715 E16.81563
G1 X197.682 Y156.627 E16.84627
G1 X197.472 Y157.523 E16.87688
G1 X197.186 Y158.398 E16.9075
G1 X196.825 Y159.245 E16.93812
G1 X196.391 Y160.057 E16.96874
G1 X195.889 Y160.829 E16.99937
G1 X195.321 Y161.554 E17.03
G1 X194.693 Y162.227 E17.06062
G1 X194.009 Y162.843 E17.09124
G1 X193.274 Y163.397 E17.12185
G1 X192.494 Y163.886 E17.15247
G1 X191.674 Y164.305 E17.18309
G1 X190.821 Y164.651 E17.21371
G1 X189.941 Y164.922 E17.24434
G1 X189.041 Y165.115 E17.27495
G1 X188.127 Y165.23 E17.30559
G1 X187.562 Y165.261 E17.32441
G1 X186.944 Y165.274 E17.34497
G1 X92.314 Y165.272 E20.49238
G1 X91.563 Y165.261 E20.51736
G1 X90.644 Y165.207 E20.54798
G1 X89.815 Y165.094 E20.5758
G1 X88.912 Y164.917 E20.60641
G1 X88.027 Y164.661 E20.63705
G1 X87.536 Y164.482 E20.65443
G1 X87.187 Y164.345 E20.6669
G1 X86.345 Y163.972 E20.69753
G1 X85.539 Y163.527 E20.72816
G1 X84.737 Y162.985 E20.76035
G1 X84.402 Y162.736 E20.77423
G1 X83.687 Y162.156 E20.80485
G1 X83.026 Y161.515 E20.83548
G1 X82.36 Y160.739 E20.86949
G1 X82.146 Y160.464 E20.88108
G1 X81.612 Y159.713 E20.91173
G1 X81.146 Y158.92 E20.94232
G1 X80.797 Y158.198 E20.96899
G1 X80.624 Y157.802 E20.98337
G1 X80.293 Y156.943 E21.01399
G1 X80.037 Y156.058 E21.04463
G1 X79.836 Y154.998 E21.08051
G1 X79.775 Y154.553 E21.09545
G1 X79.69 Y153.636 E21.12608
G1 X79.677 Y153.114 E21.14345
G1 X79.675 Y116.068 E22.3756
G1 X79.686 Y115.218 E22.40388
G1 X79.775 Y113.993 E22.44473
G1 X79.824 Y113.619 E22.45727
G1 X79.983 Y112.712 E22.4879
G1 X80.22 Y111.823 E22.5185
G1 X80.512 Y111.01 E22.54723
G1 X80.65 Y110.67 E22.55944
G1 X81.033 Y109.832 E22.59008
G1 X81.487 Y109.031 E22.62071
G1 X81.96 Y108.339 E22.64858
G1 X82.196 Y108.021 E22.66176
G1 X82.776 Y107.306 E22.69238
G1 X83.416 Y106.644 E22.723
G1 X84.12 Y106.034 E22.75399
G0 F6000 X84.369 Y106.347
G1 F1200 X84.669 Y106.109 E22.76672
G1 X85.4 Y105.58 E22.79673
G1 X86.176 Y105.117 E22.82679
G1 X86.927 Y104.752 E22.85456
G1 X87.282 Y104.597 E22.86744
G1 X88.124 Y104.273 E22.89745
G1 X88.993 Y104.024 E22.92752
G1 X89.852 Y103.857 E22.95662
G1 X90.246 Y103.798 E22.96987
G1 X91.359 Y103.694 E23.00705
G1 X92.039 Y103.675 E23.02968
G1 X186.567 Y103.674 E26.17369
G1 X187.411 Y103.685 E26.20177
G1 X188.313 Y103.738 E26.23182
G1 X189.206 Y103.87 E26.26184
G1 X190.084 Y104.081 E26.29188
G1 X190.94 Y104.369 E26.32192
G1 X191.767 Y104.731 E26.35194
G1 X192.559 Y105.166 E26.382
G1 X193.31 Y105.668 E26.41204
G1 X194.013 Y106.235 E26.44208
G1 X194.663 Y106.862 E26.47212
G1 X195.255 Y107.544 E26.50215
G1 X195.785 Y108.275 E26.53219
G1 X196.247 Y109.051 E26.56222
G1 X196.64 Y109.864 E26.59226
G1 X196.958 Y110.709 E26.62229
G1 X197.201 Y111.579 E26.65233
G1 X197.366 Y112.467 E26.68237
G1 X197.461 Y113.586 E26.71972
G1 X197.474 Y114.192 E26.73988
G1 X197.473 Y154.064 E28.06603
G1 X197.464 Y154.791 E28.09021
G1 X197.413 Y155.693 E28.12026
G1 X197.282 Y156.587 E28.15031
G1 X197.073 Y157.465 E28.18033
G1 X196.787 Y158.322 E28.21038
G1 X196.426 Y159.15 E28.24042
G1 X195.994 Y159.942 E28.27043
G1 X195.493 Y160.694 E28.30048
G1 X194.927 Y161.398 E28.33053
G1 X194.302 Y162.049 E28.36054
G1 X193.621 Y162.643 E28.3906
G1 X192.89 Y163.174 E28.42065
G1 X192.116 Y163.638 E28.45067
G1 X191.303 Y164.032 E28.48071
G1 X190.459 Y164.352 E28.51074
G1 X189.589 Y164.597 E28.5408
G1 X188.702 Y164.763 E28.57081
G1 X187.551 Y164.861 E28.60923
G1 X186.944 Y164.874 E28.62943
G1 X92.32 Y164.872 E31.77663
G1 X91.569 Y164.861 E31.80161
G1 X90.667 Y164.808 E31.83167
G1 X89.875 Y164.699 E31.85826
G1 X88.989 Y164.524 E31.8883
G1 X88.122 Y164.271 E31.91833
G1 X87.333 Y163.973 E31.94639
G1 X86.508 Y163.606 E31.97642
G1 X85.718 Y163.167 E32.00648
G1 X84.975 Y162.664 E32.03632
G1 X84.64 Y162.415 E32.0502
G1 X83.94 Y161.845 E32.08023
G1 X83.293 Y161.215 E32.11026
G1 X82.675 Y160.493 E32.14187
G1 X82.461 Y160.218 E32.15346
G1 X81.939 Y159.482 E32.18347
G1 X81.483 Y158.702 E32.21353
G1 X81.164 Y158.037 E32.23806
G1 X80.991 Y157.641 E32.25243
G1 X80.666 Y156.799 E32.28245
G1 X80.418 Y155.93 E32.31251
G1 X80.233 Y154.943 E32.3459
G1 X80.172 Y154.498 E32.36084
G1 X80.089 Y153.599 E32.39087
G1 X80.077 Y153.114 E32.40701
G1 X80.075 Y116.068 E33.63916
G1 X80.086 Y115.224 E33.66724
G1 X80.171 Y114.045 E33.70655
G1 X80.22 Y113.671 E33.7191
G1 X80.377 Y112.782 E33.74912
G1 X80.612 Y111.91 E33.77916
G1 X80.883 Y111.16 E33.80568
G1 X81.021 Y110.82 E33.81789
G1 X81.397 Y109.999 E33.84792
G1 X81.845 Y109.215 E33.87796
G1 X82.281 Y108.577 E33.90366
G1 X82.517 Y108.259 E33.91683
G1 X83.087 Y107.559 E33.94685
G1 X83.717 Y106.911 E33.97691
G1 X84.369 Y106.347 E34.00559
G1 F1500 E27.50559
;MESH:holder_2x_v2.stl
G0 F6000 X98.967 Y128.809
G0 X104.805 Y141.3
;TYPE:WALL-INNER
G1 F1500 E34.00559
G1 F1200 X103.775 Y141.376 E34.03994
G1 X102.76 Y141.304 E34.07378
G1 X101.767 Y141.088 E34.10758
G1 X100.819 Y140.73 E34.14129
G1 X99.935 Y140.248 E34.17477
G1 X99.123 Y139.639 E34.20853
G1 X98.409 Y138.925 E34.24212
G1 X97.8 Y138.113 E34.27588
G1 X97.315 Y137.226 E34.3095
G1 X96.96 Y136.281 E34.34308
G1 X96.749 Y135.305 E34.37629
G1 X96.675 Y134.32 E34.40914
G1 X96.675 Y134.232 E34.41207
G1 X96.745 Y133.262 E34.44441
G1 X96.96 Y132.266 E34.4783
G1 X97.315 Y131.322 E34.51185
G1 X97.8 Y130.434 E34.5455
G1 X98.408 Y129.623 E34.57921
G1 X99.124 Y128.907 E34.61289
G1 X99.937 Y128.298 E34.64668
G1 X100.819 Y127.817 E34.68009
G1 X101.766 Y127.46 E34.71375
G1 X102.743 Y127.248 E34.747
G1 X103.773 Y127.172 E34.78136
G1 X104.787 Y127.244 E34.81517
G1 X105.783 Y127.459 E34.84906
G1 X106.731 Y127.816 E34.88275
G1 X107.613 Y128.299 E34.9162
G1 X108.423 Y128.907 E34.94988
G1 X109.141 Y129.626 E34.98368
G1 X109.748 Y130.434 E35.01729
G1 X110.234 Y131.322 E35.05096
G1 X110.587 Y132.265 E35.08445
G1 X110.804 Y133.261 E35.11835
G1 X110.877 Y134.279 E35.1523
G1 X110.806 Y135.254 E35.18481
G1 X110.587 Y136.282 E35.21977
G1 X110.232 Y137.228 E35.25338
G1 X109.749 Y138.112 E35.28688
G1 X109.14 Y138.925 E35.32067
G1 X108.426 Y139.639 E35.35425
G1 X107.614 Y140.248 E35.38801
G1 X106.727 Y140.733 E35.42164
G1 X105.781 Y141.088 E35.45524
G1 X104.805 Y141.3 E35.48846
G0 F6000 X104.736 Y140.906
;TYPE:WALL-OUTER
G1 F1200 X103.759 Y140.974 E35.52103
G1 X102.804 Y140.904 E35.55288
G1 X101.866 Y140.698 E35.58483
G1 X100.987 Y140.367 E35.61606
G1 X100.14 Y139.902 E35.6482
G1 X99.378 Y139.328 E35.67993
G1 X98.72 Y138.67 E35.71088
G1 X98.13 Y137.883 E35.7436
G1 X97.675 Y137.047 E35.77525
G1 X97.35 Y136.182 E35.80599
G1 X97.143 Y135.236 E35.8382
G1 X97.074 Y134.261 E35.87071
G1 X97.145 Y133.304 E35.90262
G1 X97.35 Y132.365 E35.93459
G1 X97.675 Y131.501 E35.96529
G1 X98.145 Y130.641 E35.99789
G1 X98.72 Y129.877 E36.02969
G1 X99.4 Y129.2 E36.06161
G1 X100.164 Y128.63 E36.09331
G1 X100.987 Y128.18 E36.12451
G1 X101.866 Y127.849 E36.15575
G1 X102.812 Y127.642 E36.18796
G1 X103.789 Y127.574 E36.22053
G1 X104.744 Y127.644 E36.25238
G1 X105.683 Y127.849 E36.28435
G1 X106.548 Y128.174 E36.31508
G1 X107.385 Y128.63 E36.34678
G1 X108.161 Y129.209 E36.37899
G1 X108.839 Y129.888 E36.4109
G1 X109.411 Y130.65 E36.44259
G1 X109.874 Y131.501 E36.47481
G1 X110.199 Y132.365 E36.50552
G1 X110.404 Y133.304 E36.53748
G1 X110.474 Y134.257 E36.56926
G1 X110.408 Y135.219 E36.60134
G1 X110.199 Y136.182 E36.63411
G1 X109.874 Y137.047 E36.66484
G1 X109.412 Y137.896 E36.69699
G1 X108.839 Y138.659 E36.72873
G1 X108.161 Y139.337 E36.76062
G1 X107.384 Y139.918 E36.79289
G1 X106.548 Y140.373 E36.82455
G1 X105.683 Y140.698 E36.85528
G1 X104.736 Y140.906 E36.88753
G1 F1500 E30.38753
G0 F6000 X104.85 Y141.393
G0 X107.662 Y140.428
G0 X127.887 Y140.428
G0 X131.775 Y141.376
;TYPE:WALL-INNER
G1 F1500 E36.88753
G1 F1200 X130.76 Y141.304 E36.92137
G1 X129.768 Y141.088 E36.95514
G1 X128.822 Y140.733 E36.98875
G1 X127.935 Y140.248 E37.02237
G1 X127.123 Y139.639 E37.05613
G1 X126.409 Y138.925 E37.08971
G1 X125.822 Y138.144 E37.12221
G1 X125.318 Y137.228 E37.15698
G1 X124.962 Y136.282 E37.1906
G1 X124.745 Y135.287 E37.22447
G1 X124.672 Y134.276 E37.25819
G1 X124.745 Y133.261 E37.29203
G1 X124.962 Y132.265 E37.32594
G1 X125.301 Y131.36 E37.35808
G1 X125.336 Y131.284 E37.36086
G1 X125.8 Y130.434 E37.39307
G1 X126.408 Y129.623 E37.42678
G1 X127.126 Y128.907 E37.46051
G1 X127.936 Y128.299 E37.49419
G1 X128.818 Y127.816 E37.52764
G1 X129.766 Y127.459 E37.56133
G1 X130.743 Y127.248 E37.59458
G1 X131.773 Y127.172 E37.62893
G1 X132.787 Y127.244 E37.66274
G1 X133.783 Y127.459 E37.69663
G1 X134.731 Y127.816 E37.73032
G1 X135.613 Y128.299 E37.76377
G1 X136.423 Y128.907 E37.79745
G1 X137.14 Y129.625 E37.8312
G1 X137.725 Y130.401 E37.86352
G1 X138.218 Y131.293 E37.89742
G1 X138.581 Y132.246 E37.93134
G1 X138.8 Y133.247 E37.96542
G1 X138.876 Y134.271 E37.99957
G1 X138.804 Y135.278 E38.03315
G1 X138.581 Y136.3 E38.06794
G1 X138.233 Y137.227 E38.10088
G1 X137.733 Y138.135 E38.13535
G1 X137.159 Y138.899 E38.16714
G1 X136.427 Y139.638 E38.20173
G1 X135.614 Y140.248 E38.23554
G1 X134.727 Y140.733 E38.26916
G1 X133.781 Y141.088 E38.30277
G1 X132.805 Y141.3 E38.33599
G1 X131.775 Y141.376 E38.37034
G0 F6000 X131.759 Y140.974
;TYPE:WALL-OUTER
G1 F1200 X130.804 Y140.904 E38.40219
G1 X129.866 Y140.698 E38.43413
G1 X129.001 Y140.373 E38.46486
G1 X128.14 Y139.902 E38.4975
G1 X127.388 Y139.337 E38.52879
G1 X126.71 Y138.659 E38.56068
G1 X126.137 Y137.896 E38.59242
G1 X125.675 Y137.047 E38.62456
G1 X125.35 Y136.182 E38.6553
G1 X125.141 Y135.219 E38.68807
G1 X125.074 Y134.261 E38.72001
G1 X125.145 Y133.304 E38.75193
G1 X125.35 Y132.365 E38.7839
G1 X125.675 Y131.501 E38.8146
G1 X126.137 Y130.652 E38.84675
G1 X126.71 Y129.888 E38.87851
G1 X127.388 Y129.209 E38.91043
G1 X128.164 Y128.63 E38.94263
G1 X129.001 Y128.174 E38.97433
G1 X129.866 Y127.849 E39.00507
G1 X130.812 Y127.642 E39.03727
G1 X131.789 Y127.574 E39.06985
G1 X132.744 Y127.644 E39.1017
G1 X133.683 Y127.849 E39.13366
G1 X134.548 Y128.174 E39.1644
G1 X135.385 Y128.63 E39.1961
G1 X136.161 Y129.209 E39.2283
G1 X136.838 Y129.887 E39.26017
G1 X137.411 Y130.651 E39.29193
G1 X137.874 Y131.501 E39.32413
G1 X138.201 Y132.372 E39.35507
G1 X138.406 Y133.313 E39.3871
G1 X138.474 Y134.287 E39.41958
G1 X138.406 Y135.236 E39.45122
G1 X138.204 Y136.166 E39.48287
G1 X137.874 Y137.047 E39.51416
G1 X137.407 Y137.903 E39.5466
G1 X136.845 Y138.652 E39.57774
G1 X136.161 Y139.337 E39.60994
G1 X135.384 Y139.918 E39.64221
G1 X134.548 Y140.373 E39.67386
G1 X133.683 Y140.698 E39.7046
G1 X132.736 Y140.906 E39.73685
G1 X131.759 Y140.974 E39.76942
G1 F1500 E33.26942
G0 F6000 X131.723 Y141.474
G0 X135.662 Y140.428
G0 X153.537 Y138.189
G0 X155.861 Y138.858
;TYPE:WALL-INNER
G1 F1500 E39.76942
G1 F1200 X155.052 Y138.712 E39.79676
G1 X154.273 Y138.419 E39.82444
G1 X153.567 Y137.996 E39.85182
G1 X152.948 Y137.458 E39.8791
G1 X152.429 Y136.804 E39.90686
G1 X152.043 Y136.079 E39.93418
