;FLAVOR:Marlin
;TIME:3846
;Filament used: 1.56756m
;Layer height: 0.2
;MINX:132.001
;MINY:130.2
;MINZ:0.2
;MAXX:167.996
;MAXY:178.675
;MAXZ:50.8
;Generated with Cura_SteamEngine 5.2.1
M140 S60
M105
M190 S60
M104 S215
M105
M109 S215
M82 ;absolute extrusion mode
; Ender 3 Max Custom Start G-code
G92 E0 ; Reset Extruder
G28 ; Home all axes
G1 Z2.0 F3000 ; Move Z Axis up little to prevent scratching of Heat Bed
G1 X0.1 Y20 Z0.3 F5000.0 ; Move to start position
G1 X0.1 Y200.0 Z0.3 F1500.0 E15 ; Draw the first line
G1 X0.4 Y200.0 Z0.3 F5000.0 ; Move to side a little
G1 X0.4 Y20 Z0.3 F1500.0 E30 ; Draw the second line
G92 E0 ; Reset Extruder
G1 Z2.0 F3000 ; Move Z Axis up little to prevent scratching of Heat Bed
G1 X5 Y20 Z0.3 F5000.0 ; Move over to prevent blob squish
G92 E0
G92 E0
G1 F1500 E-6.5
;LAYER_COUNT:255
;LAYER:0
M107
G0 F6000 X137.477 Y135.303 Z0.2
;TYPE:SKIRT
G1 F1500 E0
G1 F1200 X138.149 Y134.649 E0.03119
G1 X138.858 Y134.067 E0.0617
G1 X139.679 Y133.45 E0.09586
G1 X140.664 Y132.733 E0.13638
G1 X141.375 Y132.23 E0.16534
G1 X142.163 Y131.722 E0.19653
G1 X142.992 Y131.283 E0.22773
G1 X143.855 Y130.916 E0.25892
G1 X144.747 Y130.625 E0.29013
G1 X145.659 Y130.41 E0.32129
G1 X146.587 Y130.273 E0.35249
G1 X147.528 Y130.217 E0.38384
G1 X148.58 Y130.2 E0.41884
G1 X149.957 Y130.201 E0.46464
G1 X150.655 Y130.211 E0.48786
G1 X151.591 Y130.265 E0.51904
G1 X152.519 Y130.397 E0.55021
G1 X153.433 Y130.609 E0.58142
G1 X154.325 Y130.898 E0.61261
G1 X155.19 Y131.261 E0.64381
G1 X156.02 Y131.697 E0.67499
G1 X156.841 Y132.224 E0.70744
G1 X157.715 Y132.842 E0.74304
G1 X158.648 Y133.521 E0.78142
G1 X159.346 Y134.044 E0.81043
G1 X160.072 Y134.638 E0.84163
G1 X160.744 Y135.292 E0.87282
G1 X161.358 Y136.001 E0.90401
G1 X161.91 Y136.76 E0.93523
G1 X162.394 Y137.563 E0.96641
G1 X162.809 Y138.404 E0.9976
G1 X163.145 Y139.261 E1.02822
G1 X163.476 Y140.227 E1.06218
G1 X163.866 Y141.425 E1.10409
G1 X164.119 Y142.24 E1.13247
G1 X164.357 Y143.147 E1.16366
G1 X164.516 Y144.062 E1.19455
G1 X164.619 Y144.853 E1.22108
G1 X164.769 Y146.138 E1.26411
G1 X165.13 Y148.625 E1.34769
G1 X165.559 Y151.085 E1.43075
G1 X166.064 Y153.567 E1.51499
G1 X166.632 Y156.006 E1.59828
G1 X167.01 Y157.466 E1.64844
G1 X167.15 Y158.08 E1.66939
G1 X167.405 Y159.376 E1.71332
G1 X167.664 Y160.844 E1.7629
G1 X167.823 Y161.848 E1.79671
G1 X167.911 Y162.548 E1.82018
G1 X167.952 Y162.988 E1.83487
G1 X167.996 Y164.266 E1.87741
G1 X167.988 Y164.608 E1.88878
G1 X167.869 Y165.984 E1.93472
G1 X167.813 Y166.357 E1.94727
G1 X167.61 Y167.398 E1.98254
G1 X167.34 Y168.366 E2.01597
G1 X167.103 Y169.065 E2.04052
G1 X166.957 Y169.451 E2.05424
G1 X166.545 Y170.401 E2.08868
G1 X166.395 Y170.707 E2.10002
G1 X165.947 Y171.53 E2.13118
G1 X165.536 Y172.164 E2.15631
G1 X165.295 Y172.509 E2.17031
G1 X164.791 Y173.183 E2.1983
G1 X164.202 Y173.868 E2.22835
G1 X164.018 Y174.067 E2.23736
G1 X163.473 Y174.616 E2.26309
G1 X163.258 Y174.818 E2.2729
G1 X162.69 Y175.316 E2.29803
G1 X162.432 Y175.527 E2.30911
G1 X161.681 Y176.089 E2.34031
G1 X161.189 Y176.407 E2.3598
G1 X160.808 Y176.639 E2.37463
G1 X159.839 Y177.165 E2.41131
G1 X159.434 Y177.359 E2.42624
G1 X158.572 Y177.727 E2.45741
G1 X157.841 Y177.975 E2.48309
G1 X157.414 Y178.103 E2.49792
G1 X156.469 Y178.341 E2.53033
G1 X156.07 Y178.423 E2.54388
G1 X155.144 Y178.572 E2.57507
G1 X154.406 Y178.634 E2.5997
G1 X153.847 Y178.662 E2.61832
G1 X153.146 Y178.675 E2.64164
G1 X151.906 Y178.658 E2.68289
G1 X151.222 Y178.639 E2.70564
G1 X148.666 Y178.637 E2.79066
G1 X147.065 Y178.673 E2.84392
G1 X146.373 Y178.671 E2.86694
G1 X145.541 Y178.631 E2.89464
G1 X144.803 Y178.558 E2.91931
G1 X144.512 Y178.519 E2.92907
G1 X143.14 Y178.245 E2.97561
G1 X142.701 Y178.128 E2.99072
G1 X142.01 Y177.919 E3.01473
G1 X141.735 Y177.826 E3.02438
G1 X140.709 Y177.421 E3.06107
G1 X140.359 Y177.262 E3.07386
G1 X139.523 Y176.838 E3.10503
G1 X138.973 Y176.508 E3.12637
G1 X138.505 Y176.208 E3.14486
G1 X137.455 Y175.444 E3.18804
G1 X137.157 Y175.199 E3.20088
G1 X136.459 Y174.573 E3.23206
G1 X135.88 Y173.963 E3.26003
G1 X135.554 Y173.592 E3.27646
G1 X135.032 Y172.951 E3.30395
G1 X134.876 Y172.744 E3.31258
G1 X134.453 Y172.142 E3.33705
G1 X134.27 Y171.862 E3.34817
G1 X133.73 Y170.942 E3.38365
G1 X133.582 Y170.659 E3.39428
G1 X133.184 Y169.81 E3.42546
G1 X132.982 Y169.291 E3.44399
G1 X132.805 Y168.8 E3.46135
G1 X132.506 Y167.858 E3.49422
G1 X132.252 Y166.715 E3.53316
G1 X132.181 Y166.302 E3.5471
G1 X132.045 Y165.145 E3.58585
G1 X132.024 Y164.819 E3.59671
G1 X132.001 Y163.784 E3.63114
G1 X132.084 Y162.594 E3.67082
G1 X132.194 Y161.742 E3.69939
G1 X132.472 Y159.98 E3.75872
G1 X132.482 Y159.881 E3.76203
G1 X132.673 Y158.698 E3.80189
G1 X132.998 Y156.237 E3.88445
G1 X133.263 Y153.675 E3.97012
G1 X133.448 Y151.204 E4.05253
G1 X133.566 Y148.68 E4.13657
G1 X133.609 Y146.637 E4.20454
G1 X133.623 Y145.383 E4.24625
G1 X133.673 Y144.447 E4.27743
G1 X133.803 Y143.518 E4.30863
G1 X134.101 Y142.294 E4.35053
G1 X134.426 Y141.234 E4.3874
G1 X134.802 Y140.08 E4.42777
G1 X135.072 Y139.289 E4.45557
G1 X135.413 Y138.416 E4.48674
G1 X135.827 Y137.574 E4.51795
G1 X136.312 Y136.771 E4.54915
G1 X136.863 Y136.013 E4.58032
G1 X137.477 Y135.303 E4.61154
G0 F6000 X137.826 Y135.517
G1 F1200 X138.491 Y134.88 E4.64217
G1 X139.099 Y134.386 E4.66822
G1 X139.915 Y133.773 E4.70217
G1 X141.023 Y132.967 E4.74774
G1 X141.605 Y132.556 E4.77144
G1 X142.38 Y132.058 E4.80208
G1 X143.194 Y131.63 E4.83266
G1 X144.043 Y131.273 E4.8633
G1 X144.92 Y130.992 E4.89393
G1 X145.818 Y130.787 E4.92456
G1 X146.73 Y130.661 E4.95518
G1 X147.535 Y130.617 E4.982
G1 X148.58 Y130.6 E5.01676
G1 X149.799 Y130.6 E5.0573
G1 X150.649 Y130.611 E5.08558
G1 X151.568 Y130.664 E5.11619
G1 X152.479 Y130.797 E5.14681
G1 X153.375 Y131.008 E5.17743
G1 X154.249 Y131.296 E5.20804
G1 X155.096 Y131.659 E5.23869
G1 X155.907 Y132.094 E5.2693
G1 X156.611 Y132.551 E5.29721
G1 X157.479 Y133.165 E5.33258
G1 X158.412 Y133.844 E5.37095
G1 X159.106 Y134.364 E5.3998
G1 X159.818 Y134.948 E5.43043
G1 X160.476 Y135.591 E5.46103
G1 X161.076 Y136.29 E5.49166
G1 X161.613 Y137.037 E5.52226
G1 X162.084 Y137.829 E5.55291
G1 X162.483 Y138.658 E5.58351
G1 X162.767 Y139.391 E5.60966
G1 X163.039 Y140.181 E5.63745
G1 X163.534 Y141.701 E5.69062
G1 X163.737 Y142.358 E5.71349
G1 X163.97 Y143.248 E5.74409
G1 X164.12 Y144.114 E5.77332
G1 X164.204 Y144.757 E5.79489
G1 X164.37 Y146.169 E5.84217
G1 X164.734 Y148.68 E5.92656
G1 X165.168 Y151.168 E6.01056
G1 X165.669 Y153.632 E6.09419
G1 X166.245 Y156.105 E6.17865
G1 X166.623 Y157.566 E6.22884
G1 X166.758 Y158.158 E6.24904
G1 X166.971 Y159.231 E6.28542
G1 X167.269 Y160.907 E6.34204
G1 X167.428 Y161.911 E6.37585
G1 X167.512 Y162.586 E6.39847
G1 X167.553 Y163.026 E6.41317
G1 X167.596 Y164.257 E6.45414
G1 X167.588 Y164.599 E6.46552
G1 X167.474 Y165.925 E6.50978
G1 X167.418 Y166.298 E6.52233
G1 X167.224 Y167.29 E6.55595
G1 X166.992 Y168.152 E6.58564
G1 X166.728 Y168.923 E6.61274
G1 X166.582 Y169.309 E6.62647
G1 X166.186 Y170.225 E6.65966
G1 X166.036 Y170.531 E6.67099
G1 X165.595 Y171.339 E6.70161
G1 X165.208 Y171.935 E6.72524
G1 X164.967 Y172.28 E6.73924
G1 X164.477 Y172.934 E6.76642
G1 X163.908 Y173.596 E6.79546
G1 X163.724 Y173.795 E6.80447
G1 X163.199 Y174.324 E6.82926
G1 X162.984 Y174.526 E6.83907
G1 X162.437 Y175.006 E6.86328
G1 X162.179 Y175.217 E6.87436
G1 X161.441 Y175.769 E6.90501
G1 X160.981 Y176.066 E6.92323
G1 X160.6 Y176.298 E6.93806
G1 X159.666 Y176.804 E6.97339
G1 X159.261 Y176.998 E6.98833
G1 X158.414 Y177.359 E7.01895
G1 X157.726 Y177.592 E7.04311
G1 X157.299 Y177.72 E7.05794
G1 X156.389 Y177.949 E7.08915
G1 X155.99 Y178.031 E7.1027
G1 X155.081 Y178.177 E7.13332
G1 X154.386 Y178.235 E7.15651
G1 X153.827 Y178.263 E7.17513
G1 X153.152 Y178.275 E7.19758
G1 X151.912 Y178.258 E7.23883
G1 X151.234 Y178.239 E7.26139
G1 X148.657 Y178.237 E7.3471
G1 X147.056 Y178.273 E7.40036
G1 X146.379 Y178.271 E7.42288
G1 X145.567 Y178.232 E7.44992
G1 X144.856 Y178.161 E7.47368
G1 X144.565 Y178.122 E7.48345
G1 X143.243 Y177.858 E7.52829
G1 X142.804 Y177.741 E7.5434
G1 X142.138 Y177.54 E7.56654
G1 X141.863 Y177.447 E7.57619
G1 X140.875 Y177.057 E7.61152
G1 X140.525 Y176.898 E7.62431
G1 X139.704 Y176.481 E7.65493
G1 X139.189 Y176.171 E7.67493
G1 X138.721 Y175.871 E7.69342
G1 X137.709 Y175.135 E7.73504
G1 X137.411 Y174.89 E7.74787
G1 X136.726 Y174.275 E7.77848
G1 X136.18 Y173.699 E7.80488
G1 X135.854 Y173.328 E7.82131
G1 X135.352 Y172.711 E7.84776
G1 X135.196 Y172.504 E7.85639
G1 X134.788 Y171.923 E7.88
G1 X134.605 Y171.643 E7.89112
G1 X134.085 Y170.756 E7.92532
G1 X133.937 Y170.473 E7.93594
G1 X133.546 Y169.64 E7.96655
G1 X133.358 Y169.156 E7.98382
G1 X133.181 Y168.665 E8.00118
G1 X132.892 Y167.751 E8.03306
G1 X132.646 Y166.647 E8.07068
G1 X132.575 Y166.234 E8.08462
G1 X132.444 Y165.119 E8.12196
G1 X132.423 Y164.793 E8.13282
G1 X132.401 Y163.792 E8.16613
G1 X132.481 Y162.642 E8.20447
G1 X132.589 Y161.804 E8.23257
G1 X132.859 Y160.092 E8.29022
G1 X132.876 Y159.945 E8.29514
G1 X133.069 Y158.748 E8.33546
G1 X133.398 Y156.259 E8.41897
G1 X133.661 Y153.712 E8.50413
G1 X133.848 Y151.216 E8.58738
G1 X133.965 Y148.705 E8.67099
G1 X134.009 Y146.646 E8.73949
G1 X134.023 Y145.388 E8.78133
G1 X134.073 Y144.468 E8.81198
G1 X134.202 Y143.557 E8.84258
G1 X134.483 Y142.411 E8.88182
G1 X134.806 Y141.358 E8.91846
G1 X135.182 Y140.204 E8.95883
G1 X135.45 Y139.419 E8.98641
G1 X135.786 Y138.562 E9.01703
G1 X136.194 Y137.737 E9.04764
G1 X136.673 Y136.95 E9.07829
G1 X137.219 Y136.208 E9.10893
G1 X137.826 Y135.517 E9.13952
G0 F6000 X138.175 Y135.732
G1 F1200 X138.833 Y135.113 E9.16956
G1 X139.34 Y134.706 E9.19119
G1 X140.15 Y134.096 E9.22491
G1 X141.135 Y133.379 E9.26544
G1 X141.836 Y132.883 E9.294
G1 X142.596 Y132.395 E9.32404
G1 X143.396 Y131.977 E9.35406
G1 X144.231 Y131.63 E9.38413
G1 X145.092 Y131.359 E9.41415
G1 X145.974 Y131.166 E9.44418
G1 X146.87 Y131.05 E9.47423
G1 X147.542 Y131.017 E9.49661
G1 X148.58 Y131 E9.53114
G1 X149.799 Y131 E9.57168
G1 X150.643 Y131.011 E9.59976
G1 X151.545 Y131.064 E9.62981
G1 X152.438 Y131.196 E9.65983
G1 X153.316 Y131.407 E9.68987
G1 X154.172 Y131.695 E9.71991
G1 X154.999 Y132.057 E9.74993
G1 X155.791 Y132.492 E9.77999
G1 X156.38 Y132.878 E9.80341
G1 X157.244 Y133.489 E9.83861
G1 X158.177 Y134.168 E9.87699
G1 X158.866 Y134.684 E9.90562
G1 X159.564 Y135.257 E9.93565
G1 X160.208 Y135.89 E9.96569
G1 X160.794 Y136.578 E9.99574
G1 X161.316 Y137.314 E10.02576
G1 X161.772 Y138.094 E10.05581
G1 X162.156 Y138.911 E10.08583
G1 X162.388 Y139.521 E10.10754
G1 X162.715 Y140.475 E10.14108
G1 X163.105 Y141.673 E10.18298
G1 X163.354 Y142.476 E10.21095
G1 X163.583 Y143.35 E10.241
G1 X163.723 Y144.166 E10.26853
G1 X163.824 Y144.946 E10.29469
G1 X163.975 Y146.238 E10.33796
G1 X164.337 Y148.735 E10.42188
G1 X164.774 Y151.238 E10.50639
G1 X165.283 Y153.738 E10.59124
G1 X165.846 Y156.158 E10.67388
G1 X166.236 Y157.666 E10.72569
G1 X166.366 Y158.236 E10.74513
G1 X166.618 Y159.516 E10.78852
G1 X166.843 Y160.786 E10.83142
G1 X167.032 Y161.974 E10.87143
G1 X167.114 Y162.623 E10.89319
G1 X167.155 Y163.063 E10.90789
G1 X167.196 Y164.248 E10.94732
G1 X167.188 Y164.59 E10.9587
G1 X167.078 Y165.865 E11.00127
G1 X167.022 Y166.238 E11.01381
G1 X166.832 Y167.212 E11.04682
G1 X166.575 Y168.134 E11.07865
G1 X166.354 Y168.782 E11.10142
G1 X166.208 Y169.168 E11.11515
G1 X165.827 Y170.049 E11.14708
G1 X165.677 Y170.355 E11.15841
G1 X165.244 Y171.147 E11.18843
G1 X164.88 Y171.706 E11.21062
G1 X164.639 Y172.051 E11.22462
G1 X164.166 Y172.684 E11.2509
G1 X163.614 Y173.325 E11.27903
G1 X163.43 Y173.524 E11.28805
G1 X162.925 Y174.033 E11.3119
G1 X162.71 Y174.235 E11.32171
G1 X162.183 Y174.697 E11.34502
G1 X161.925 Y174.908 E11.3561
G1 X161.202 Y175.448 E11.38612
G1 X160.773 Y175.724 E11.40308
G1 X160.392 Y175.956 E11.41792
G1 X159.493 Y176.443 E11.45193
G1 X159.088 Y176.637 E11.46686
G1 X158.258 Y176.991 E11.49687
G1 X157.611 Y177.208 E11.51957
G1 X157.184 Y177.336 E11.5344
G1 X156.308 Y177.557 E11.56445
G1 X155.909 Y177.639 E11.57799
G1 X155.018 Y177.782 E11.60801
G1 X154.366 Y177.835 E11.62977
G1 X153.807 Y177.863 E11.64838
G1 X153.157 Y177.875 E11.67
G1 X151.917 Y177.858 E11.71125
G1 X151.246 Y177.839 E11.73358
G1 X148.648 Y177.837 E11.81999
G1 X147.047 Y177.873 E11.87325
G1 X146.384 Y177.871 E11.8953
G1 X145.593 Y177.833 E11.92164
G1 X144.909 Y177.765 E11.9445
G1 X144.618 Y177.726 E11.95427
G1 X143.346 Y177.472 E11.99741
G1 X142.907 Y177.355 E12.01252
G1 X142.266 Y177.161 E12.0348
G1 X141.991 Y177.068 E12.04445
G1 X141.04 Y176.693 E12.07845
G1 X140.69 Y176.534 E12.09124
G1 X139.885 Y176.124 E12.12129
G1 X139.404 Y175.834 E12.13997
G1 X138.936 Y175.534 E12.15846
G1 X137.963 Y174.826 E12.19848
G1 X137.665 Y174.581 E12.21131
G1 X136.994 Y173.977 E12.24134
G1 X136.481 Y173.435 E12.26616
G1 X136.155 Y173.064 E12.28258
G1 X135.671 Y172.47 E12.30807
G1 X135.515 Y172.263 E12.31669
G1 X135.123 Y171.704 E12.3394
G1 X134.94 Y171.424 E12.35052
G1 X134.439 Y170.571 E12.38343
G1 X134.291 Y170.288 E12.39405
G1 X133.909 Y169.47 E12.42408
G1 X133.734 Y169.02 E12.44013
G1 X133.557 Y168.529 E12.45749
G1 X133.278 Y167.645 E12.48833
G1 X133.04 Y166.579 E12.52465
G1 X132.969 Y166.166 E12.53859
G1 X132.843 Y165.094 E12.57449
G1 X132.822 Y164.768 E12.58536
G1 X132.801 Y163.8 E12.61756
G1 X132.878 Y162.69 E12.65457
G1 X132.985 Y161.866 E12.6822
G1 X133.238 Y160.262 E12.73621
G1 X133.271 Y160.008 E12.74473
G1 X133.468 Y158.788 E12.78584
G1 X133.794 Y156.32 E12.86863
G1 X134.056 Y153.782 E12.9535
G1 X134.247 Y151.228 E13.03868
G1 X134.366 Y148.694 E13.12306
G1 X134.409 Y146.654 E13.19092
G1 X134.423 Y145.392 E13.2329
G1 X134.472 Y144.49 E13.26294
G1 X134.602 Y143.597 E13.29296
G1 X134.866 Y142.527 E13.32961
G1 X135.129 Y141.665 E13.35959
G1 X135.61 Y140.185 E13.41135
G1 X135.828 Y139.548 E13.43374
G1 X136.158 Y138.708 E13.46376
G1 X136.561 Y137.899 E13.49382
G1 X137.034 Y137.13 E13.52385
G1 X137.574 Y136.406 E13.55389
G1 X138.175 Y135.732 E13.58392
G1 F1500 E7.08392
G0 F6000 X148.432 Y144.811
G0 X148.705 Y145.185
G1 F1500 E13.58392
G1 F1200 X148.96 Y145 E13.5944
G1 X149.27 Y145 E13.60471
G1 X149.525 Y145.185 E13.61519
G1 X149.621 Y145.482 E13.62557
G1 X149.525 Y145.779 E13.63595
G1 X149.27 Y145.964 E13.64643
G1 X148.96 Y145.964 E13.65674
G1 X148.705 Y145.779 E13.66722
G1 X148.609 Y145.482 E13.6776
G1 X148.705 Y145.185 E13.68798
G0 F6000 X148.364 Y144.94
G1 F1200 X148.831 Y144.6 E13.7072
G1 X149.399 Y144.6 E13.72609
G1 X149.866 Y144.94 E13.7453
G1 X150.043 Y145.482 E13.76426
G1 X149.866 Y146.024 E13.78323
G1 X149.399 Y146.364 E13.80244
G1 X148.831 Y146.364 E13.82133
G1 X148.364 Y146.024 E13.84055
G1 X148.187 Y145.482 E13.85951
G1 X148.364 Y144.94 E13.87847
G0 F6000 X148.024 Y144.692
G1 F1200 X148.7 Y144.2 E13.90628
G1 X149.53 Y144.2 E13.93389
G1 X150.206 Y144.692 E13.9617
G1 X150.463 Y145.482 E13.98933
G1 X150.206 Y146.272 E14.01696
G1 X149.53 Y146.764 E14.04477
G1 X148.7 Y146.764 E14.07237
G1 X148.024 Y146.272 E14.10018
G1 X147.767 Y145.482 E14.12781
G1 X148.024 Y144.692 E14.15544
G0 F6000 X147.683 Y144.445
G1 F1200 X148.57 Y143.8 E14.19192
G1 X149.66 Y143.8 E14.22817
G1 X150.547 Y144.445 E14.26465
G1 X150.884 Y145.482 E14.30092
G1 X150.547 Y146.519 E14.33718
G1 X149.66 Y147.164 E14.37366
G1 X148.57 Y147.164 E14.40991
G1 X147.683 Y146.519 E14.44639
G1 X147.346 Y145.482 E14.48266
G1 X147.683 Y144.445 E14.51892
G0 F6000 X147.343 Y144.199
G1 F1200 X148.441 Y143.4 E14.56409
G1 X149.789 Y143.4 E14.60892
G1 X150.887 Y144.199 E14.65409
G1 X151.304 Y145.482 E14.69896
G1 X150.887 Y146.765 E14.74383
G1 X149.789 Y147.564 E14.78899
G1 X148.441 Y147.564 E14.83383
