;FLAVOR:Marlin
;TIME:3796
;Filament used: 1.37363m
;Layer height: 0.12
;MINX:112.582
;MINY:106.025
;MINZ:0.12
;MAXX:187.914
;MAXY:176.613
;MAXZ:3.84
;Generated with Cura_SteamEngine 5.2.1
M140 S60
M105
M190 S60
M104 S215
M105
M109 S215
M82 ;absolute extrusion mode
; Ender 3 Max Custom Start G-code
G92 E0 ; Reset Extruder
G28 ; Home all axes
G1 Z2.0 F3000 ; Move Z Axis up little to prevent scratching of Heat Bed
G1 X0.1 Y20 Z0.3 F5000.0 ; Move to start position
G1 X0.1 Y200.0 Z0.3 F1500.0 E15 ; Draw the first line
G1 X0.4 Y200.0 Z0.3 F5000.0 ; Move to side a little
G1 X0.4 Y20 Z0.3 F1500.0 E30 ; Draw the second line
G92 E0 ; Reset Extruder
G1 Z2.0 F3000 ; Move Z Axis up little to prevent scratching of Heat Bed
G1 X5 Y20 Z0.3 F5000.0 ; Move over to prevent blob squish
G92 E0
G92 E0
G1 F1500 E-6.5
;LAYER_COUNT:32
;LAYER:0
M107
G0 F6000 X122.096 Y111.998 Z0.12
;TYPE:SKIRT
G1 F1500 E0
G1 F1200 X122.464 Y111.596 E0.01088
G1 X123.057 Y111 E0.02765
G1 X123.346 Y110.728 E0.03557
G1 X123.983 Y110.167 E0.05251
G1 X124.667 Y109.622 E0.06997
G1 X125.113 Y109.294 E0.08101
G1 X125.373 Y109.113 E0.08734
G1 X126.067 Y108.663 E0.10384
G1 X126.55 Y108.377 E0.11504
G1 X126.824 Y108.224 E0.12131
G1 X127.512 Y107.867 E0.13678
G1 X128.233 Y107.536 E0.15261
G1 X128.92 Y107.263 E0.16736
G1 X129.491 Y107.058 E0.17947
G1 X130.386 Y106.779 E0.19818
G1 X130.854 Y106.666 E0.20778
G1 X131.379 Y106.551 E0.21851
G1 X132.303 Y106.389 E0.23723
G1 X132.853 Y106.331 E0.24827
G1 X133.476 Y106.281 E0.26074
G1 X134.472 Y106.247 E0.28063
G1 X135.027 Y106.253 E0.2917
G1 X137.671 Y106.244 E0.34447
G1 X140.138 Y106.166 E0.39372
G1 X141.23 Y106.099 E0.41556
G1 X142.24 Y106.048 E0.43574
G1 X143.271 Y106.025 E0.45632
G1 X143.931 Y106.035 E0.46949
G1 X146.928 Y106.132 E0.52933
G1 X149.451 Y106.139 E0.57968
G1 X151.969 Y106.074 E0.62995
G1 X152.583 Y106.048 E0.64221
G1 X153.493 Y106.028 E0.66037
G1 X154.327 Y106.041 E0.67702
G1 X157.1 Y106.191 E0.73244
G1 X159.653 Y106.255 E0.7834
G1 X162.033 Y106.249 E0.8309
G1 X162.932 Y106.264 E0.84884
G1 X163.988 Y106.336 E0.86996
G1 X164.537 Y106.4 E0.88099
G1 X165.463 Y106.548 E0.89971
G1 X166.072 Y106.691 E0.91219
G1 X166.462 Y106.794 E0.92024
G1 X167.396 Y107.086 E0.93977
G1 X167.921 Y107.276 E0.95091
G1 X168.653 Y107.571 E0.96666
G1 X169.395 Y107.916 E0.98299
G1 X170.138 Y108.308 E0.99975
G1 X170.404 Y108.46 E1.00587
G1 X170.957 Y108.798 E1.0188
G1 X171.262 Y108.997 E1.02607
G1 X171.864 Y109.416 E1.04071
G1 X172.525 Y109.921 E1.05731
G1 X172.971 Y110.291 E1.06887
G1 X173.241 Y110.527 E1.07603
G1 X173.855 Y111.1 E1.09279
G1 X174.452 Y111.713 E1.10986
G1 X174.821 Y112.122 E1.12086
G1 X175.084 Y112.429 E1.12892
G1 X175.596 Y113.067 E1.14525
G1 X175.934 Y113.524 E1.15659
G1 X176.146 Y113.827 E1.16397
G1 X176.619 Y114.553 E1.18126
G1 X176.909 Y115.039 E1.19256
G1 X177.082 Y115.347 E1.19961
G1 X177.452 Y116.058 E1.2156
G1 X177.699 Y116.581 E1.22715
G1 X177.844 Y116.911 E1.23434
G1 X178.12 Y117.591 E1.24898
G1 X178.379 Y118.329 E1.26459
G1 X178.534 Y118.826 E1.27498
G1 X178.73 Y119.538 E1.28972
G1 X178.799 Y119.826 E1.29563
G1 X178.945 Y120.538 E1.31013
G1 X179.009 Y120.913 E1.31772
G1 X179.089 Y121.468 E1.32891
G1 X179.154 Y122.046 E1.34052
G1 X179.407 Y124.782 E1.39535
G1 X179.711 Y127.279 E1.44555
G1 X180.084 Y129.763 E1.49568
G1 X180.531 Y132.248 E1.54607
G1 X181.047 Y134.724 E1.59654
G1 X181.616 Y137.114 E1.64557
G1 X182.282 Y139.593 E1.69679
G1 X183.008 Y142.019 E1.74733
G1 X183.79 Y144.384 E1.79704
G1 X184.648 Y146.757 E1.84739
G1 X185.569 Y149.092 E1.89748
G1 X186.622 Y151.556 E1.95096
G1 X186.843 Y152.052 E1.96179
G1 X187.289 Y153.232 E1.98697
G1 X187.375 Y153.506 E1.9927
G1 X187.618 Y154.412 E2.01142
G1 X187.794 Y155.428 E2.032
G1 X187.837 Y155.77 E2.03887
G1 X187.914 Y156.704 E2.05758
G1 X187.909 Y157.795 E2.07935
G1 X187.813 Y158.855 E2.10059
G1 X187.7 Y159.533 E2.11431
G1 X187.62 Y159.936 E2.12251
G1 X187.399 Y160.847 E2.14121
G1 X187.1 Y161.736 E2.15993
G1 X186.54 Y162.964 E2.18686
G1 X186.335 Y163.349 E2.19557
G1 X185.86 Y164.157 E2.21427
G1 X185.415 Y164.793 E2.22976
G1 X185.193 Y165.088 E2.23713
G1 X184.598 Y165.813 E2.25585
G1 X183.943 Y166.484 E2.27456
G1 X182.941 Y167.321 E2.30061
G1 X182.604 Y167.57 E2.30898
G1 X181.826 Y168.095 E2.32771
G1 X181.021 Y168.55 E2.34616
G1 X180.077 Y168.989 E2.36694
G1 X179.432 Y169.232 E2.38069
G1 X179.02 Y169.373 E2.38938
G1 X178.12 Y169.639 E2.40811
G1 X177.201 Y169.827 E2.42683
G1 X175.874 Y169.958 E2.45344
G1 X175.451 Y169.974 E2.46189
G1 X174.06 Y169.939 E2.48965
G1 X173.27 Y169.867 E2.50548
G1 X171.813 Y169.713 E2.53472
G1 X169.298 Y169.52 E2.58506
G1 X166.8 Y169.399 E2.63497
G1 X164.282 Y169.349 E2.68523
G1 X161.754 Y169.37 E2.73568
G1 X159.244 Y169.461 E2.7858
G1 X156.709 Y169.627 E2.8365
G1 X154.224 Y169.859 E2.8863
G1 X151.733 Y170.162 E2.93638
G1 X149.247 Y170.537 E2.98655
G1 X146.735 Y170.988 E3.03749
G1 X144.293 Y171.5 E3.08728
G1 X141.898 Y172.071 E3.13641
G1 X139.4 Y172.743 E3.18803
G1 X137.003 Y173.462 E3.23797
G1 X134.627 Y174.247 E3.28791
G1 X132.183 Y175.133 E3.33979
G1 X130.49 Y175.787 E3.37601
G1 X129.602 Y176.088 E3.39472
G1 X128.754 Y176.299 E3.41216
G1 X128.411 Y176.37 E3.41915
G1 X127.485 Y176.52 E3.43787
G1 X126.815 Y176.58 E3.45129
G1 X126.486 Y176.599 E3.45787
G1 X125.548 Y176.613 E3.47659
G1 X124.504 Y176.534 E3.49748
G1 X124.002 Y176.472 E3.50758
G1 X123.077 Y176.318 E3.52629
G1 X121.732 Y175.943 E3.55416
G1 X121.33 Y175.803 E3.56265
G1 X120.459 Y175.457 E3.58135
G1 X119.704 Y175.085 E3.59815
G1 X119.385 Y174.912 E3.60539
G1 X118.58 Y174.43 E3.62412
G1 X117.712 Y173.795 E3.64558
G1 X117.231 Y173.406 E3.65792
G1 X116.527 Y172.786 E3.67664
G1 X115.879 Y172.108 E3.69536
G1 X115.292 Y171.377 E3.71407
G1 X114.886 Y170.787 E3.72836
G1 X114.599 Y170.339 E3.73898
G1 X114.127 Y169.528 E3.75771
G1 X113.803 Y168.858 E3.77256
G1 X113.66 Y168.535 E3.77961
G1 X113.317 Y167.662 E3.79833
G1 X113.039 Y166.719 E3.81794
G1 X112.937 Y166.306 E3.82643
G1 X112.751 Y165.387 E3.84515
G1 X112.643 Y164.439 E3.86419
G1 X112.608 Y163.94 E3.87417
G1 X112.582 Y163.002 E3.89289
G1 X112.637 Y162.066 E3.91161
G1 X112.764 Y161.17 E3.92967
G1 X112.835 Y160.786 E3.93746
G1 X113.045 Y159.872 E3.95617
G1 X113.202 Y159.35 E3.96705
G1 X113.397 Y158.757 E3.97951
G1 X114.169 Y156.288 E4.03113
G1 X114.85 Y153.872 E4.08123
G1 X115.466 Y151.421 E4.13166
G1 X116.018 Y148.936 E4.18246
G1 X116.482 Y146.518 E4.23159
G1 X116.893 Y143.998 E4.28255
G1 X117.222 Y141.544 E4.33196
G1 X117.488 Y139.018 E4.38264
G1 X117.682 Y136.489 E4.43326
G1 X117.803 Y134.003 E4.48293
G1 X117.854 Y131.481 E4.53327
G1 X117.833 Y128.979 E4.5832
G1 X117.674 Y125.228 E4.65813
G1 X117.632 Y124.565 E4.67138
G1 X117.6 Y123.723 E4.6882
G1 X117.616 Y122.712 E4.70838
G1 X117.643 Y122.271 E4.71719
G1 X117.744 Y121.31 E4.73648
G1 X117.794 Y120.977 E4.7432
G1 X117.917 Y120.303 E4.75687
G1 X118.102 Y119.491 E4.77349
G1 X118.233 Y118.991 E4.7838
G1 X118.478 Y118.185 E4.80061
G1 X118.742 Y117.457 E4.81607
G1 X119.055 Y116.704 E4.83234
G1 X119.187 Y116.413 E4.83872
G1 X119.541 Y115.694 E4.85471
G1 X119.825 Y115.171 E4.86659
G1 X120.011 Y114.85 E4.87399
G1 X120.421 Y114.189 E4.88951
G1 X120.75 Y113.7 E4.90128
G1 X120.964 Y113.4 E4.90863
G1 X121.305 Y112.947 E4.91995
G1 X121.844 Y112.287 E4.93695
G1 X122.096 Y111.998 E4.9446
G0 F6000 X122.398 Y112.261
G1 F1200 X122.752 Y111.874 E4.95507
G1 X123.331 Y111.291 E4.97147
G1 X123.62 Y111.019 E4.97939
G1 X124.003 Y110.676 E4.98965
G1 X124.637 Y110.15 E5.00609
G1 X124.911 Y109.938 E5.013
G1 X125.602 Y109.441 E5.02999
G1 X126.279 Y109.002 E5.04609
G1 X126.745 Y108.726 E5.0569
G1 X127.019 Y108.573 E5.06316
G1 X127.691 Y108.225 E5.07826
G1 X128.393 Y107.903 E5.09367
G1 X129.055 Y107.639 E5.1079
G1 X129.626 Y107.434 E5.12
G1 X130.94 Y107.057 E5.14728
G1 X131.465 Y106.942 E5.15801
G1 X132.372 Y106.784 E5.17638
G1 X132.885 Y106.73 E5.18667
G1 X133.508 Y106.68 E5.19915
G1 X134.468 Y106.647 E5.21832
G1 X135.024 Y106.653 E5.22941
G1 X137.651 Y106.645 E5.28184
G1 X140.176 Y106.564 E5.33225
G1 X141.25 Y106.498 E5.35373
G1 X142.26 Y106.447 E5.37391
G1 X143.277 Y106.425 E5.39421
G1 X143.913 Y106.435 E5.4069
G1 X146.915 Y106.532 E5.46684
G1 X149.46 Y106.539 E5.51763
G1 X151.998 Y106.473 E5.56829
G1 X152.592 Y106.448 E5.58016
G1 X153.502 Y106.428 E5.59832
G1 X154.306 Y106.44 E5.61437
G1 X157.104 Y106.591 E5.67029
G1 X159.644 Y106.655 E5.72099
G1 X162.034 Y106.649 E5.76869
G1 X162.924 Y106.664 E5.78645
G1 X163.941 Y106.733 E5.80679
G1 X164.49 Y106.797 E5.81782
G1 X165.399 Y106.944 E5.8362
G1 X165.97 Y107.077 E5.8479
G1 X166.36 Y107.18 E5.85595
G1 X167.26 Y107.462 E5.87477
G1 X167.785 Y107.652 E5.88591
G1 X168.491 Y107.936 E5.9011
G1 X169.214 Y108.273 E5.91702
G1 X169.478 Y108.407 E5.92293
G1 X170.205 Y108.808 E5.93949
G1 X170.738 Y109.133 E5.95195
G1 X171.043 Y109.332 E5.95922
G1 X171.631 Y109.741 E5.97351
G1 X172.278 Y110.236 E5.98977
G1 X172.708 Y110.592 E6.00091
G1 X172.978 Y110.828 E6.00807
G1 X173.578 Y111.388 E6.02445
G1 X174.162 Y111.988 E6.04115
G1 X174.517 Y112.382 E6.05174
G1 X174.78 Y112.689 E6.05981
G1 X175.281 Y113.313 E6.07578
G1 X175.606 Y113.753 E6.08669
G1 X175.818 Y114.056 E6.09407
G1 X176.281 Y114.767 E6.111
G1 X176.56 Y115.235 E6.12188
G1 X176.733 Y115.543 E6.12893
G1 X177.095 Y116.238 E6.14456
G1 X177.333 Y116.742 E6.15569
G1 X177.478 Y117.072 E6.16288
G1 X177.748 Y117.737 E6.1772
G1 X177.997 Y118.448 E6.19224
G1 X178.152 Y118.945 E6.20263
G1 X178.341 Y119.631 E6.21683
G1 X178.41 Y119.919 E6.22274
G1 X178.551 Y120.606 E6.23673
G1 X178.615 Y120.981 E6.24432
G1 X178.692 Y121.515 E6.25509
G1 X178.756 Y122.083 E6.2665
G1 X179.01 Y124.835 E6.32165
G1 X179.312 Y127.31 E6.37141
G1 X179.694 Y129.855 E6.42276
G1 X180.14 Y132.335 E6.47305
G1 X180.653 Y134.793 E6.52316
G1 X181.238 Y137.253 E6.57362
G1 X181.889 Y139.674 E6.62365
G1 X182.628 Y142.143 E6.67508
G1 X183.409 Y144.509 E6.7248
G1 X184.276 Y146.904 E6.77563
G1 X185.2 Y149.248 E6.82591
G1 X186.234 Y151.666 E6.87839
G1 X186.478 Y152.215 E6.89038
G1 X186.908 Y153.352 E6.91464
G1 X186.994 Y153.626 E6.92037
G1 X187.231 Y154.515 E6.93873
G1 X187.397 Y155.478 E6.95823
G1 X187.44 Y155.82 E6.96511
G1 X187.515 Y156.737 E6.98347
G1 X187.51 Y157.776 E7.00421
G1 X187.415 Y158.818 E7.02509
G1 X187.308 Y159.455 E7.03798
G1 X187.228 Y159.858 E7.04618
G1 X187.01 Y160.752 E7.06454
G1 X186.715 Y161.624 E7.08291
G1 X186.187 Y162.776 E7.1082
G1 X185.982 Y163.161 E7.11691
G1 X185.515 Y163.954 E7.13527
G1 X185.096 Y164.553 E7.14986
G1 X184.874 Y164.848 E7.15723
G1 X184.289 Y165.559 E7.1756
G1 X183.644 Y166.216 E7.19397
G1 X182.703 Y166.999 E7.2184
G1 X182.366 Y167.248 E7.22677
G1 X181.603 Y167.763 E7.24514
G1 X180.834 Y168.196 E7.26275
G1 X179.909 Y168.625 E7.2831
G1 X179.302 Y168.854 E7.29604
G1 X178.89 Y168.995 E7.30473
G1 X178.007 Y169.255 E7.3231
G1 X177.105 Y169.437 E7.34146
G1 X175.859 Y169.558 E7.36645
G1 X175.436 Y169.574 E7.37489
G1 X174.096 Y169.54 E7.40164
G1 X173.313 Y169.469 E7.41733
G1 X171.856 Y169.315 E7.44657
G1 X169.346 Y169.123 E7.49681
G1 X166.793 Y168.999 E7.54782
G1 X164.287 Y168.949 E7.59784
G1 X161.737 Y168.97 E7.64873
G1 X159.238 Y169.061 E7.69863
G1 X156.679 Y169.228 E7.7498
G1 X154.178 Y169.461 E7.79993
G1 X151.662 Y169.768 E7.85051
G1 X149.183 Y170.142 E7.90054
G1 X146.687 Y170.59 E7.95115
G1 X144.198 Y171.111 E8.0019
G1 X141.766 Y171.691 E8.05179
G1 X139.319 Y172.35 E8.10236
G1 X136.867 Y173.085 E8.15345
G1 X134.513 Y173.863 E8.20292
G1 X132.043 Y174.758 E8.25535
G1 X130.346 Y175.414 E8.29166
G1 X129.474 Y175.708 E8.31002
G1 X128.673 Y175.907 E8.32649
G1 X128.33 Y175.978 E8.33348
G1 X127.421 Y176.125 E8.35186
G1 X126.792 Y176.18 E8.36446
G1 X126.463 Y176.199 E8.37104
G1 X125.543 Y176.212 E8.3894
G1 X124.553 Y176.137 E8.40921
G1 X124.051 Y176.075 E8.4193
G1 X123.143 Y175.923 E8.43768
G1 X121.864 Y175.565 E8.46418
G1 X121.462 Y175.425 E8.47268
G1 X120.606 Y175.085 E8.49106
G1 X119.895 Y174.733 E8.50689
G1 X119.576 Y174.56 E8.51413
G1 X118.786 Y174.086 E8.53252
G1 X117.963 Y173.484 E8.55287
G1 X117.482 Y173.095 E8.56521
G1 X116.792 Y172.486 E8.58358
G1 X116.158 Y171.818 E8.60196
G1 X115.584 Y171.099 E8.62032
G1 X115.222 Y170.571 E8.63309
G1 X114.935 Y170.123 E8.64371
G1 X114.473 Y169.327 E8.66208
G1 X114.168 Y168.696 E8.67606
G1 X114.025 Y168.373 E8.68311
G1 X113.69 Y167.516 E8.70147
G1 X113.427 Y166.624 E8.72003
G1 X113.325 Y166.211 E8.72852
G1 X113.143 Y165.308 E8.7469
G1 X113.042 Y164.411 E8.76492
G1 X113.007 Y163.912 E8.7749
G1 X112.983 Y162.991 E8.79329
G1 X113.038 Y162.072 E8.81166
G1 X113.158 Y161.243 E8.82837
G1 X113.229 Y160.859 E8.83617
G1 X113.435 Y159.962 E8.85453
G1 X113.582 Y159.475 E8.86469
G1 X113.778 Y158.879 E8.87721
G1 X114.55 Y156.411 E8.92881
G1 X115.237 Y153.972 E8.97938
G1 X115.859 Y151.5 E9.03025
G1 X116.402 Y149.053 E9.08027
G1 X116.882 Y146.552 E9.13109
G1 X117.284 Y144.084 E9.18099
G1 X117.622 Y141.568 E9.23165
G1 X117.886 Y139.057 E9.28204
G1 X118.08 Y136.536 E9.33249
G1 X118.203 Y133.996 E9.38324
G1 X118.254 Y131.486 E9.43334
G1 X118.233 Y128.959 E9.48377
G1 X118.075 Y125.235 E9.55816
G1 X118.031 Y124.54 E9.57205
G1 X118 Y123.711 E9.58861
G1 X118.015 Y122.736 E9.60807
G1 X118.042 Y122.295 E9.61688
G1 X118.14 Y121.369 E9.63547
G1 X118.19 Y121.036 E9.64219
G1 X118.308 Y120.387 E9.65535
G1 X118.489 Y119.592 E9.67162
G1 X118.62 Y119.092 E9.68194
G1 X118.856 Y118.316 E9.69812
G1 X119.114 Y117.605 E9.71322
G1 X119.42 Y116.869 E9.72912
G1 X119.759 Y116.147 E9.74504
G1 X119.897 Y115.876 E9.75111
G1 X120.171 Y115.372 E9.76256
G1 X120.582 Y114.68 E9.77862
G1 X120.758 Y114.403 E9.78517
G1 X121.076 Y113.932 E9.79651
G1 X121.29 Y113.632 E9.80386
G1 X121.618 Y113.196 E9.81475
G1 X121.834 Y112.924 E9.82168
G1 X122.398 Y112.261 E9.83905
G0 F6000 X122.699 Y112.523
G1 F1200 X123.249 Y111.934 E9.85514
G1 X123.605 Y111.582 E9.86513
G1 X123.894 Y111.31 E9.87305
G1 X124.502 Y110.776 E9.8892
G1 X125.156 Y110.255 E9.90588
G1 X125.83 Y109.77 E9.92245
G1 X126.492 Y109.341 E9.93819
G1 X126.94 Y109.075 E9.94859
G1 X127.214 Y108.922 E9.95486
G1 X127.869 Y108.583 E9.96957
G1 X128.553 Y108.269 E9.98459
G1 X129.19 Y108.016 E9.99827
G1 X129.761 Y107.811 E10.01038
G1 X131.025 Y107.447 E10.03663
G1 X131.55 Y107.332 E10.04735
G1 X132.44 Y107.178 E10.06538
G1 X132.917 Y107.129 E10.07495
G1 X133.54 Y107.079 E10.08742
G1 X134.464 Y107.047 E10.10587
G1 X135.022 Y107.053 E10.11701
G1 X137.664 Y107.044 E10.16973
G1 X140.215 Y106.963 E10.22066
G1 X141.271 Y106.898 E10.24178
G1 X142.281 Y106.847 E10.26196
G1 X143.283 Y106.825 E10.28196
G1 X143.895 Y106.834 E10.29417
G1 X144.316 Y106.853 E10.30258
G1 X146.902 Y106.932 E10.35421
G1 X149.434 Y106.939 E10.40474
G1 X152.028 Y106.872 E10.45653
G1 X152.601 Y106.847 E10.46797
G1 X153.511 Y106.827 E10.48614
G1 X154.284 Y106.84 E10.50157
G1 X157.072 Y106.99 E10.55728
G1 X159.635 Y107.055 E10.60845
G1 X162.035 Y107.049 E10.65634
G1 X162.916 Y107.064 E10.67393
G1 X163.895 Y107.131 E10.69351
G1 X164.444 Y107.195 E10.70454
G1 X165.336 Y107.339 E10.72257
G1 X165.868 Y107.464 E10.73348
G1 X166.258 Y107.567 E10.74153
G1 X167.124 Y107.838 E10.75963
G1 X167.649 Y108.028 E10.77078
G1 X168.328 Y108.301 E10.78538
G1 X168.566 Y108.407 E10.79058
G1 X169.297 Y108.764 E10.80681
G1 X170.007 Y109.155 E10.82299
G1 X170.52 Y109.468 E10.83498
G1 X170.825 Y109.667 E10.84225
G1 X171.398 Y110.066 E10.85618
G1 X172.031 Y110.55 E10.87209
G1 X172.445 Y110.893 E10.88281
G1 X172.715 Y111.129 E10.88997
G1 X173.301 Y111.677 E10.90598
G1 X173.872 Y112.263 E10.92231
G1 X174.213 Y112.642 E10.93248
G1 X174.476 Y112.949 E10.94055
G1 X174.965 Y113.559 E10.95615
G1 X175.278 Y113.983 E10.96667
