;FLAVOR:Marlin
;TIME:3906
;Filament used: 1.98519m
;Layer height: 0.16
;MINX:124.755
;MINY:123.838
;MINZ:0.2
;MAXX:174.753
;MAXY:173.834
;MAXZ:28.12
;Generated with Cura_SteamEngine 5.2.1
M140 S60
M105
M190 S60
M104 S215
M105
M109 S215
M82 ;absolute extrusion mode
; Ender 3 Max Custom Start G-code
G92 E0 ; Reset Extruder
G28 ; Home all axes
G1 Z2.0 F3000 ; Move Z Axis up little to prevent scratching of Heat Bed
G1 X0.1 Y20 Z0.3 F5000.0 ; Move to start position
G1 X0.1 Y200.0 Z0.3 F1500.0 E15 ; Draw the first line
G1 X0.4 Y200.0 Z0.3 F5000.0 ; Move to side a little
G1 X0.4 Y20 Z0.3 F1500.0 E30 ; Draw the second line
G92 E0 ; Reset Extruder
G1 Z2.0 F3000 ; Move Z Axis up little to prevent scratching of Heat Bed
G1 X5 Y20 Z0.3 F5000.0 ; Move over to prevent blob squish
G92 E0
G92 E0
G1 F1500 E-6.5
;LAYER_COUNT:203
;LAYER:0
M107
G0 F6000 X132.22 Y131.016 Z0.2
;TYPE:SKIRT
G1 F1500 E0
G1 F1200 X132.843 Y130.425 E0.02856
G1 X133.327 Y129.991 E0.05018
G1 X133.694 Y129.677 E0.06625
G1 X134.329 Y129.165 E0.09338
G1 X134.841 Y128.774 E0.11481
G1 X135.203 Y128.509 E0.12973
G1 X135.945 Y127.998 E0.15969
G1 X136.482 Y127.651 E0.18096
G1 X136.922 Y127.381 E0.19813
G1 X137.659 Y126.96 E0.22636
G1 X138.309 Y126.611 E0.2509
G1 X138.781 Y126.372 E0.26849
G1 X139.407 Y126.08 E0.29147
G1 X140.16 Y125.751 E0.3188
G1 X140.839 Y125.481 E0.3431
G1 X141.678 Y125.179 E0.37276
G1 X142.212 Y125.002 E0.39147
G1 X143.095 Y124.743 E0.42208
G1 X143.856 Y124.544 E0.44824
G1 X144.371 Y124.422 E0.46584
G1 X144.952 Y124.304 E0.48556
G1 X145.562 Y124.192 E0.50619
G1 X146.022 Y124.117 E0.52169
G1 X146.891 Y124.003 E0.55084
G1 X147.531 Y123.937 E0.57224
G1 X147.982 Y123.9 E0.58729
G1 X148.827 Y123.855 E0.61544
G1 X149.478 Y123.839 E0.63709
G1 X149.938 Y123.838 E0.65239
G1 X150.817 Y123.861 E0.68164
G1 X151.468 Y123.897 E0.70332
G1 X151.937 Y123.933 E0.71897
G1 X152.764 Y124.02 E0.74663
G1 X153.383 Y124.102 E0.7674
G1 X153.868 Y124.178 E0.78372
G1 X154.668 Y124.326 E0.81078
G1 X155.305 Y124.461 E0.83244
G1 X155.835 Y124.587 E0.85056
G1 X156.621 Y124.801 E0.87765
G1 X157.364 Y125.024 E0.90346
G1 X157.891 Y125.197 E0.9219
G1 X158.464 Y125.405 E0.94218
G1 X159.082 Y125.643 E0.9642
G1 X159.523 Y125.824 E0.98006
G1 X160.292 Y126.168 E1.00808
G1 X160.986 Y126.503 E1.03371
G1 X161.48 Y126.757 E1.05219
G1 X162.026 Y127.059 E1.07294
G1 X162.582 Y127.38 E1.09429
G1 X163.02 Y127.647 E1.11135
G1 X163.678 Y128.075 E1.13746
G1 X164.205 Y128.437 E1.15873
G1 X164.63 Y128.744 E1.17616
G1 X165.292 Y129.253 E1.20394
G1 X165.764 Y129.635 E1.22413
G1 X166.183 Y129.992 E1.24244
G1 X166.528 Y130.301 E1.25785
G1 X167.232 Y130.964 E1.29001
G1 X167.57 Y131.299 E1.30584
G1 X168.127 Y131.886 E1.33275
G1 X168.565 Y132.372 E1.35451
G1 X168.896 Y132.756 E1.37138
G1 X169.419 Y133.404 E1.39907
G1 X169.81 Y133.915 E1.42047
G1 X170.091 Y134.299 E1.4363
G1 X170.566 Y134.99 E1.46419
G1 X170.902 Y135.507 E1.4847
G1 X171.172 Y135.944 E1.50178
G1 X171.622 Y136.727 E1.53182
G1 X171.96 Y137.355 E1.55554
G1 X172.209 Y137.845 E1.57382
G1 X172.519 Y138.512 E1.59828
G1 X172.839 Y139.245 E1.62488
G1 X173.103 Y139.907 E1.64859
G1 X173.403 Y140.737 E1.67794
G1 X173.574 Y141.249 E1.6959
G1 X173.824 Y142.088 E1.72501
G1 X173.994 Y142.724 E1.74691
G1 X174.12 Y143.249 E1.76487
G1 X174.283 Y144.026 E1.79127
G1 X174.396 Y144.639 E1.81201
G1 X174.531 Y145.519 E1.84162
G1 X174.648 Y146.561 E1.87649
G1 X174.688 Y147.049 E1.89278
G1 X174.736 Y147.963 E1.92322
G1 X174.751 Y148.557 E1.94298
G1 X174.753 Y149.05 E1.95938
G1 X174.73 Y149.887 E1.98723
G1 X174.697 Y150.499 E2.00761
G1 X174.659 Y150.991 E2.02403
G1 X174.568 Y151.85 E2.05276
G1 X174.485 Y152.475 E2.07373
G1 X174.413 Y152.94 E2.08938
G1 X174.27 Y153.718 E2.11569
G1 X174.122 Y154.419 E2.13952
G1 X173.983 Y154.997 E2.15929
G1 X173.792 Y155.696 E2.18339
G1 X173.611 Y156.304 E2.20449
G1 X173.452 Y156.796 E2.22169
G1 X173.302 Y157.225 E2.2368
G1 X172.954 Y158.145 E2.26952
G1 X172.761 Y158.616 E2.28645
G1 X172.424 Y159.368 E2.31385
G1 X172.089 Y160.063 E2.33952
G1 X171.838 Y160.552 E2.3578
G1 X171.519 Y161.129 E2.37973
G1 X171.201 Y161.677 E2.4008
G1 X170.95 Y162.089 E2.41685
G1 X170.451 Y162.852 E2.44717
G1 X170.001 Y163.496 E2.4733
G1 X169.7 Y163.905 E2.49019
G1 X169.328 Y164.384 E2.51036
G1 X168.957 Y164.842 E2.52996
G1 X168.616 Y165.242 E2.54745
G1 X168.046 Y165.873 E2.57573
G1 X167.634 Y166.306 E2.59561
G1 X167.018 Y166.915 E2.62442
G1 X166.708 Y167.205 E2.63854
G1 X166.186 Y167.674 E2.66188
G1 X165.834 Y167.977 E2.67733
G1 X165.197 Y168.493 E2.70459
G1 X164.674 Y168.893 E2.72649
G1 X164.296 Y169.17 E2.74208
G1 X163.581 Y169.661 E2.77093
G1 X163.037 Y170.013 E2.79248
G1 X162.607 Y170.278 E2.80928
G1 X161.921 Y170.672 E2.83559
G1 X161.338 Y170.988 E2.85764
G1 X160.898 Y171.213 E2.87408
G1 X160.136 Y171.574 E2.90213
G1 X159.387 Y171.902 E2.92932
G1 X158.885 Y172.107 E2.94736
G1 X158.309 Y172.323 E2.96782
G1 X157.765 Y172.515 E2.987
G1 X157.295 Y172.669 E3.00345
G1 X156.412 Y172.928 E3.03406
G1 X155.651 Y173.127 E3.06022
G1 X155.136 Y173.249 E3.07783
G1 X154.555 Y173.367 E3.09754
G1 X153.945 Y173.479 E3.11817
G1 X153.464 Y173.557 E3.13438
G1 X152.95 Y173.628 E3.15164
G1 X152.003 Y173.732 E3.18332
G1 X151.514 Y173.772 E3.19964
G1 X151.022 Y173.801 E3.21603
G1 X150.037 Y173.832 E3.24881
G1 X149.538 Y173.834 E3.26541
G1 X148.709 Y173.811 E3.29299
G1 X148.092 Y173.778 E3.31354
G1 X147.624 Y173.743 E3.32915
G1 X146.769 Y173.654 E3.35774
G1 X146.119 Y173.568 E3.37955
G1 X145.615 Y173.489 E3.39652
G1 X144.809 Y173.339 E3.42379
G1 X144.197 Y173.209 E3.4446
G1 X143.693 Y173.089 E3.46183
G1 X142.919 Y172.88 E3.48849
G1 X142.32 Y172.702 E3.50928
G1 X141.851 Y172.551 E3.52566
G1 X140.998 Y172.249 E3.55576
G1 X140.45 Y172.038 E3.57529
G1 X140.005 Y171.856 E3.59128
G1 X139.59 Y171.675 E3.60634
G1 X138.647 Y171.231 E3.64101
G1 X138.16 Y170.984 E3.65917
G1 X137.71 Y170.741 E3.67618
G1 X136.924 Y170.29 E3.70632
G1 X136.547 Y170.061 E3.72099
G1 X135.826 Y169.594 E3.74956
G1 X135.284 Y169.22 E3.77147
G1 X134.892 Y168.937 E3.78755
G1 X134.215 Y168.417 E3.81594
G1 X133.732 Y168.026 E3.83661
G1 X133.315 Y167.671 E3.85482
G1 X132.961 Y167.354 E3.87063
G1 X132.275 Y166.707 E3.90199
G1 X131.915 Y166.349 E3.91888
G1 X131.346 Y165.747 E3.94643
G1 X130.923 Y165.277 E3.96746
G1 X130.585 Y164.884 E3.9847
G1 X130.069 Y164.244 E4.01204
G1 X129.709 Y163.774 E4.03173
G1 X129.422 Y163.381 E4.04792
G1 X128.927 Y162.66 E4.07701
G1 X128.587 Y162.135 E4.09781
G1 X128.331 Y161.721 E4.114
G1 X127.913 Y160.995 E4.14186
G1 X127.587 Y160.393 E4.16463
G1 X127.354 Y159.938 E4.18164
G1 X127.016 Y159.22 E4.20803
G1 X126.686 Y158.467 E4.23537
G1 X126.478 Y157.957 E4.25369
G1 X126.267 Y157.393 E4.27372
G1 X126.065 Y156.82 E4.29393
G1 X125.91 Y156.346 E4.31052
G1 X125.677 Y155.554 E4.33798
G1 X125.51 Y154.927 E4.35956
G1 X125.397 Y154.464 E4.37541
G1 X125.226 Y153.655 E4.40291
G1 X125.109 Y153.019 E4.42442
G1 X125.029 Y152.527 E4.441
G1 X124.96 Y152.025 E4.45785
G1 X124.855 Y151.06 E4.49014
G1 X124.816 Y150.579 E4.50619
G1 X124.773 Y149.735 E4.53429
G1 X124.757 Y149.103 E4.55532
G1 X124.755 Y148.605 E4.57189
G1 X124.778 Y147.784 E4.5992
G1 X124.811 Y147.172 E4.61959
G1 X124.846 Y146.709 E4.63503
G1 X124.938 Y145.824 E4.66462
G1 X125.022 Y145.193 E4.6858
G1 X125.096 Y144.718 E4.70179
G1 X125.247 Y143.904 E4.72932
G1 X125.383 Y143.267 E4.75099
G1 X125.497 Y142.787 E4.7674
G1 X125.714 Y141.983 E4.79509
G1 X125.901 Y141.356 E4.81685
G1 X126.046 Y140.906 E4.83258
G1 X126.324 Y140.12 E4.86031
G1 X126.544 Y139.548 E4.88069
G1 X126.74 Y139.073 E4.89778
G1 X127.097 Y138.274 E4.92689
G1 X127.362 Y137.721 E4.94729
G1 X127.779 Y136.916 E4.97744
G1 X128.001 Y136.519 E4.99257
G1 X128.4 Y135.838 E5.01882
G1 X128.678 Y135.389 E5.03638
G1 X129.044 Y134.836 E5.05844
G1 X129.628 Y134.008 E5.09214
G1 X130.175 Y133.295 E5.12203
G1 X130.58 Y132.797 E5.14338
G1 X130.88 Y132.444 E5.15879
G1 X131.412 Y131.852 E5.18526
G1 X131.873 Y131.366 E5.20754
G1 X132.22 Y131.016 E5.22393
G0 F6000 X132.497 Y131.304
G1 F1200 X133.11 Y130.723 E5.25202
G1 X133.594 Y130.289 E5.27365
G1 X133.948 Y129.986 E5.28914
G1 X134.572 Y129.483 E5.3158
G1 X135.432 Y128.836 E5.3516
G1 X136.162 Y128.334 E5.38106
G1 X136.699 Y127.987 E5.40233
G1 X137.123 Y127.727 E5.41887
G1 X137.849 Y127.312 E5.44668
G1 X138.499 Y126.963 E5.47122
G1 X138.953 Y126.733 E5.48815
G1 X139.567 Y126.447 E5.51068
G1 X140.32 Y126.118 E5.53801
G1 X140.974 Y125.857 E5.56143
G1 X141.813 Y125.555 E5.59109
G1 X142.328 Y125.385 E5.60913
G1 X143.196 Y125.13 E5.63921
G1 X143.957 Y124.931 E5.66538
G1 X144.454 Y124.814 E5.68236
G1 X145.024 Y124.697 E5.70171
G1 X145.634 Y124.585 E5.72234
G1 X146.077 Y124.514 E5.73726
G1 X146.932 Y124.401 E5.76595
G1 X147.572 Y124.335 E5.78735
G1 X148.007 Y124.299 E5.80186
G1 X148.837 Y124.255 E5.82951
G1 X149.488 Y124.239 E5.85117
G1 X149.932 Y124.238 E5.86594
G1 X150.795 Y124.26 E5.89465
G1 X151.446 Y124.296 E5.91633
G1 X151.897 Y124.331 E5.93138
G1 X152.711 Y124.417 E5.9586
G1 X153.33 Y124.499 E5.97937
G1 X153.797 Y124.571 E5.99509
G1 X154.585 Y124.717 E6.02174
G1 X155.222 Y124.852 E6.0434
G1 X155.733 Y124.974 E6.06087
G1 X156.506 Y125.184 E6.08752
G1 X157.249 Y125.407 E6.11332
G1 X157.757 Y125.574 E6.1311
G1 X158.32 Y125.778 E6.15102
G1 X158.938 Y126.016 E6.17305
G1 X159.363 Y126.19 E6.18832
G1 X160.118 Y126.528 E6.21583
G1 X160.812 Y126.863 E6.24146
G1 X161.288 Y127.108 E6.25927
G1 X161.826 Y127.405 E6.27971
G1 X162.382 Y127.726 E6.30106
G1 X162.804 Y127.983 E6.3175
G1 X163.452 Y128.405 E6.34322
G1 X163.979 Y128.767 E6.36448
G1 X164.388 Y129.063 E6.38127
G1 X165.04 Y129.564 E6.40862
G1 X165.512 Y129.946 E6.42882
G1 X165.916 Y130.29 E6.44647
G1 X166.492 Y130.812 E6.47232
G1 X166.957 Y131.254 E6.49366
G1 X167.282 Y131.577 E6.5089
G1 X167.83 Y132.154 E6.53537
G1 X168.268 Y132.64 E6.55713
G1 X168.587 Y133.01 E6.57337
G1 X168.876 Y133.362 E6.58852
G1 X169.492 Y134.158 E6.622
G1 X169.763 Y134.528 E6.63725
G1 X170.231 Y135.208 E6.66471
G1 X170.567 Y135.725 E6.68522
G1 X170.827 Y136.146 E6.70167
G1 X171.27 Y136.916 E6.73122
G1 X171.608 Y137.544 E6.75494
G1 X171.847 Y138.017 E6.77257
G1 X172.153 Y138.672 E6.79661
G1 X172.473 Y139.405 E6.82322
G1 X172.727 Y140.043 E6.84606
G1 X173.027 Y140.873 E6.87541
G1 X173.192 Y141.367 E6.89273
G1 X173.331 Y141.82 E6.90849
G1 X173.607 Y142.828 E6.94325
G1 X173.729 Y143.333 E6.96053
G1 X173.889 Y144.098 E6.98653
G1 X174.002 Y144.711 E7.00726
G1 X174.135 Y145.576 E7.03637
G1 X174.25 Y146.603 E7.07074
G1 X174.289 Y147.073 E7.08642
G1 X174.337 Y147.973 E7.1164
G1 X174.352 Y148.567 E7.13616
G1 X174.353 Y149.042 E7.15196
G1 X174.331 Y149.866 E7.17938
G1 X174.298 Y150.478 E7.19976
G1 X174.261 Y150.951 E7.21554
G1 X174.172 Y151.797 E7.24384
G1 X174.089 Y152.422 E7.26481
G1 X174.019 Y152.871 E7.27992
G1 X173.878 Y153.636 E7.30579
G1 X173.73 Y154.337 E7.32962
G1 X173.597 Y154.894 E7.34867
G1 X173.487 Y155.304 E7.36279
G1 X173.227 Y156.189 E7.39347
G1 X173.074 Y156.664 E7.41007
G1 X172.924 Y157.093 E7.42518
G1 X172.58 Y158.002 E7.45751
G1 X172.394 Y158.456 E7.47383
G1 X172.064 Y159.195 E7.50074
G1 X171.729 Y159.89 E7.5264
G1 X171.487 Y160.361 E7.54402
G1 X171.173 Y160.928 E7.56557
G1 X170.855 Y161.476 E7.58665
G1 X170.613 Y161.873 E7.60211
G1 X170.123 Y162.622 E7.63188
G1 X169.673 Y163.266 E7.65801
G1 X169.383 Y163.661 E7.67431
G1 X169.017 Y164.132 E7.69415
G1 X168.646 Y164.59 E7.71375
G1 X168.317 Y164.976 E7.73062
G1 X167.756 Y165.597 E7.75846
G1 X167.344 Y166.03 E7.77834
G1 X166.74 Y166.628 E7.80661
G1 X165.918 Y167.377 E7.84359
G1 X165.58 Y167.669 E7.85845
G1 X164.954 Y168.176 E7.88524
G1 X164.431 Y168.576 E7.90714
G1 X163.681 Y169.112 E7.9378
G1 X162.819 Y169.677 E7.97208
G1 X162.405 Y169.932 E7.98825
G1 X161.73 Y170.32 E8.01415
G1 X161.147 Y170.636 E8.03621
G1 X160.724 Y170.854 E8.05203
G1 X159.975 Y171.208 E8.07959
G1 X159.226 Y171.536 E8.10678
G1 X158.742 Y171.733 E8.12416
G1 X158.176 Y171.946 E8.14428
G1 X157.632 Y172.138 E8.16346
G1 X157.179 Y172.286 E8.17931
G1 X156.311 Y172.541 E8.2094
G1 X155.55 Y172.74 E8.23557
G1 X155.053 Y172.857 E8.25255
G1 X154.483 Y172.974 E8.2719
G1 X153.873 Y173.086 E8.29253
G1 X153.409 Y173.16 E8.30816
G1 X152.539 Y173.274 E8.33734
G1 X151.961 Y173.334 E8.35667
G1 X151.491 Y173.373 E8.37236
G1 X150.999 Y173.402 E8.38875
G1 X150.027 Y173.432 E8.42109
G1 X149.546 Y173.434 E8.43709
G1 X148.73 Y173.412 E8.46424
G1 X148.113 Y173.379 E8.48479
G1 X147.662 Y173.345 E8.49983
G1 X146.822 Y173.257 E8.52793
G1 X146.172 Y173.171 E8.54973
G1 X145.685 Y173.096 E8.56612
G1 X144.893 Y172.948 E8.59292
G1 X144.281 Y172.818 E8.61373
G1 X143.795 Y172.702 E8.63035
G1 X143.033 Y172.497 E8.65659
G1 X142.434 Y172.319 E8.67738
G1 X141.982 Y172.173 E8.69318
G1 X141.142 Y171.876 E8.72281
G1 X140.594 Y171.665 E8.74234
G1 X140.165 Y171.489 E8.75776
G1 X139.42 Y171.157 E8.78489
G1 X138.819 Y170.87 E8.80704
G1 X138.35 Y170.632 E8.82453
G1 X137.616 Y170.23 E8.85237
G1 X137.125 Y169.945 E8.87125
G1 X136.388 Y169.487 E8.90011
G1 X135.511 Y168.89 E8.9354
G1 X135.133 Y168.618 E8.95089
G1 X134.466 Y168.106 E8.97885
G1 X133.983 Y167.715 E8.99952
G1 X133.582 Y167.373 E9.01705
G1 X132.99 Y166.836 E9.04364
G1 X132.551 Y166.418 E9.0638
G1 X132.204 Y166.072 E9.0801
G1 X131.643 Y165.479 E9.10725
G1 X131.22 Y165.009 E9.12828
G1 X130.895 Y164.63 E9.14488
G1 X130.387 Y164.001 E9.17177
G1 X130.027 Y163.531 E9.19147
G1 X129.75 Y163.152 E9.20708
G1 X129.263 Y162.443 E9.23569
G1 X128.923 Y161.918 E9.25649
G1 X128.676 Y161.518 E9.27213
G1 X128.265 Y160.805 E9.2995
G1 X127.939 Y160.203 E9.32227
G1 X127.715 Y159.764 E9.33866
G1 X127.382 Y159.06 E9.36456
G1 X127.052 Y158.307 E9.39191
G1 X126.851 Y157.815 E9.40959
G1 X126.731 Y157.499 E9.42083
G1 X126.442 Y156.687 E9.44949
G1 X126.292 Y156.23 E9.46549
G1 X126.063 Y155.451 E9.4925
G1 X125.896 Y154.824 E9.51408
G1 X125.787 Y154.378 E9.52935
G1 X125.619 Y153.583 E9.55638
G1 X125.502 Y152.947 E9.57788
G1 X125.426 Y152.472 E9.59388
G1 X125.314 Y151.612 E9.62273
G1 X125.253 Y151.019 E9.64256
G1 X125.215 Y150.555 E9.65804
G1 X125.172 Y149.725 E9.68568
G1 X125.156 Y149.093 E9.70671
G1 X125.155 Y148.613 E9.72268
G1 X125.177 Y147.805 E9.74956
G1 X125.21 Y147.193 E9.76994
G1 X125.244 Y146.748 E9.78479
G1 X125.335 Y145.877 E9.81392
G1 X125.419 Y145.246 E9.83509
G1 X125.49 Y144.788 E9.8505
G1 X125.639 Y143.988 E9.87757
G1 X125.775 Y143.351 E9.89923
G1 X125.884 Y142.888 E9.91505
G1 X126.097 Y142.097 E9.9423
G1 X126.284 Y141.47 E9.96406
G1 X126.424 Y141.037 E9.9792
G1 X126.698 Y140.264 E10.00647
G1 X126.918 Y139.692 E10.02686
G1 X127.106 Y139.234 E10.04332
G1 X127.458 Y138.447 E10.072
G1 X127.723 Y137.894 E10.09239
G1 X127.923 Y137.499 E10.10712
G1 X128.346 Y136.721 E10.13657
G1 X128.745 Y136.04 E10.16283
G1 X129.013 Y135.608 E10.17973
G1 X129.373 Y135.063 E10.20146
G1 X129.947 Y134.248 E10.23461
G1 X130.244 Y133.854 E10.25102
G1 X130.89 Y133.049 E10.28535
G1 X131.179 Y132.709 E10.3002
G1 X131.702 Y132.127 E10.32622
G1 X132.163 Y131.641 E10.3485
G1 X132.497 Y131.304 E10.36428
G0 F6000 X132.775 Y131.592
G1 F1200 X133.377 Y131.021 E10.39188
G1 X133.861 Y130.587 E10.4135
G1 X134.202 Y130.295 E10.42843
G1 X134.814 Y129.801 E10.45459
G1 X135.326 Y129.41 E10.47602
G1 X135.662 Y129.164 E10.48987
G1 X136.379 Y128.67 E10.51883
G1 X136.916 Y128.323 E10.54009
G1 X137.325 Y128.072 E10.55605
G1 X138.038 Y127.664 E10.58338
G1 X138.688 Y127.315 E10.60791
G1 X139.125 Y127.094 E10.6242
G1 X139.727 Y126.813 E10.6463
G1 X140.48 Y126.484 E10.67363
G1 X141.109 Y126.234 E10.69614
G1 X141.948 Y125.932 E10.7258
G1 X142.444 Y125.768 E10.74318
G1 X143.297 Y125.517 E10.77275
G1 X144.058 Y125.318 E10.79891
