;FLAVOR:Marlin
;TIME:4778
;Filament used: 2.59611m
;Layer height: 0.2
;MINX:115.749
;MINY:131.932
;MINZ:0.32
;MAXX:177.091
;MAXY:168.076
;MAXZ:43.72
;Generated with Cura_SteamEngine 5.2.1
M140 S60
M105
M190 S60
M104 S200
M105
M109 S200
M82 ;absolute extrusion mode
; Ender 3 Max Custom Start G-code
G92 E0 ; Reset Extruder
G28 ; Home all axes
G1 Z2.0 F3000 ; Move Z Axis up little to prevent scratching of Heat Bed
G1 X0.1 Y20 Z0.3 F5000.0 ; Move to start position
G1 X0.1 Y200.0 Z0.3 F1500.0 E15 ; Draw the first line
G1 X0.4 Y200.0 Z0.3 F5000.0 ; Move to side a little
G1 X0.4 Y20 Z0.3 F1500.0 E30 ; Draw the second line
G92 E0 ; Reset Extruder
G1 Z2.0 F3000 ; Move Z Axis up little to prevent scratching of Heat Bed
G1 X5 Y20 Z0.3 F5000.0 ; Move over to prevent blob squish
G92 E0
G92 E0
G1 F1500 E-6.5
;LAYER_COUNT:218
;LAYER:0
M107
G0 F6000 X119.776 Y136.417 Z0.32
;TYPE:SKIRT
G1 F1500 E0
G1 F900 X120.482 Y135.823 E0.05401
G1 X121.193 Y135.319 E0.10503
G1 X121.511 Y135.113 E0.12721
G1 X122.307 Y134.645 E0.18126
G1 X123.141 Y134.248 E0.23533
G1 X124.165 Y133.874 E0.29914
G1 X124.567 Y133.75 E0.32377
G1 X125.46 Y133.516 E0.37781
G1 X126.37 Y133.36 E0.43186
G1 X126.877 Y133.308 E0.46169
G1 X127.81 Y133.235 E0.51647
G1 X147.828 Y132.006 E1.69049
G1 X149.069 Y131.949 E1.76321
G1 X149.479 Y131.938 E1.78722
G1 X150.41 Y131.932 E1.84172
G1 X150.944 Y131.94 E1.87298
G1 X151.427 Y131.963 E1.90129
G1 X152.071 Y132.008 E1.93908
G1 X152.582 Y132.056 E1.96912
G1 X153.08 Y132.115 E1.99848
G1 X153.605 Y132.191 E2.02953
G1 X154.438 Y132.332 E2.07899
G1 X154.853 Y132.41 E2.10371
G1 X155.527 Y132.56 E2.14413
G1 X156.55 Y132.817 E2.20587
G1 X157.44 Y133.082 E2.26023
G1 X158.35 Y133.397 E2.3166
G1 X158.764 Y133.551 E2.34246
G1 X159.502 Y133.849 E2.38905
G1 X160.311 Y134.204 E2.44076
G1 X160.882 Y134.472 E2.47769
G1 X161.291 Y134.68 E2.50455
G1 X161.703 Y134.901 E2.53192
G1 X162.129 Y135.142 E2.56057
G1 X162.886 Y135.594 E2.61218
G1 X163.414 Y135.931 E2.64885
G1 X163.998 Y136.328 E2.69018
G1 X164.529 Y136.714 E2.72861
G1 X165.188 Y137.224 E2.77739
G1 X165.862 Y137.778 E2.82846
G1 X166.205 Y138.077 E2.8551
G1 X166.65 Y138.483 E2.89036
G1 X167.114 Y138.934 E2.92824
G1 X167.807 Y139.648 E2.98649
G1 X168.268 Y140.153 E3.02651
G1 X168.785 Y140.759 E3.07314
G1 X169.164 Y141.225 E3.1083
G1 X169.495 Y141.66 E3.1403
G1 X170.025 Y142.396 E3.19339
G1 X170.449 Y143.032 E3.23814
G1 X171.003 Y143.931 E3.29995
G1 X171.453 Y144.738 E3.35404
G1 X171.832 Y145.58 E3.40809
G1 X172.136 Y146.452 E3.46215
G1 X172.295 Y147.042 E3.49792
G1 X172.38 Y147.397 E3.51929
G1 X172.556 Y148.303 E3.57332
G1 X172.653 Y149.221 E3.62735
G1 X172.675 Y150.004 E3.67321
G1 X172.646 Y150.927 E3.72726
G1 X172.538 Y151.844 E3.78131
G1 X172.381 Y152.621 E3.82772
G1 X172.301 Y152.954 E3.84776
G1 X172.047 Y153.842 E3.90183
G1 X171.717 Y154.704 E3.95586
G1 X171.088 Y155.93 E4.03652
G1 X170.744 Y156.506 E4.0758
G1 X170.407 Y157.04 E4.11276
G1 X169.772 Y157.966 E4.17849
G1 X169.356 Y158.525 E4.21928
G1 X168.879 Y159.124 E4.2641
G1 X168.211 Y159.911 E4.32453
G1 X167.811 Y160.355 E4.35951
G1 X167.507 Y160.673 E4.38526
G1 X166.975 Y161.206 E4.42934
G1 X166.515 Y161.639 E4.46633
G1 X165.651 Y162.4 E4.53372
G1 X165.057 Y162.888 E4.57872
G1 X164.402 Y163.386 E4.62689
G1 X164.007 Y163.668 E4.6553
G1 X163.565 Y163.967 E4.68654
G1 X162.983 Y164.34 E4.727
G1 X162.071 Y164.888 E4.78929
G1 X161.557 Y165.177 E4.8238
G1 X160.957 Y165.484 E4.86326
G1 X159.894 Y165.985 E4.93205
G1 X159.298 Y166.247 E4.97016
G1 X158.482 Y166.566 E5.02145
G1 X157.951 Y166.753 E5.0544
G1 X157.261 Y166.975 E5.09683
G1 X156.396 Y167.226 E5.14956
G1 X155.5 Y167.453 E5.20366
G1 X154.844 Y167.594 E5.24294
G1 X154.214 Y167.708 E5.28042
G1 X153.793 Y167.775 E5.30537
G1 X153.014 Y167.884 E5.35142
G1 X152.058 Y167.989 E5.40772
G1 X151.373 Y168.041 E5.44793
G1 X150.855 Y168.063 E5.47828
G1 X150.156 Y168.076 E5.51921
G1 X149.611 Y168.072 E5.55111
G1 X148.478 Y168.031 E5.61748
G1 X127.686 Y166.757 E6.83688
G1 X126.984 Y166.705 E6.87808
G1 X126.067 Y166.597 E6.93213
G1 X124.817 Y166.317 E7.00712
G1 X124.394 Y166.195 E7.03289
G1 X123.519 Y165.9 E7.08694
G1 X122.672 Y165.532 E7.141
G1 X121.817 Y165.065 E7.19803
G1 X121.471 Y164.855 E7.22172
G1 X120.703 Y164.342 E7.27579
G1 X119.983 Y163.765 E7.3298
G1 X119.195 Y163 E7.39409
G1 X118.891 Y162.673 E7.42023
G1 X118.292 Y161.97 E7.47429
G1 X117.756 Y161.218 E7.52835
G1 X117.297 Y160.441 E7.58118
G1 X117.158 Y160.181 E7.59843
G1 X116.759 Y159.349 E7.65245
G1 X116.346 Y158.21 E7.72337
G1 X116.209 Y157.752 E7.75135
G1 X115.983 Y156.857 E7.80539
G1 X115.835 Y155.945 E7.85948
G1 X115.763 Y154.855 E7.92342
G1 X115.753 Y154.181 E7.96288
G1 X115.749 Y146.054 E8.43862
G1 X115.757 Y145.532 E8.46918
G1 X115.787 Y144.884 E8.50715
G1 X115.826 Y144.373 E8.53715
G1 X115.936 Y143.456 E8.59121
G1 X116.125 Y142.552 E8.64528
G1 X116.334 Y141.838 E8.68883
G1 X116.457 Y141.466 E8.71176
G1 X116.784 Y140.602 E8.76584
G1 X117.229 Y139.691 E8.82519
G1 X117.361 Y139.45 E8.84127
G1 X117.839 Y138.66 E8.89533
G1 X118.383 Y137.915 E8.94933
G1 X118.532 Y137.741 E8.96274
G0 F810 X118.844 Y137.376
G0 X119.123 Y137.071
G0 X119.776 Y136.417
G0 F6000 X120.087 Y136.729
G1 F900 X120.78 Y136.148 E9.01567
G1 X121.432 Y135.688 E9.06238
G1 X121.75 Y135.482 E9.08456
G1 X122.53 Y135.025 E9.13748
G1 X123.347 Y134.638 E9.1904
G1 X124.295 Y134.294 E9.24944
G1 X124.697 Y134.17 E9.27406
G1 X125.571 Y133.942 E9.32694
G1 X126.912 Y133.747 E9.40626
G1 X128.016 Y133.662 E9.47108
G1 X148.022 Y132.436 E10.64438
G1 X149.089 Y132.388 E10.70691
G1 X149.482 Y132.378 E10.72992
G1 X150.413 Y132.372 E10.78442
G1 X150.933 Y132.38 E10.81486
G1 X151.396 Y132.402 E10.842
G1 X152.04 Y132.447 E10.87979
G1 X152.53 Y132.493 E10.9086
G1 X153.028 Y132.552 E10.93795
G1 X153.532 Y132.624 E10.96775
G1 X154.365 Y132.765 E11.01721
G1 X155.034 Y132.898 E11.05714
G1 X155.42 Y132.987 E11.08033
G1 X156.443 Y133.244 E11.14207
G1 X157.296 Y133.498 E11.19417
G1 X158.206 Y133.813 E11.25054
G1 X158.603 Y133.96 E11.27532
G1 X159.326 Y134.252 E11.32097
G1 X160.135 Y134.607 E11.37268
G1 X160.691 Y134.868 E11.40864
G1 X161.495 Y135.289 E11.46176
G1 X161.903 Y135.52 E11.48921
G1 X162.66 Y135.972 E11.54082
G1 X163.167 Y136.295 E11.57601
G1 X163.751 Y136.692 E11.61735
G1 X164.26 Y137.062 E11.65418
G1 X164.919 Y137.572 E11.70296
G1 X165.58 Y138.115 E11.75304
G1 X165.908 Y138.402 E11.77855
G1 X166.353 Y138.808 E11.81381
G1 X166.799 Y139.24 E11.85016
G1 X167.492 Y139.954 E11.90841
G1 X167.933 Y140.439 E11.94678
G1 X168.45 Y141.045 E11.99341
G1 X168.821 Y141.5 E12.02778
G1 X169.137 Y141.917 E12.0584
G1 X169.667 Y142.653 E12.1115
G1 X170.075 Y143.263 E12.15445
G1 X170.629 Y144.162 E12.21627
G1 X171.068 Y144.952 E12.26917
G1 X171.437 Y145.778 E12.32213
G1 X171.73 Y146.633 E12.37504
G1 X171.867 Y147.144 E12.40601
G1 X171.952 Y147.499 E12.42738
G1 X172.123 Y148.387 E12.48031
G1 X172.216 Y149.286 E12.53322
G1 X172.235 Y150.009 E12.57556
G1 X172.206 Y150.913 E12.6285
G1 X172.097 Y151.81 E12.6814
G1 X171.953 Y152.518 E12.72369
G1 X171.873 Y152.851 E12.74374
G1 X171.623 Y153.72 E12.79667
G1 X171.298 Y154.563 E12.84956
G1 X170.71 Y155.704 E12.9247
G1 X170.183 Y156.576 E12.98434
G1 X169.841 Y157.096 E13.02077
G1 X169.411 Y157.715 E13.06489
G1 X169.012 Y158.25 E13.10396
G1 X168.535 Y158.849 E13.14879
G1 X167.878 Y159.624 E13.20826
G1 X167.487 Y160.057 E13.24241
G1 X167.195 Y160.362 E13.26713
G1 X166.663 Y160.895 E13.31121
G1 X166.223 Y161.311 E13.34666
G1 X165.625 Y161.843 E13.39351
G1 X165.048 Y162.33 E13.43771
G1 X164.484 Y162.776 E13.4798
G1 X163.751 Y163.31 E13.53289
G1 X163.328 Y163.597 E13.56281
G1 X162.746 Y163.97 E13.60328
G1 X161.847 Y164.509 E13.66464
G1 X161.345 Y164.792 E13.69837
G1 X160.769 Y165.086 E13.73623
G1 X159.706 Y165.587 E13.80502
G1 X159.125 Y165.842 E13.84216
G1 X158.325 Y166.155 E13.89245
G1 X157.816 Y166.334 E13.92403
G1 X157.126 Y166.556 E13.96646
G1 X156.276 Y166.803 E14.01828
G1 X155.395 Y167.026 E14.07147
G1 X154.766 Y167.161 E14.10913
G1 X154.136 Y167.275 E14.14661
G1 X153.732 Y167.339 E14.17056
G1 X152.567 Y167.495 E14.23936
G1 X152.014 Y167.551 E14.2719
G1 X151.343 Y167.602 E14.31129
G1 X150.847 Y167.623 E14.34035
G1 X150.148 Y167.636 E14.38128
G1 X149.625 Y167.633 E14.41189
G1 X148.505 Y167.592 E14.4775
G1 X127.848 Y166.327 E15.68898
G1 X127.016 Y166.266 E15.73781
G1 X126.118 Y166.159 E15.79075
G1 X124.939 Y165.894 E15.86149
G1 X124.516 Y165.772 E15.88726
G1 X123.659 Y165.483 E15.9402
G1 X122.831 Y165.12 E15.99313
G1 X122.045 Y164.689 E16.0456
G1 X121.699 Y164.479 E16.06929
G1 X120.948 Y163.976 E16.1222
G1 X120.244 Y163.409 E16.17512
G1 X119.517 Y162.701 E16.23452
G1 X119.213 Y162.374 E16.26066
G1 X118.627 Y161.685 E16.31361
G1 X118.105 Y160.947 E16.36652
G1 X117.685 Y160.233 E16.41501
G1 X117.546 Y159.973 E16.43227
G1 X117.156 Y159.158 E16.48516
G1 X116.768 Y158.084 E16.55201
G1 X116.631 Y157.626 E16.57999
G1 X116.41 Y156.749 E16.63293
G1 X116.268 Y155.856 E16.68586
G1 X116.203 Y154.849 E16.74493
G1 X116.192 Y154.028 E16.793
G1 X116.189 Y146.06 E17.25943
G1 X116.197 Y145.538 E17.28999
G1 X116.226 Y144.917 E17.32638
G1 X116.265 Y144.406 E17.35638
G1 X116.373 Y143.509 E17.40927
G1 X116.561 Y142.624 E17.46223
G1 X116.752 Y141.976 E17.50178
G1 X116.875 Y141.604 E17.52471
G1 X117.196 Y140.759 E17.57762
G1 X117.614 Y139.903 E17.63339
G1 X117.746 Y139.662 E17.64947
G1 X118.215 Y138.889 E17.7024
G1 X118.751 Y138.16 E17.75537
G1 X118.842 Y138.054 E17.76355
G0 F810 X119.169 Y137.673
G0 X119.448 Y137.368
G0 X120.087 Y136.729
G1 F1500 E11.26355
;MESH:3DBenchy.stl
G0 F6000 X143.262 Y148.65
G0 X143.724 Y150.814
G1 F1500 E17.76355
G0 F6000 X143.493 Y151.049
;TYPE:WALL-INNER
G1 F900 X143.742 Y151.044 E17.77812
G1 X144.085 Y150.991 E17.79844
G1 X144.272 Y150.831 E17.81285
G1 X144.41 Y150.432 E17.83756
G1 X144.441 Y149.997 E17.86309
G1 X144.436 Y149.778 E17.87591
G1 X144.386 Y149.398 E17.89835
G1 X144.234 Y149.04 E17.92112
G1 X144.105 Y148.943 E17.93056
G1 X143.754 Y148.896 E17.9513
G1 X143.492 Y148.886 E17.96664
G1 X143.493 Y149.745 E18.01693
G0 F810 X143.493 Y151.049
G0 F6000 X143.103 Y151.496
;TYPE:WALL-OUTER
G1 F900 X143.78 Y151.483 E18.05656
G1 X144.145 Y151.427 E18.07818
G1 X144.346 Y151.347 E18.09084
G1 X144.557 Y151.167 E18.10708
G1 X144.702 Y150.936 E18.12305
G1 X144.807 Y150.631 E18.14193
G1 X144.857 Y150.362 E18.15794
G1 X144.881 Y150.007 E18.17877
G1 X144.876 Y149.767 E18.19282
G1 X144.817 Y149.304 E18.22015
G1 X144.744 Y149.063 E18.23489
G1 X144.587 Y148.766 E18.25455
G1 X144.384 Y148.583 E18.27055
G1 X144.223 Y148.515 E18.28078
G1 X143.805 Y148.457 E18.30549
G1 X143.193 Y148.434 E18.34134
G1 X143.05 Y148.467 E18.34993
G1 X143.052 Y149.696 E18.42187
G0 F810 X143.054 Y151.097
G0 X143.045 Y151.413
G0 X143.103 Y151.496
G0 F6000 X143.724 Y150.814
G0 X143.958 Y150.235
;TYPE:SKIN
G1 F673.5 X143.97 Y149.879 E18.44974
G1 F688.7 X143.943 Y149.494 E18.47926
G0 F6000 X144.092 Y149.515
G1 F1500 E11.97926
G0 F6000 X144.596 Y150.57
G0 X146.305 Y151.026
G0 X146.125 Y151.344
;TYPE:WALL-OUTER
G1 F1500 E18.47926
G1 F619.7 X145.924 Y151.708 E18.51461
G1 F642.9 X145.901 Y151.769 E18.51995
G0 F6000 X145.705 Y152.27
G0 X145.372 Y152.577
G0 X145.098 Y153.219
G0 X144.185 Y153.442
G0 X142.262 Y153.523
G0 X141.754 Y153.404
G0 X141.378 Y153.111
G0 X141.172 Y152.723
G0 X141.255 Y150.648
;TYPE:WALL-INNER
G1 F792 X141.261 Y149.337 E18.60716
G1 F648.1 X141.145 Y148.895 E18.64431
G1 F681.6 X140.975 Y149.194 E18.67089
G1 F846.2 X140.772 Y149.518 E18.6947
G1 F898 X141.005 Y149.845 E18.71826
G1 F891.9 X141.255 Y150.648 E18.76793
G0 F6000 X141.113 Y152.588
G0 X141.378 Y153.111
G0 X141.573 Y153.278
G0 X149.559 Y156.496
G0 X149.555 Y156.755
G1 F900 X150.12 Y156.765 E18.80101
G1 X150.845 Y156.741 E18.84348
G1 X151.376 Y156.696 E18.87467
G1 X151.827 Y156.642 E18.90126
G1 F891.9 X152.352 Y156.557 E18.93268
G1 F778 X152.751 Y156.407 E18.96154
G1 F703.4 X153.199 Y156.313 E18.99583
G1 F700.9 X153.654 Y156.183 E19.0314
G1 F683.9 X153.89 Y156.106 E19.05052
G1 F744.4 X154.201 Y156.056 E19.07282
G1 F860.9 X154.615 Y155.936 E19.09919
G1 F900 X155.003 Y155.783 E19.12361
G1 X155.672 Y155.484 E19.1665
G1 X156.268 Y155.178 E19.20572
G1 X156.663 Y154.953 E19.23233
G1 X157.122 Y154.668 E19.26396
G1 X157.482 Y154.426 E19.28935
G1 X158.002 Y154.045 E19.32709
G1 X158.337 Y153.777 E19.3522
G1 X158.696 Y153.467 E19.37997
G1 X157.507 Y153.459 E19.44957
G1 X156.888 Y153.491 E19.48585
G1 X156.407 Y153.335 E19.51545
G1 X156.12 Y153.069 E19.53836
G1 X155.982 Y152.782 E19.557
G1 F898 X155.899 Y152.382 E19.58097
G1 F882 X155.909 Y152.036 E19.60165
G1 F868.4 X156.061 Y151.604 E19.62943
G1 F830.2 X156.25 Y151.257 E19.65451
G1 F711 X156.663 Y150.589 E19.7127
G1 F641.8 X156.915 Y150.236 E19.74831
G1 X156.643 Y150.174 E19.77121
G1 X156.249 Y149.987 E19.80701
G1 F682.8 X155.941 Y150.746 E19.87021
G1 F768.9 X155.784 Y151.101 E19.89681
G1 F846.2 X155.615 Y151.517 E19.92476
G1 F891.9 X155.027 Y153.148 E20.02718
G1 F900 X154.578 Y154.293 E20.09917
G1 X154.387 Y154.698 E20.12538
G1 X154.138 Y155.073 E20.15174
G1 F831.9 X153.651 Y155.574 E20.19598
G1 F741.6 X153.058 Y155.775 E20.24046
G1 F703.4 X152.649 Y155.848 E20.27158
G1 F770.4 X152.399 Y155.785 E20.28921
G1 F882 X151.998 Y155.627 E20.31496
G1 F900 X151.824 Y155.492 E20.32785
G1 X151.575 Y155.203 E20.35018
G1 X151.423 Y154.737 E20.37888
G1 X151.442 Y154.306 E20.40413
G1 X151.599 Y154.017 E20.42338
G1 F885.9 X151.782 Y153.814 E20.43964
G1 F816.5 X152.006 Y153.667 E20.45692
G1 F726.6 X152.388 Y153.504 E20.48704
G1 F692.3 X152.557 Y153.398 E20.50222
G1 F702.1 X152.734 Y152.965 E20.53732
G1 X152.916 Y152.461 E20.57753
G1 F718.7 X152.623 Y151.622 E20.64267
G1 F675.8 X151.917 Y149.926 E20.78589
G1 F632.6 X151.5 Y150.628 E20.8539
G1 F657.8 X151.85 Y151.305 E20.91493
G1 F687.5 X152.103 Y151.746 E20.9539
G1 F716.1 X152.223 Y152.109 E20.98202
G1 F682.8 X152.283 Y152.47 E21.01026
G1 F673.5 X152.202 Y152.782 E21.03548
G1 F736.1 X152.065 Y153.092 E21.05974
G1 F821.6 X151.558 Y153.415 E21.09828
G1 F891.9 X151.075 Y153.491 E21.12717
G1 F900 X150.73 Y153.412 E21.14788
G1 X150.544 Y153.319 E21.16006
G1 X150.257 Y153.086 E21.1817
G1 X150.102 Y152.826 E21.19942
G1 X149.862 Y153.182 E21.22455
G1 X149.388 Y153.424 E21.2557
G1 X149.113 Y153.465 E21.27198
G1 X148.755 Y153.404 E21.29324
G1 X148.568 Y153.296 E21.30588
G1 X148.325 Y153.078 E21.32499
G1 X147.993 Y153.433 E21.35344
G1 X147.388 Y153.703 E21.39222
G1 X146.798 Y153.697 E21.42676
G1 X146.569 Y153.64 E21.44058
G1 X146.18 Y153.466 E21.46552
G1 X145.752 Y153.051 E21.50042
G1 X145.597 Y152.677 E21.52412
G1 X145.001 Y153.045 E21.56512
G1 X144.459 Y153.193 E21.59801
G1 X144.131 Y153.247 E21.61747
G1 X143.836 Y153.273 E21.63481
G1 X143.586 Y153.285 E21.64946
G1 X142.768 Y153.28 E21.69734
G1 X142.306 Y153.324 E21.72451
G1 X141.98 Y153.262 E21.74394
G1 X141.777 Y153.18 E21.75675
G1 X141.509 Y152.956 E21.7772
G1 X141.296 Y152.524 E21.80539
G1 X141.249 Y152.147 E21.82763
G1 F893.9 X141.259 Y151.58 E21.86105
G1 X141.032 Y152.214 E21.90074
G1 F900 X140.593 Y152.808 E21.94398
G1 X140.173 Y153.107 E21.97416
G1 X139.826 Y153.28 E21.99686
G1 X139.308 Y153.414 E22.02818
G1 X138.916 Y153.443 E22.05119
G1 X138.544 Y153.436 E22.07297
G1 X138.005 Y153.352 E22.1049
G1 X137.571 Y153.195 E22.13192
G1 X137.111 Y152.872 E22.16482
G1 X136.821 Y152.358 E22.19937
G1 X136.768 Y151.904 E22.22612
G1 X136.855 Y151.562 E22.24678
G1 X137.075 Y151.217 E22.27073
G1 X137.352 Y150.994 E22.29155
G1 F855.3 X138.018 Y150.784 E22.33457
G1 F813.1 X137.596 Y150.401 E22.37149
G1 F855.3 X137.435 Y150.065 E22.39444
G1 F900 X137.404 Y149.862 E22.40646
G1 X137.428 Y149.42 E22.43237
