;FLAVOR:Marlin
;TIME:4941
;Filament used: 3.32749m
;Layer height: 0.2
;MINX:91.5
;MINY:115.409
;MINZ:0.2
;MAXX:208.34
;MAXY:272.338
;MAXZ:5.4
;Generated with Cura_SteamEngine 5.2.1
M140 S60
M105
M190 S60
M104 S200
M105
M109 S200
M82 ;absolute extrusion mode
; Ender 3 Max Custom Start G-code
G92 E0 ; Reset Extruder
G28 ; Home all axes
G1 Z2.0 F3000 ; Move Z Axis up little to prevent scratching of Heat Bed
G1 X0.1 Y20 Z0.3 F5000.0 ; Move to start position
G1 X0.1 Y200.0 Z0.3 F1500.0 E15 ; Draw the first line
G1 X0.4 Y200.0 Z0.3 F5000.0 ; Move to side a little
G1 X0.4 Y20 Z0.3 F1500.0 E30 ; Draw the second line
G92 E0 ; Reset Extruder
G1 Z2.0 F3000 ; Move Z Axis up little to prevent scratching of Heat Bed
G1 X5 Y20 Z0.3 F5000.0 ; Move over to prevent blob squish
G92 E0
G92 E0
G1 F1500 E-6.5
;LAYER_COUNT:27
;LAYER:0
M107
G0 F6000 X95.385 Y119.767 Z0.2
;TYPE:SKIRT
G1 F1500 E0
G1 F1200 X96.125 Y119.19 E0.03121
G1 X96.911 Y118.679 E0.06239
G1 X97.738 Y118.237 E0.09358
G1 X98.6 Y117.866 E0.12479
G1 X99.49 Y117.571 E0.15598
G1 X100.402 Y117.352 E0.18717
G1 X101.329 Y117.211 E0.21836
G1 X102.263 Y117.151 E0.24949
G1 X103.524 Y117.125 E0.29144
G1 X109.656 Y117.118 E0.49539
G1 X110.772 Y117.135 E0.53251
G1 X111.781 Y117.177 E0.5661
G1 X114.347 Y117.247 E0.65148
G1 X116.87 Y117.243 E0.73539
G1 X119.36 Y117.17 E0.81825
G1 X121.913 Y117.023 E0.9033
G1 X124.408 Y116.808 E0.98659
G1 X126.943 Y116.517 E1.07146
G1 X127.55 Y116.441 E1.09181
G1 X128.11 Y116.386 E1.11052
G1 X130.804 Y116.188 E1.20037
G1 X133.37 Y115.926 E1.28616
G1 X135.3 Y115.71 E1.35075
G1 X137.04 Y115.555 E1.40885
G1 X138.198 Y115.486 E1.44744
G1 X140.037 Y115.419 E1.50864
G1 X141.253 Y115.409 E1.54909
G1 X142.026 Y115.413 E1.5748
G1 X144.401 Y115.476 E1.65382
G1 X146.352 Y115.576 E1.71879
G1 X147.329 Y115.65 E1.75138
G1 X148.844 Y115.783 E1.80196
G1 X150.08 Y115.902 E1.84326
G1 X150.279 Y115.914 E1.84989
G1 X151.725 Y116.056 E1.89822
G1 X154.265 Y116.232 E1.9829
G1 X156.798 Y116.337 E2.06722
G1 X158.269 Y116.374 E2.11617
G1 X158.791 Y116.402 E2.13355
G1 X161.885 Y116.631 E2.23674
G1 X163.788 Y116.79 E2.30025
G1 X166.709 Y117.006 E2.39767
G1 X169.492 Y117.177 E2.49041
G1 X170.777 Y117.237 E2.5332
G1 X173.345 Y117.32 E2.61865
G1 X175.87 Y117.33 E2.70264
G1 X178.391 Y117.269 E2.78651
G1 X179.572 Y117.205 E2.82585
G1 X179.878 Y117.201 E2.83603
G1 X181.144 Y117.142 E2.87818
G1 X182.566 Y117.118 E2.92548
G1 X190.234 Y117.125 E3.18052
G1 X190.92 Y117.136 E3.20334
G1 X191.857 Y117.191 E3.23456
G1 X192.761 Y117.322 E3.26494
G1 X193.702 Y117.498 E3.29678
G1 X194.254 Y117.588 E3.31538
G1 X195.177 Y117.771 E3.34668
G1 X196.088 Y117.934 E3.37746
G1 X197.883 Y118.273 E3.43822
G1 X198.646 Y118.43 E3.46413
G1 X199.631 Y118.668 E3.49783
G1 X200.17 Y118.818 E3.51644
G1 X200.556 Y118.936 E3.52986
G1 X201.44 Y119.248 E3.56104
G1 X202.295 Y119.634 E3.59224
G1 X203.113 Y120.092 E3.62342
G1 X203.89 Y120.618 E3.65463
G1 X204.619 Y121.208 E3.68583
G1 X205.295 Y121.858 E3.71702
G1 X205.913 Y122.563 E3.7482
G1 X206.469 Y123.318 E3.77938
G1 X206.959 Y124.118 E3.81059
G1 X207.378 Y124.957 E3.84178
G1 X207.725 Y125.829 E3.87299
G1 X207.996 Y126.726 E3.90416
G1 X208.19 Y127.644 E3.93537
G1 X208.305 Y128.575 E3.96657
G1 X208.34 Y129.512 E3.99775
G1 X208.295 Y130.449 E4.02895
G1 X208.171 Y131.378 E4.06013
G1 X207.967 Y132.294 E4.09134
G1 X207.643 Y133.307 E4.12671
G1 X207.332 Y134.136 E4.15616
G1 X206.972 Y135.057 E4.18905
G1 X206.107 Y137.464 E4.27412
G1 X205.344 Y139.795 E4.3557
G1 X204.61 Y142.271 E4.44159
G1 X203.968 Y144.683 E4.52461
G1 X203.386 Y147.153 E4.60901
G1 X202.877 Y149.619 E4.69276
G1 X202.443 Y152.08 E4.77588
G1 X202.078 Y154.542 E4.85866
G1 X201.774 Y157.092 E4.94407
G1 X201.55 Y159.568 E5.02676
G1 X201.394 Y162.082 E5.11054
G1 X201.309 Y164.608 E5.1946
G1 X201.294 Y167.076 E5.27669
G1 X201.3 Y167.809 E5.30107
G1 X201.299 Y193.774 E6.16467
G1 X201.289 Y194.496 E6.18868
G1 X201.236 Y195.433 E6.2199
G1 X201.105 Y196.352 E6.25077
G1 X200.911 Y197.397 E6.28612
G1 X200.744 Y198.236 E6.31458
G1 X200.318 Y200.735 E6.39889
G1 X199.969 Y203.206 E6.48189
G1 X199.681 Y205.756 E6.56725
G1 X199.474 Y208.216 E6.64936
G1 X199.332 Y210.756 E6.73397
G1 X199.263 Y213.271 E6.81765
G1 X199.265 Y215.795 E6.9016
G1 X199.338 Y218.282 E6.98435
G1 X199.483 Y220.807 E7.06847
G1 X199.701 Y223.352 E7.15343
G1 X199.981 Y225.799 E7.23535
G1 X200.344 Y228.332 E7.32046
G1 X200.769 Y230.799 E7.40372
G1 X201.085 Y232.412 E7.45839
G1 X201.226 Y233.339 E7.48957
G1 X201.285 Y234.196 E7.51814
G1 X201.3 Y234.865 E7.5404
G1 X201.294 Y245.464 E7.89293
G1 X201.3 Y246.294 E7.92053
G1 X201.299 Y260.738 E8.40094
G1 X201.29 Y261.465 E8.42512
G1 X201.239 Y262.402 E8.45633
G1 X201.107 Y263.33 E8.48751
G1 X200.898 Y264.244 E8.51869
G1 X200.611 Y265.137 E8.54989
G1 X200.249 Y266.003 E8.58111
G1 X199.815 Y266.834 E8.61229
G1 X199.311 Y267.625 E8.64349
G1 X198.742 Y268.37 E8.67467
G1 X198.111 Y269.065 E8.70589
G1 X197.424 Y269.703 E8.73707
G1 X196.685 Y270.28 E8.76826
G1 X195.899 Y270.792 E8.79946
G1 X195.073 Y271.235 E8.83063
G1 X194.211 Y271.607 E8.86186
G1 X193.322 Y271.903 E8.89302
G1 X192.41 Y272.123 E8.92422
G1 X191.483 Y272.264 E8.95541
G1 X190.599 Y272.325 E8.98488
G1 X189.97 Y272.338 E9.00581
G1 X110.131 Y272.337 E11.66126
G1 X109.433 Y272.328 E11.68448
G1 X108.497 Y272.276 E11.71566
G1 X107.568 Y272.144 E11.74687
G1 X106.654 Y271.934 E11.77806
G1 X105.761 Y271.647 E11.80926
G1 X104.896 Y271.284 E11.84046
G1 X104.065 Y270.85 E11.87164
G1 X103.274 Y270.346 E11.90284
G1 X102.529 Y269.776 E11.93404
G1 X101.835 Y269.145 E11.96523
G1 X101.198 Y268.458 E11.99639
G1 X100.621 Y267.718 E12.0276
G1 X100.109 Y266.932 E12.0588
G1 X99.666 Y266.105 E12.09001
G1 X99.295 Y265.244 E12.12119
G1 X98.999 Y264.354 E12.15239
G1 X98.78 Y263.442 E12.18358
G1 X98.639 Y262.515 E12.21477
G1 X98.579 Y261.626 E12.2444
G1 X98.566 Y260.996 E12.26536
G1 X98.567 Y235.077 E13.12743
G1 X98.577 Y234.378 E13.15068
G1 X98.631 Y233.441 E13.1819
G1 X98.76 Y232.531 E13.21247
G1 X98.954 Y231.484 E13.24788
G1 X99.122 Y230.641 E13.27647
G1 X99.548 Y228.142 E13.36079
G1 X99.899 Y225.655 E13.44433
G1 X100.185 Y223.121 E13.52914
G1 X100.393 Y220.653 E13.61152
G1 X100.534 Y218.121 E13.69587
G1 X100.603 Y215.606 E13.77955
G1 X100.601 Y213.082 E13.8635
G1 X100.528 Y210.586 E13.94655
G1 X100.383 Y208.07 E14.03037
G1 X100.165 Y205.528 E14.11523
G1 X99.883 Y203.069 E14.19755
G1 X99.523 Y200.55 E14.28218
G1 X99.096 Y198.07 E14.36588
G1 X98.78 Y196.456 E14.42058
G1 X98.64 Y195.529 E14.45177
G1 X98.581 Y194.682 E14.48
G1 X98.566 Y194.013 E14.50226
G1 X98.572 Y183.413 E14.85482
G1 X98.566 Y182.583 E14.88243
G1 X98.566 Y167.789 E15.37448
G1 X98.529 Y165.18 E15.46126
G1 X98.422 Y162.658 E15.54522
G1 X98.245 Y160.164 E15.62838
G1 X97.998 Y157.669 E15.71177
G1 X97.678 Y155.168 E15.79563
G1 X97.287 Y152.679 E15.87943
G1 X96.82 Y150.167 E15.96441
G1 X96.304 Y147.765 E16.04612
G1 X95.697 Y145.293 E16.13078
G1 X95.032 Y142.875 E16.21419
G1 X94.291 Y140.457 E16.29831
G1 X93.49 Y138.082 E16.38167
G1 X92.562 Y135.57 E16.47074
G1 X92.246 Y134.749 E16.5
G1 X91.947 Y133.861 E16.53116
G1 X91.724 Y132.95 E16.56236
G1 X91.579 Y132.023 E16.59357
G1 X91.515 Y131.117 E16.62378
G1 X91.5 Y130.454 E16.64583
G1 X91.501 Y128.67 E16.70517
G1 X91.51 Y128 E16.72745
G1 X91.563 Y127.064 E16.75864
G1 X91.695 Y126.135 E16.78985
G1 X91.905 Y125.221 E16.82104
G1 X92.193 Y124.329 E16.85221
G1 X92.556 Y123.464 E16.88341
G1 X92.991 Y122.633 E16.91461
G1 X93.496 Y121.842 E16.94582
G1 X94.066 Y121.098 E16.977
G1 X94.697 Y120.404 E17.00819
G1 X95.385 Y119.767 E17.03938
G0 F6000 X95.774 Y119.963
G1 F1200 X96.509 Y119.409 E17.06999
G1 X97.29 Y118.922 E17.1006
G1 X98.11 Y118.504 E17.13122
G1 X98.964 Y118.158 E17.16186
G1 X99.844 Y117.888 E17.19248
G1 X100.744 Y117.696 E17.22309
G1 X101.658 Y117.582 E17.25372
G1 X102.272 Y117.551 E17.27417
G1 X103.525 Y117.525 E17.31585
G1 X109.657 Y117.518 E17.51981
G1 X110.756 Y117.535 E17.55636
G1 X111.754 Y117.576 E17.58958
G1 X114.337 Y117.647 E17.67553
G1 X116.883 Y117.643 E17.76021
G1 X119.395 Y117.569 E17.84379
G1 X121.902 Y117.425 E17.92731
G1 X124.448 Y117.205 E18.01231
G1 X127.6 Y116.838 E18.11785
G1 X128.139 Y116.785 E18.13587
G1 X130.837 Y116.586 E18.22585
G1 X133.455 Y116.319 E18.31337
G1 X135.567 Y116.085 E18.38405
G1 X136.738 Y115.979 E18.42316
G1 X138.222 Y115.886 E18.47261
G1 X140.04 Y115.819 E18.53312
G1 X141.256 Y115.809 E18.57356
G1 X142.023 Y115.813 E18.59908
G1 X144.381 Y115.875 E18.67753
G1 X146.322 Y115.975 E18.74217
G1 X147.422 Y116.059 E18.77887
G1 X148.806 Y116.181 E18.82508
G1 X149.924 Y116.289 E18.86243
G1 X150.24 Y116.312 E18.87297
G1 X151.694 Y116.455 E18.92157
G1 X154.255 Y116.633 E19.00695
G1 X156.776 Y116.737 E19.09087
G1 X158.257 Y116.774 E19.14014
G1 X158.76 Y116.801 E19.1569
G1 X160.151 Y116.909 E19.2033
G1 X161.713 Y117.019 E19.25538
G1 X163.726 Y117.187 E19.32257
G1 X166.655 Y117.403 E19.42025
G1 X169.452 Y117.575 E19.51346
G1 X170.744 Y117.635 E19.55648
G1 X173.366 Y117.72 E19.64373
G1 X175.878 Y117.73 E19.72728
G1 X178.39 Y117.669 E19.81085
G1 X179.594 Y117.604 E19.85096
G1 X179.885 Y117.601 E19.86064
G1 X181.151 Y117.542 E19.90279
G1 X182.565 Y117.518 E19.94983
G1 X190.228 Y117.525 E20.2047
G1 X190.914 Y117.536 E20.22752
G1 X191.833 Y117.591 E20.25814
G1 X192.688 Y117.715 E20.28687
G1 X193.953 Y117.951 E20.32967
G1 X194.176 Y117.981 E20.33716
G1 X195.079 Y118.16 E20.36778
G1 X196.014 Y118.327 E20.39937
G1 X197.809 Y118.666 E20.46012
G1 X198.564 Y118.822 E20.48577
G1 X198.984 Y118.918 E20.50009
G1 X199.534 Y119.056 E20.51895
G1 X200.053 Y119.2 E20.53687
G1 X200.439 Y119.318 E20.55029
G1 X201.307 Y119.625 E20.58092
G1 X202.145 Y120.006 E20.61153
G1 X202.946 Y120.459 E20.64214
G1 X203.706 Y120.979 E20.67277
G1 X204.417 Y121.564 E20.70339
G1 X205.075 Y122.208 E20.73402
G1 X205.675 Y122.906 E20.76463
G1 X206.212 Y123.654 E20.79525
G1 X206.682 Y124.446 E20.82589
G1 X207.081 Y125.275 E20.85649
G1 X207.407 Y126.136 E20.88711
G1 X207.657 Y127.023 E20.91776
G1 X207.829 Y127.927 E20.94836
G1 X207.922 Y128.843 E20.97899
G1 X207.936 Y129.763 E21.00959
G1 X207.869 Y130.682 E21.04024
G1 X207.723 Y131.591 E21.07086
G1 X207.498 Y132.483 E21.10146
G1 X207.269 Y133.167 E21.12545
G1 X206.96 Y133.99 E21.15469
G1 X206.587 Y134.944 E21.18876
G1 X205.737 Y137.31 E21.27237
G1 X204.947 Y139.724 E21.35685
G1 X204.235 Y142.126 E21.44018
G1 X203.578 Y144.594 E21.52512
G1 X202.991 Y147.086 E21.61028
G1 X202.485 Y149.539 E21.69358
G1 X202.052 Y151.988 E21.7763
G1 X201.674 Y154.542 E21.86217
G1 X201.38 Y157.006 E21.94471
G1 X201.151 Y159.541 E22.02936
G1 X200.994 Y162.081 E22.11401
G1 X200.909 Y164.591 E22.19754
G1 X200.894 Y167.077 E22.28022
G1 X200.9 Y167.812 E22.30467
G1 X200.899 Y193.769 E23.168
G1 X200.889 Y194.491 E23.19202
G1 X200.836 Y195.41 E23.22264
G1 X200.712 Y196.279 E23.25183
G1 X200.518 Y197.324 E23.28718
G1 X200.344 Y198.196 E23.31676
G1 X199.927 Y200.646 E23.39942
G1 X199.567 Y203.193 E23.48497
G1 X199.288 Y205.663 E23.56765
G1 X199.071 Y208.238 E23.65359
G1 X198.933 Y210.705 E23.73578
G1 X198.863 Y213.261 E23.82082
G1 X198.865 Y215.807 E23.9055
G1 X198.938 Y218.29 E23.98812
G1 X199.085 Y220.863 E24.07384
G1 X199.3 Y223.361 E24.15723
G1 X199.584 Y225.844 E24.24035
G1 X199.948 Y228.39 E24.3259
G1 X200.38 Y230.899 E24.41057
G1 X200.692 Y232.489 E24.46446
G1 X200.83 Y233.399 E24.49508
G1 X200.885 Y234.208 E24.52205
G1 X200.9 Y234.865 E24.5439
G1 X200.894 Y245.467 E24.89653
G1 X200.9 Y246.297 E24.92414
G1 X200.899 Y260.733 E25.40428
G1 X200.89 Y261.46 E25.42846
G1 X200.839 Y262.379 E25.45907
G1 X200.708 Y263.291 E25.48972
G1 X200.498 Y264.187 E25.52033
G1 X200.212 Y265.062 E25.55094
G1 X199.851 Y265.909 E25.58157
G1 X199.417 Y266.721 E25.61219
G1 X198.915 Y267.493 E25.64282
G1 X198.347 Y268.218 E25.67345
G1 X197.719 Y268.891 E25.70407
G1 X197.035 Y269.507 E25.73468
G1 X196.3 Y270.061 E25.7653
G1 X195.52 Y270.55 E25.79592
G1 X194.7 Y270.969 E25.82654
G1 X193.847 Y271.315 E25.85716
G1 X192.967 Y271.586 E25.88778
G1 X192.067 Y271.779 E25.9184
G1 X191.153 Y271.894 E25.94904
G1 X190.588 Y271.925 E25.96786
G1 X189.97 Y271.938 E25.98842
G1 X110.136 Y271.937 E28.64371
G1 X109.438 Y271.928 E28.66693
G1 X108.519 Y271.876 E28.69754
G1 X107.608 Y271.745 E28.72815
G1 X106.712 Y271.535 E28.75876
G1 X105.837 Y271.248 E28.78939
G1 X104.99 Y270.886 E28.82003
G1 X104.178 Y270.452 E28.85065
G1 X103.407 Y269.95 E28.88125
G1 X102.682 Y269.382 E28.91188
G1 X102.009 Y268.753 E28.94252
G1 X101.394 Y268.069 E28.97311
G1 X100.84 Y267.334 E29.00373
G1 X100.352 Y266.553 E29.03436
G1 X99.933 Y265.733 E29.06498
G1 X99.587 Y264.88 E29.0956
G1 X99.317 Y264 E29.12622
G1 X99.124 Y263.099 E29.15686
G1 X99.01 Y262.186 E29.18746
G1 X98.979 Y261.615 E29.20648
G1 X98.966 Y260.996 E29.22708
G1 X98.967 Y235.082 E30.08898
G1 X98.977 Y234.383 E30.11223
G1 X99.03 Y233.464 E30.14285
G1 X99.153 Y232.604 E30.17174
G1 X99.347 Y231.557 E30.20716
G1 X99.522 Y230.681 E30.23687
G1 X99.94 Y228.228 E30.31963
G1 X100.299 Y225.684 E30.40509
G1 X100.58 Y223.198 E30.4883
G1 X100.795 Y220.639 E30.57371
G1 X100.934 Y218.154 E30.65649
G1 X101.003 Y215.616 E30.74094
G1 X101.001 Y213.07 E30.82562
G1 X100.928 Y210.585 E30.9083
G1 X100.781 Y208.014 E30.99395
G1 X100.566 Y205.515 E31.07738
G1 X100.278 Y203.002 E31.16151
G1 X99.919 Y200.497 E31.24568
G1 X99.484 Y197.97 E31.33096
G1 X99.173 Y196.379 E31.38488
G1 X99.036 Y195.469 E31.41549
G1 X98.981 Y194.67 E31.44212
G1 X98.966 Y194.013 E31.46398
G1 X98.972 Y183.41 E31.81664
G1 X98.966 Y182.58 E31.84425
G1 X98.966 Y167.783 E32.3364
G1 X98.929 Y165.158 E32.42371
G1 X98.822 Y162.649 E32.50724
G1 X98.644 Y160.129 E32.59126
G1 X98.395 Y157.615 E32.67529
G1 X98.076 Y155.126 E32.75875
G1 X97.675 Y152.574 E32.84467
G1 X97.219 Y150.123 E32.92759
G1 X96.697 Y147.69 E33.01035
G1 X96.085 Y145.198 E33.0957
G1 X95.405 Y142.725 E33.18101
G1 X94.677 Y140.349 E33.26366
G1 X93.869 Y137.952 E33.34779
G1 X92.908 Y135.351 E33.44002
G1 X92.62 Y134.605 E33.46661
G1 X92.326 Y133.733 E33.49722
G1 X92.109 Y132.838 E33.52785
G1 X91.971 Y131.928 E33.55846
G1 X91.915 Y131.105 E33.5859
G1 X91.9 Y130.454 E33.60756
G1 X91.901 Y128.676 E33.66669
G1 X91.91 Y128.006 E33.68898
G1 X91.962 Y127.086 E33.71963
G1 X92.094 Y126.175 E33.75024
G1 X92.305 Y125.279 E33.78086
G1 X92.592 Y124.404 E33.81149
G1 X92.954 Y123.558 E33.84209
G1 X93.389 Y122.746 E33.87273
G1 X93.892 Y121.975 E33.90335
G1 X94.46 Y121.251 E33.93396
G1 X95.089 Y120.578 E33.9646
G1 X95.774 Y119.963 E33.99522
G0 F6000 X96.162 Y120.164
G1 F1200 X96.893 Y119.633 E34.02527
G1 X97.668 Y119.17 E34.05529
G1 X98.481 Y118.777 E34.08533
G1 X99.326 Y118.457 E34.11538
G1 X100.195 Y118.214 E34.14539
G1 X101.083 Y118.048 E34.17544
G1 X102.281 Y117.951 E34.21541
G1 X103.525 Y117.925 E34.2568
G1 X109.657 Y117.918 E34.46075
G1 X110.739 Y117.935 E34.49674
G1 X111.725 Y117.976 E34.52956
G1 X114.327 Y118.047 E34.61614
G1 X116.86 Y118.043 E34.70039
G1 X119.429 Y117.968 E34.78587
G1 X121.959 Y117.822 E34.87016
G1 X124.46 Y117.606 E34.95365
G1 X127.65 Y117.235 E35.06047
G1 X128.168 Y117.184 E35.07778
G1 X130.874 Y116.985 E35.16802
G1 X133.45 Y116.722 E35.25415
G1 X135.389 Y116.505 E35.31904
G1 X137.087 Y116.354 E35.37574
G1 X138.468 Y116.274 E35.42175
G1 X140.043 Y116.219 E35.47416
G1 X141.259 Y116.209 E35.51461
G1 X142.217 Y116.216 E35.54647
G1 X144.117 Y116.265 E35.60969
G1 X146.291 Y116.374 E35.68209
G1 X147.387 Y116.458 E35.71865
G1 X148.767 Y116.579 E35.76472
G1 X150.069 Y116.704 E35.80823
G1 X150.201 Y116.71 E35.81262
G1 X151.663 Y116.854 E35.86148
G1 X154.246 Y117.033 E35.9476
G1 X156.753 Y117.137 E36.03105
