;FLAVOR:Marlin
;TIME:4982
;Filament used: 2.37879m
;Layer height: 0.2
;MINX:131.52
;MINY:118.614
;MINZ:0.32
;MAXX:168.484
;MAXY:181.449
;MAXZ:60.52
;Generated with Cura_SteamEngine 5.2.1
M140 S60
M105
M190 S60
M104 S200
M105
M109 S200
M82 ;absolute extrusion mode
; Ender 3 Max Custom Start G-code
G92 E0 ; Reset Extruder
G28 ; Home all axes
G1 Z2.0 F3000 ; Move Z Axis up little to prevent scratching of Heat Bed
G1 X0.1 Y20 Z0.3 F5000.0 ; Move to start position
G1 X0.1 Y200.0 Z0.3 F1500.0 E15 ; Draw the first line
G1 X0.4 Y200.0 Z0.3 F5000.0 ; Move to side a little
G1 X0.4 Y20 Z0.3 F1500.0 E30 ; Draw the second line
G92 E0 ; Reset Extruder
G1 Z2.0 F3000 ; Move Z Axis up little to prevent scratching of Heat Bed
G1 X5 Y20 Z0.3 F5000.0 ; Move over to prevent blob squish
G92 E0
G92 E0
G1 F1500 E-6.5
;LAYER_COUNT:303
;LAYER:0
M107
G0 F6000 X137.846 Y122.463 Z0.32
;TYPE:SKIRT
G1 F1500 E0
G1 F900 X138.507 Y121.818 E0.05406
G1 X139.221 Y121.233 E0.1081
G1 X139.982 Y120.711 E0.16212
G1 X140.787 Y120.258 E0.21619
G1 X141.627 Y119.875 E0.27023
G1 X142.402 Y119.597 E0.31843
G1 X143.161 Y119.357 E0.36503
G1 X144.471 Y119.032 E0.44403
G1 X145.173 Y118.911 E0.48573
G1 X145.83 Y118.818 E0.52458
G1 X146.562 Y118.729 E0.56774
G1 X147.183 Y118.668 E0.60427
G1 X147.809 Y118.63 E0.64098
G1 X148.384 Y118.617 E0.67465
G1 X150.901 Y118.614 E0.82199
G1 X151.76 Y118.625 E0.87228
G1 X152.364 Y118.651 E0.90767
G1 X153.128 Y118.711 E0.95253
G1 X154.113 Y118.812 E1.01049
G1 X154.695 Y118.887 E1.04484
G1 X155.326 Y118.987 E1.08224
G1 X156.23 Y119.171 E1.13624
G1 X156.783 Y119.325 E1.16985
G1 X157.568 Y119.57 E1.21798
G1 X158.131 Y119.76 E1.25277
G1 X158.992 Y120.092 E1.30678
G1 X159.821 Y120.499 E1.36085
G1 X160.612 Y120.975 E1.41489
G1 X161.359 Y121.518 E1.46895
G1 X162.056 Y122.123 E1.52297
G1 X162.697 Y122.787 E1.577
G1 X163.28 Y123.504 E1.63109
G1 X163.796 Y124.266 E1.68497
G1 X163.968 Y124.545 E1.70415
G1 X164.418 Y125.351 E1.75819
G1 X164.797 Y126.193 E1.81224
G1 X165.101 Y127.065 E1.8663
G1 X165.329 Y127.959 E1.92031
G1 X165.478 Y128.871 E1.9744
G1 X165.548 Y129.791 E2.02841
G1 X165.55 Y130.438 E2.06629
G1 X165.494 Y132.149 E2.1665
G1 X165.457 Y134.756 E2.31912
G1 X165.347 Y137.411 E2.47467
G1 X165.306 Y139.98 E2.62507
G1 X165.337 Y142.488 E2.7719
G1 X165.439 Y145.004 E2.9193
G1 X165.613 Y147.533 E3.06769
G1 X165.86 Y150.061 E3.21638
G1 X166.174 Y152.555 E3.36353
G1 X166.56 Y155.046 E3.51109
G1 X167.019 Y157.543 E3.6597
G1 X167.542 Y159.995 E3.80647
G1 X167.801 Y161.091 E3.87239
G1 X167.94 Y161.746 E3.91159
G1 X168.101 Y162.614 E3.96327
G1 X168.243 Y163.542 E4.01822
G1 X168.396 Y164.849 E4.09525
G1 X168.455 Y165.565 E4.13731
G1 X168.484 Y166.402 E4.18633
G1 X168.458 Y167.21 E4.23366
G1 X168.422 Y167.754 E4.26557
G1 X168.259 Y169.033 E4.34105
G1 X168.126 Y169.683 E4.37988
G1 X168.05 Y170.008 E4.39942
G1 X167.711 Y171.16 E4.46972
G1 X167.541 Y171.637 E4.49936
G1 X167.259 Y172.347 E4.54408
G1 X167.132 Y172.636 E4.56256
G1 X166.771 Y173.386 E4.61128
G1 X166.365 Y174.104 E4.65957
G1 X166.114 Y174.514 E4.68771
G1 X165.462 Y175.459 E4.75492
G1 X165.219 Y175.774 E4.7782
G1 X164.607 Y176.498 E4.8337
G1 X164.363 Y176.762 E4.85474
G1 X163.465 Y177.627 E4.92773
G1 X163.098 Y177.941 E4.956
G1 X162.559 Y178.373 E4.99644
G1 X162.272 Y178.588 E5.01743
G1 X161.426 Y179.16 E5.07721
G1 X161.183 Y179.308 E5.09387
G1 X160.588 Y179.647 E5.13395
G1 X159.61 Y180.122 E5.1976
G1 X159.176 Y180.306 E5.22519
G1 X158.47 Y180.577 E5.26946
G1 X158.181 Y180.676 E5.28734
G1 X157.358 Y180.926 E5.33769
G1 X156.527 Y181.116 E5.38759
G1 X156.133 Y181.192 E5.41108
G1 X155.427 Y181.304 E5.45293
G1 X155 Y181.357 E5.47811
G1 X153.925 Y181.435 E5.54121
G1 X153.06 Y181.448 E5.59185
G1 X151.121 Y181.424 E5.70536
G1 X147.114 Y181.449 E5.93993
G1 X146.543 Y181.443 E5.97335
G1 X145.582 Y181.402 E6.02966
G1 X144.852 Y181.34 E6.07255
G1 X144.391 Y181.285 E6.09972
G1 X143.48 Y181.136 E6.15376
G1 X142.668 Y180.933 E6.20276
G1 X142.202 Y180.797 E6.23117
G1 X141.442 Y180.544 E6.27806
G1 X141.109 Y180.419 E6.29888
G1 X140.422 Y180.134 E6.34242
G1 X140.153 Y180.011 E6.35974
G1 X139.475 Y179.671 E6.40414
G1 X139.076 Y179.453 E6.43075
G1 X138.286 Y178.975 E6.4848
G1 X137.865 Y178.681 E6.51486
G1 X137.455 Y178.379 E6.54467
G1 X136.911 Y177.95 E6.58523
G1 X136.607 Y177.694 E6.60849
G1 X135.927 Y177.069 E6.66256
G1 X135.573 Y176.697 E6.69262
G1 X135.303 Y176.399 E6.71616
G1 X134.67 Y175.631 E6.77441
G1 X134.384 Y175.249 E6.80235
G1 X133.681 Y174.183 E6.8771
G1 X133.432 Y173.751 E6.90629
G1 X133.059 Y173.042 E6.95318
G1 X132.705 Y172.264 E7.00322
G1 X132.59 Y171.983 E7.02099
G1 X132.321 Y171.249 E7.06675
G1 X132.173 Y170.795 E7.09471
G1 X131.875 Y169.677 E7.16244
G1 X131.783 Y169.238 E7.18869
G1 X131.633 Y168.328 E7.24268
G1 X131.585 Y167.836 E7.27162
G1 X131.549 Y167.348 E7.30026
G1 X131.52 Y166.564 E7.34619
G1 X131.533 Y165.798 E7.39103
G1 X131.546 Y165.537 E7.40633
G1 X131.599 Y164.886 E7.44456
G1 X131.753 Y163.562 E7.52259
G1 X131.899 Y162.618 E7.57851
G1 X132.071 Y161.691 E7.6337
G1 X132.754 Y158.46 E7.82701
G1 X133.206 Y155.993 E7.97383
G1 X133.593 Y153.49 E8.12209
G1 X133.911 Y150.955 E8.27165
G1 X134.153 Y148.462 E8.41827
G1 X134.326 Y145.929 E8.56689
G1 X134.427 Y143.423 E8.71371
G1 X134.457 Y140.911 E8.86076
G1 X134.414 Y138.33 E9.01187
G1 X134.302 Y135.826 E9.1586
G1 X134.242 Y134.853 E9.21566
G1 X134.225 Y133.93 E9.2697
G1 X134.286 Y133.023 E9.32291
G1 X134.59 Y130.272 E9.48493
G1 X134.7 Y129.127 E9.55227
G1 X134.828 Y128.213 E9.60629
G1 X135.035 Y127.313 E9.66035
G1 X135.319 Y126.434 E9.71443
G1 X135.678 Y125.584 E9.76844
G1 X136.109 Y124.767 E9.82251
G1 X136.609 Y123.991 E9.87655
G1 X136.698 Y123.873 E9.8852
G0 F810 X136.939 Y123.55
G0 X137.244 Y123.163
G0 X137.846 Y122.463
G0 F6000 X138.18 Y122.75
G1 F900 X138.828 Y122.121 E9.93807
G1 X139.53 Y121.551 E9.991
G1 X140.279 Y121.045 E10.04391
G1 X141.07 Y120.608 E10.09681
G1 X141.897 Y120.242 E10.14975
G1 X142.535 Y120.017 E10.18935
G1 X143.294 Y119.777 E10.23595
G1 X144.549 Y119.465 E10.31165
G1 X145.237 Y119.346 E10.35253
G1 X145.632 Y119.288 E10.3759
G1 X146.615 Y119.166 E10.43388
G1 X147.222 Y119.106 E10.46959
G1 X147.822 Y119.07 E10.50477
G1 X148.385 Y119.057 E10.53774
G1 X150.902 Y119.054 E10.68508
G1 X151.754 Y119.065 E10.73496
G1 X152.332 Y119.09 E10.76882
G1 X153.083 Y119.148 E10.81291
G1 X154.068 Y119.249 E10.87088
G1 X154.626 Y119.322 E10.90382
G1 X155.257 Y119.422 E10.94122
G1 X156.142 Y119.603 E10.9941
G1 X156.654 Y119.745 E11.0252
G1 X157.156 Y119.899 E11.05594
G1 X157.99 Y120.177 E11.1074
G1 X158.833 Y120.503 E11.16031
G1 X159.644 Y120.903 E11.21324
G1 X160.416 Y121.373 E11.26615
G1 X161.144 Y121.909 E11.31907
G1 X161.821 Y122.508 E11.37198
G1 X162.443 Y123.164 E11.4249
G1 X163.004 Y123.872 E11.47778
G1 X163.422 Y124.497 E11.52179
G1 X163.594 Y124.776 E11.54098
G1 X164.034 Y125.566 E11.59392
G1 X164.402 Y126.391 E11.6468
G1 X164.696 Y127.246 E11.69972
G1 X164.913 Y128.123 E11.75261
G1 X165.052 Y129.017 E11.80557
G1 X165.112 Y129.919 E11.85849
G1 X165.11 Y130.426 E11.88817
G1 X165.054 Y132.124 E11.98762
G1 X165.009 Y135.046 E12.15868
G1 X164.907 Y137.422 E12.2979
G1 X164.866 Y139.979 E12.4476
G1 X164.897 Y142.476 E12.59378
G1 X165.002 Y145.051 E12.74464
G1 X165.175 Y147.572 E12.89256
G1 X165.42 Y150.087 E13.04048
G1 X165.742 Y152.645 E13.1914
G1 X166.126 Y155.121 E13.33807
G1 X166.584 Y157.607 E13.48605
G1 X167.115 Y160.102 E13.63537
G1 X167.311 Y160.919 E13.68455
G1 X167.571 Y162.152 E13.75832
G1 X167.719 Y163.004 E13.80894
G1 X167.855 Y163.966 E13.86581
G1 X167.959 Y164.897 E13.92065
G1 X168.016 Y165.595 E13.96165
G1 X168.044 Y166.402 E14.00891
G1 X168.019 Y167.181 E14.05454
G1 X167.983 Y167.725 E14.08645
G1 X167.827 Y168.951 E14.1588
G1 X167.698 Y169.583 E14.19656
G1 X167.622 Y169.908 E14.2161
G1 X167.297 Y171.012 E14.28346
G1 X167.127 Y171.489 E14.31311
G1 X166.856 Y172.17 E14.35601
G1 X166.729 Y172.459 E14.37449
G1 X166.381 Y173.183 E14.42151
G1 X165.989 Y173.874 E14.46802
G1 X165.738 Y174.284 E14.49616
G1 X165.114 Y175.19 E14.56056
G1 X164.871 Y175.505 E14.58385
G1 X164.284 Y176.2 E14.6371
G1 X164.04 Y176.464 E14.65814
G1 X163.179 Y177.293 E14.72811
G1 X162.812 Y177.607 E14.75638
G1 X162.295 Y178.02 E14.79512
G1 X162.008 Y178.235 E14.81611
G1 X161.197 Y178.785 E14.87347
G1 X160.954 Y178.933 E14.89012
G1 X160.376 Y179.262 E14.92906
G1 X159.438 Y179.717 E14.99008
G1 X159.004 Y179.901 E15.01768
G1 X158.327 Y180.16 E15.06011
G1 X158.038 Y180.259 E15.07799
G1 X157.248 Y180.499 E15.12632
G1 X156.444 Y180.684 E15.17462
G1 X156.05 Y180.76 E15.19811
G1 X155.373 Y180.867 E15.23823
G1 X154.946 Y180.92 E15.26342
G1 X153.915 Y180.995 E15.32393
G1 X153.066 Y181.008 E15.37363
G1 X151.124 Y180.983 E15.48732
G1 X147.111 Y181.009 E15.72224
G1 X146.549 Y181.003 E15.75514
G1 X145.604 Y180.962 E15.81051
G1 X144.904 Y180.903 E15.85163
G1 X144.443 Y180.848 E15.87881
G1 X143.551 Y180.701 E15.93173
G1 X142.791 Y180.511 E15.97759
G1 X142.325 Y180.375 E16.00601
G1 X141.596 Y180.132 E16.05099
G1 X141.263 Y180.007 E16.07181
G1 X140.605 Y179.733 E16.11353
G1 X140.336 Y179.61 E16.13085
G1 X139.686 Y179.285 E16.17339
G1 X139.287 Y179.067 E16.2
G1 X138.513 Y178.599 E16.25295
G1 X138.126 Y178.327 E16.28064
G1 X137.716 Y178.025 E16.31045
G1 X137.194 Y177.613 E16.34938
G1 X136.89 Y177.357 E16.37264
G1 X136.225 Y176.745 E16.42555
G1 X135.899 Y176.402 E16.45325
G1 X135.629 Y176.104 E16.47679
G1 X135.022 Y175.367 E16.53268
G1 X134.736 Y174.985 E16.56061
G1 X134.063 Y173.964 E16.63219
G1 X133.814 Y173.532 E16.66138
G1 X133.455 Y172.852 E16.70639
G1 X133.112 Y172.097 E16.75494
G1 X132.997 Y171.816 E16.77271
G1 X132.739 Y171.113 E16.81655
G1 X132.591 Y170.659 E16.8445
G1 X132.305 Y169.587 E16.90945
G1 X132.213 Y169.148 E16.9357
G1 X132.067 Y168.256 E16.98861
G1 X131.988 Y167.316 E17.04383
G1 X131.96 Y166.564 E17.08788
G1 X131.973 Y165.82 E17.13144
G1 X131.986 Y165.559 E17.14674
G1 X132.036 Y164.935 E17.18339
G1 X132.141 Y163.993 E17.23887
G1 X132.189 Y163.626 E17.26054
G1 X132.332 Y162.697 E17.31556
G1 X132.502 Y161.782 E17.37004
G1 X133.183 Y158.558 E17.56293
G1 X133.64 Y156.066 E17.71124
G1 X134.03 Y153.54 E17.86085
G1 X134.347 Y151.019 E18.00959
G1 X134.592 Y148.498 E18.15786
G1 X134.764 Y145.976 E18.30584
G1 X134.867 Y143.411 E18.45611
G1 X134.897 Y140.909 E18.60258
G1 X134.854 Y138.338 E18.7531
G1 X134.738 Y135.724 E18.90627
G1 X134.682 Y134.826 E18.95894
G1 X134.666 Y133.922 E19.01186
G1 X134.724 Y133.071 E19.0618
G1 X135.023 Y130.36 E19.22145
G1 X135.138 Y129.169 E19.2915
G1 X135.264 Y128.274 E19.3444
G1 X135.469 Y127.393 E19.39735
G1 X135.751 Y126.535 E19.45022
G1 X136.108 Y125.704 E19.50317
G1 X136.537 Y124.908 E19.5561
G1 X137.045 Y124.169 E19.60859
G0 F810 X137.284 Y123.822
G0 X137.589 Y123.435
G0 X138.18 Y122.75
G1 F1500 E13.10859
G0 F6000 X148.424 Y132.623
G1 F1500 E19.60859
G1 F900 X148.618 Y132.575 E19.62029
G1 X151.125 Y132.574 E19.76705
G1 X151.45 Y132.659 E19.78671
G1 X151.451 Y132.983 E19.80568
G1 X151.425 Y133.178 E19.81719
G1 X151.189 Y133.114 E19.83151
G1 X150.679 Y133.058 E19.86154
G1 X150.035 Y133.101 E19.89932
G1 X149.45 Y133.199 E19.93405
G0 F810 X148.536 Y133.35
G0 X148.357 Y133.087
G0 X148.424 Y132.623
G0 F6000 X148.274 Y132.211
G1 F900 X148.575 Y132.135 E19.95222
G1 X151.178 Y132.134 E20.10459
G1 X151.484 Y132.212 E20.12308
G1 X151.888 Y132.245 E20.14681
G1 X151.891 Y133.018 E20.19206
G1 X151.868 Y133.151 E20.19996
G1 X151.818 Y133.717 E20.23322
G1 X151.537 Y133.662 E20.24998
G1 X151.075 Y133.54 E20.27795
G1 X150.599 Y133.496 E20.30593
G1 X150.108 Y133.535 E20.33477
G1 X148.327 Y133.831 E20.44045
G1 X148.237 Y133.692 E20.45015
G0 F810 X148.076 Y133.442
G0 X147.895 Y133.208
G0 X148.035 Y132.231
G0 X148.274 Y132.211
G0 F6000 X148.236 Y131.771
G1 F900 X148.526 Y131.695 E20.4677
G1 X151.229 Y131.694 E20.62592
G1 X151.591 Y131.783 E20.64774
G1 X151.952 Y131.81 E20.66894
G1 X152.328 Y131.81 E20.69095
G1 X152.331 Y133.058 E20.764
G1 X152.302 Y133.226 E20.77398
G1 X152.266 Y133.664 E20.79971
G1 X152.28 Y133.871 E20.81185
G1 X152.006 Y134.207 E20.83723
G1 X151.47 Y134.091 E20.86933
G1 X151.424 Y134.089 E20.87203
G1 X150.964 Y133.967 E20.89989
G1 X150.525 Y133.937 E20.92565
G1 X150.18 Y133.969 E20.94593
G1 X148.208 Y134.296 E21.06294
G1 X148.007 Y134.197 E21.07606
G1 X147.924 Y134.011 E21.08798
G1 X147.727 Y133.711 E21.10899
G1 X147.434 Y133.331 E21.13708
G1 X147.476 Y133.041 E21.15423
G0 F810 X147.649 Y131.825
G0 X148.236 Y131.771
G0 F6000 X148.193 Y131.331
G1 F900 X148.467 Y131.255 E21.17088
G1 X151.285 Y131.254 E21.33584
G1 X151.695 Y131.353 E21.36053
G1 X151.952 Y131.37 E21.3756
G1 X152.416 Y131.37 E21.40277
G1 X152.782 Y131.452 E21.42472
G1 X152.767 Y131.841 E21.44751
G1 X152.771 Y133.092 E21.52074
G1 X152.735 Y133.301 E21.53315
G1 X152.722 Y133.889 E21.56758
G1 X152.737 Y134.008 E21.5746
G1 X152.325 Y134.512 E21.61271
G1 X152.113 Y134.749 E21.63133
G1 X151.731 Y134.593 E21.65548
G1 X151.321 Y134.52 E21.67986
G1 X151.241 Y134.491 E21.68484
G1 X150.855 Y134.396 E21.70811
G1 X150.404 Y134.378 E21.73453
G1 X148.154 Y134.751 E21.86804
G1 X147.76 Y134.584 E21.89309
G1 X147.633 Y134.437 E21.90446
G1 X147.521 Y134.192 E21.92023
G1 X147.378 Y133.98 E21.9352
G1 X146.972 Y133.453 E21.97414
G1 X147.135 Y132.315 E22.04144
G0 F810 X147.257 Y131.454
G0 X147.583 Y131.371
G0 X147.798 Y131.371
G0 X148.193 Y131.331
G0 F6000 X148.295 Y130.849
G1 F900 X148.395 Y130.815 E22.04762
G1 X151.358 Y130.814 E22.22107
G1 X151.451 Y130.846 E22.22682
G1 X151.952 Y130.93 E22.25656
G1 X152.482 Y130.93 E22.28759
G1 X152.762 Y131.017 E22.30475
G1 X153.24 Y131.062 E22.33285
G1 X153.207 Y131.839 E22.37838
G1 X153.212 Y133.131 E22.45401
G1 X153.169 Y133.376 E22.46857
G1 X153.158 Y133.833 E22.49533
G1 X153.197 Y134.141 E22.51351
G1 X152.665 Y134.791 E22.56267
G1 X152.506 Y135.011 E22.57856
G1 X152.147 Y135.264 E22.60427
G1 X151.894 Y135.131 E22.62101
G1 X151.568 Y135.004 E22.64149
G1 X151.288 Y134.975 E22.65796
G1 X151.094 Y134.906 E22.67002
G1 X150.752 Y134.826 E22.69058
G1 X150.324 Y134.837 E22.71564
G1 X148.1 Y135.206 E22.84761
G1 X147.495 Y134.948 E22.88611
G1 X147.26 Y134.679 E22.90702
G1 X147.03 Y134.248 E22.93562
G1 X146.701 Y133.821 E22.96717
G1 X146.505 Y133.61 E22.98403
G1 X146.818 Y131.423 E23.11336
G0 F810 X146.87 Y131.054
G0 X147.298 Y131.005
G0 X147.507 Y130.931
G0 X147.798 Y130.931
G0 X148.295 Y130.849
G0 F6000 X148.153 Y130.432
G1 F900 X148.32 Y130.375 E23.12368
G1 X151.431 Y130.374 E23.3058
G1 X151.594 Y130.43 E23.31588
G1 X151.952 Y130.49 E23.33713
G1 X152.58 Y130.49 E23.3739
G1 X152.648 Y130.528 E23.37846
G1 X153.049 Y130.604 E23.40235
G1 X153.478 Y130.604 E23.42746
G1 X153.698 Y130.675 E23.44099
G1 X153.647 Y131.838 E23.50914
G1 X153.652 Y133.166 E23.58688
G1 X153.602 Y133.452 E23.60387
G1 X153.595 Y133.778 E23.62296
G1 X153.658 Y134.273 E23.65217
G1 X153.006 Y135.069 E23.7124
G1 X152.814 Y135.341 E23.73189
G1 X152.737 Y135.383 E23.73703
G1 X152.499 Y135.559 E23.75435
G1 X152.449 Y135.621 E23.75902
G1 X152.217 Y135.716 E23.77369
G1 X151.969 Y135.668 E23.78848
G1 X151.689 Y135.52 E23.80702
G1 X151.411 Y135.419 E23.82433
G1 X151.168 Y135.399 E23.8386
G1 X150.946 Y135.32 E23.8524
G1 X150.656 Y135.259 E23.86974
G1 X150.396 Y135.271 E23.88498
G1 X148.044 Y135.661 E24.02454
G1 X147.447 Y135.407 E24.06252
G1 X147.155 Y135.233 E24.08242
G1 X146.876 Y134.908 E24.10749
G1 X146.852 Y134.836 E24.11193
G1 X146.681 Y134.517 E24.13312
G1 X146.304 Y134.028 E24.16927
G1 X146.038 Y133.768 E24.19104
G1 X146.463 Y130.789 E24.36719
G1 X146.462 Y130.735 E24.37035
G0 F810 X146.461 Y130.636
G0 X146.567 Y130.605
G0 X146.95 Y130.605
