;FLAVOR:Marlin
;TIME:5322
;Filament used: 3.51966m
;Layer height: 0.2
;MINX:72.161
;MINY:102.964
;MINZ:0.2
;MAXX:224.553
;MAXY:200.098
;MAXZ:6.6
;Generated with Cura_SteamEngine 5.2.1
M140 S60
M105
M190 S60
M104 S215
M105
M109 S215
M82 ;absolute extrusion mode
; Ender 3 Max Custom Start G-code
G92 E0 ; Reset Extruder
G28 ; Home all axes
G1 Z2.0 F3000 ; Move Z Axis up little to prevent scratching of Heat Bed
G1 X0.1 Y20 Z0.3 F5000.0 ; Move to start position
G1 X0.1 Y200.0 Z0.3 F1500.0 E15 ; Draw the first line
G1 X0.4 Y200.0 Z0.3 F5000.0 ; Move to side a little
G1 X0.4 Y20 Z0.3 F1500.0 E30 ; Draw the second line
G92 E0 ; Reset Extruder
G1 Z2.0 F3000 ; Move Z Axis up little to prevent scratching of Heat Bed
G1 X5 Y20 Z0.3 F5000.0 ; Move over to prevent blob squish
G92 E0
G92 E0
G1 F1500 E-6.5
;LAYER_COUNT:33
;LAYER:0
M107
G0 F6000 X79.789 Y114.472 Z0.2
;TYPE:SKIRT
G1 F1500 E0
G1 F1200 X81.348 Y113.438 E0.06222
G1 X81.965 Y113.046 E0.08653
G1 X82.778 Y112.578 E0.11773
G1 X83.602 Y112.19 E0.14803
G1 X84.104 Y111.979 E0.16614
G1 X85.198 Y111.537 E0.20538
G1 X86.082 Y111.223 E0.23658
G1 X86.989 Y110.986 E0.26776
G1 X87.914 Y110.827 E0.29898
G1 X88.848 Y110.748 E0.33016
G1 X89.683 Y110.744 E0.35793
G1 X90.491 Y110.771 E0.38482
G1 X92.961 Y110.823 E0.46699
G1 X93.691 Y110.817 E0.49127
G1 X96.804 Y110.834 E0.59481
G1 X97.856 Y110.822 E0.6298
G1 X102.045 Y110.815 E0.76913
G1 X105.726 Y110.7 E0.89162
G1 X106.426 Y110.701 E0.9149
G1 X108.454 Y110.774 E0.9824
G1 X110.462 Y110.812 E1.0492
G1 X111.583 Y110.821 E1.08648
G1 X112.377 Y110.817 E1.11289
G1 X115.161 Y110.836 E1.20549
G1 X117.603 Y110.821 E1.28671
G1 X122.758 Y110.823 E1.45817
G1 X124.203 Y110.815 E1.50623
G1 X125.422 Y110.824 E1.54677
G1 X126.598 Y110.817 E1.58589
G1 X128.522 Y110.83 E1.64988
G1 X130.347 Y110.821 E1.71058
G1 X130.86 Y110.826 E1.72765
G1 X133.818 Y110.815 E1.82603
G1 X134.793 Y110.802 E1.85846
G1 X136.377 Y110.818 E1.91115
G1 X138.326 Y110.826 E1.97597
G1 X139.181 Y110.818 E2.00441
G1 X141.62 Y110.828 E2.08553
G1 X142.914 Y110.818 E2.12857
G1 X143.726 Y110.824 E2.15558
G1 X144.819 Y110.818 E2.19194
G1 X147.402 Y110.834 E2.27785
G1 X148.683 Y110.821 E2.32046
G1 X150.883 Y110.827 E2.39363
G1 X152.589 Y110.817 E2.45037
G1 X156.7 Y110.696 E2.58716
G1 X159.526 Y110.676 E2.68116
G1 X162.047 Y110.585 E2.76506
G1 X164.546 Y110.424 E2.84835
G1 X167.054 Y110.192 E2.93212
G1 X169.548 Y109.888 E3.01569
G1 X172.053 Y109.512 E3.09994
G1 X174.501 Y109.073 E3.18266
G1 X176.993 Y108.553 E3.26733
G1 X179.398 Y107.98 E3.34956
G1 X181.87 Y107.316 E3.43469
G1 X184.283 Y106.594 E3.51846
G1 X186.666 Y105.807 E3.60193
G1 X189.011 Y104.959 E3.68487
G1 X191.428 Y104.006 E3.77128
G1 X191.941 Y103.794 E3.78975
G1 X192.822 Y103.473 E3.82093
G1 X193.727 Y103.228 E3.85212
G1 X194.65 Y103.06 E3.88332
G1 X195.584 Y102.972 E3.91452
G1 X196.522 Y102.964 E3.94572
G1 X197.593 Y103.053 E3.98147
G1 X200.438 Y103.43 E4.07692
G1 X201.362 Y103.593 E4.10813
G1 X202.268 Y103.834 E4.13931
G1 X203.151 Y104.151 E4.17051
G1 X204.003 Y104.542 E4.20169
G1 X204.819 Y105.005 E4.2329
G1 X205.397 Y105.391 E4.25601
G1 X206.161 Y105.938 E4.28726
G1 X206.989 Y106.559 E4.32169
G1 X207.866 Y107.295 E4.35977
G1 X208.636 Y108.013 E4.39479
G1 X209.422 Y108.764 E4.43094
G1 X209.841 Y109.187 E4.45075
G1 X210.215 Y109.586 E4.46893
G1 X212.068 Y111.51 E4.55778
G1 X213.911 Y113.317 E4.64363
G1 X215.236 Y114.565 E4.70417
G1 X215.994 Y115.32 E4.73975
G1 X216.588 Y115.943 E4.76838
G1 X217.935 Y117.395 E4.83425
G1 X220.669 Y120.145 E4.96323
G1 X220.95 Y120.415 E4.97619
G1 X221.597 Y121.094 E5.00739
G1 X222.184 Y121.825 E5.03857
G1 X222.707 Y122.604 E5.06978
G1 X223.161 Y123.424 E5.10095
G1 X223.544 Y124.28 E5.13214
G1 X223.718 Y124.751 E5.14884
G1 X223.929 Y125.38 E5.17091
G1 X224.074 Y125.85 E5.18727
G1 X224.312 Y126.757 E5.21845
G1 X224.472 Y127.682 E5.24968
G1 X224.553 Y128.616 E5.28086
G1 X224.553 Y129.554 E5.31206
G1 X224.474 Y130.488 E5.34323
G1 X224.316 Y131.413 E5.37444
G1 X224.086 Y132.297 E5.40482
G1 X223.815 Y133.165 E5.43507
G1 X223.627 Y133.701 E5.45396
G1 X223.326 Y134.505 E5.48251
G1 X222.864 Y135.69 E5.52482
G1 X222.001 Y138.101 E5.60999
G1 X221.226 Y140.482 E5.69327
G1 X220.519 Y142.874 E5.77623
G1 X219.868 Y145.336 E5.86093
G1 X219.292 Y147.794 E5.9449
G1 X218.788 Y150.26 E6.02862
G1 X218.355 Y152.723 E6.11179
G1 X217.991 Y155.218 E6.19565
G1 X217.7 Y157.686 E6.27831
G1 X217.473 Y160.23 E6.36326
G1 X217.321 Y162.746 E6.44709
G1 X217.239 Y165.252 E6.53049
G1 X217.222 Y167.054 E6.59043
G1 X217.231 Y168.953 E6.65359
G1 X217.223 Y169.996 E6.68828
G1 X217.231 Y172.58 E6.77422
G1 X217.224 Y173.371 E6.80053
G1 X217.237 Y175.156 E6.8599
G1 X217.23 Y176.307 E6.89819
G1 X217.241 Y177.717 E6.94509
G1 X217.225 Y178.177 E6.96039
G1 X217.226 Y178.716 E6.97832
G1 X217.277 Y181.654 E7.07606
G1 X217.254 Y182.591 E7.10723
G1 X217.15 Y183.523 E7.13842
G1 X216.862 Y184.845 E7.18342
G1 X216.495 Y186.135 E7.22803
G1 X216.091 Y187.469 E7.27439
G1 X215.873 Y188.138 E7.29779
G1 X215.396 Y189.352 E7.34117
G1 X215.007 Y190.192 E7.37196
G1 X214.623 Y190.971 E7.40085
G1 X214.167 Y191.79 E7.43203
G1 X213.643 Y192.569 E7.46325
G1 X213.055 Y193.299 E7.49443
G1 X212.615 Y193.772 E7.51592
G1 X210.259 Y196.158 E7.62744
G1 X209.572 Y196.796 E7.65863
G1 X208.834 Y197.374 E7.6898
G1 X208.048 Y197.887 E7.72102
G1 X207.222 Y198.331 E7.75221
G1 X206.361 Y198.703 E7.78341
G1 X205.472 Y199.001 E7.81459
G1 X204.542 Y199.225 E7.84641
G1 X203.45 Y199.438 E7.88341
G1 X203.321 Y199.473 E7.88786
G1 X202.721 Y199.598 E7.90824
G1 X202.354 Y199.658 E7.92061
G1 X201.225 Y199.882 E7.9589
G1 X200.298 Y200.025 E7.99009
G1 X199.362 Y200.089 E8.0213
G1 X198.769 Y200.087 E8.04102
G1 X195.786 Y200.037 E8.14025
G1 X193.235 Y200.071 E8.2251
G1 X192.641 Y200.089 E8.24487
G1 X191.956 Y200.097 E8.26765
G1 X190.191 Y200.095 E8.32636
G1 X189.511 Y200.084 E8.34898
G1 X188.244 Y200.096 E8.39112
G1 X187.361 Y200.091 E8.42049
G1 X186.578 Y200.097 E8.44653
G1 X184.057 Y200.089 E8.53038
G1 X183.195 Y200.097 E8.55905
G1 X181.791 Y200.089 E8.60575
G1 X180.55 Y200.098 E8.64703
G1 X178.723 Y200.083 E8.7078
G1 X175.224 Y200.097 E8.82417
G1 X173.725 Y200.087 E8.87403
G1 X172.453 Y200.097 E8.91634
G1 X170.216 Y200.086 E8.99074
G1 X168.131 Y200.096 E9.06009
G1 X166.895 Y200.089 E9.1012
G1 X164.744 Y200.098 E9.17275
G1 X162.503 Y200.086 E9.24728
G1 X161.51 Y200.096 E9.28031
G1 X159.555 Y200.09 E9.34534
G1 X158.847 Y200.097 E9.36889
G1 X157.042 Y200.088 E9.42892
G1 X155.64 Y200.061 E9.47556
G1 X152.435 Y200.092 E9.58216
G1 X151.148 Y200.074 E9.62497
G1 X148.494 Y200.065 E9.71325
G1 X146.821 Y200.092 E9.7689
G1 X144.411 Y200.062 E9.84906
G1 X143.116 Y200.087 E9.89214
G1 X142.735 Y200.078 E9.90482
G1 X141.34 Y200.092 E9.95122
G1 X140.344 Y200.076 E9.98435
G1 X137.504 Y200.075 E10.07881
G1 X136.105 Y200.096 E10.12534
G1 X133.995 Y200.095 E10.19552
G1 X133.481 Y200.087 E10.21262
G1 X132.442 Y200.097 E10.24718
G1 X131.186 Y200.091 E10.28895
G1 X130.115 Y200.098 E10.32458
G1 X128.348 Y200.088 E10.38335
G1 X127.296 Y200.097 E10.41834
G1 X125.76 Y200.09 E10.46943
G1 X124.6 Y200.098 E10.50801
G1 X122.472 Y200.084 E10.57879
G1 X121.505 Y200.094 E10.61095
G1 X119.185 Y200.098 E10.68812
G1 X117.568 Y200.088 E10.7419
G1 X116.23 Y200.097 E10.7864
G1 X114.128 Y200.086 E10.85632
G1 X112.013 Y200.096 E10.92666
G1 X110.957 Y200.089 E10.96179
G1 X107.74 Y200.096 E11.06878
G1 X106.267 Y200.087 E11.11778
G1 X104.947 Y200.061 E11.16169
G1 X101.732 Y200.092 E11.26863
G1 X100.684 Y200.078 E11.30349
G1 X97.682 Y200.073 E11.40333
G1 X96.364 Y200.092 E11.44717
G1 X94.541 Y200.065 E11.50781
G1 X91.923 Y200.065 E11.59489
G1 X91.091 Y200.085 E11.62257
G1 X90.392 Y200.092 E11.64582
G1 X89.455 Y200.062 E11.677
G1 X88.523 Y199.952 E11.70821
G1 X87.975 Y199.848 E11.72677
G1 X86.343 Y199.498 E11.78228
G1 X85.359 Y199.239 E11.81612
G1 X84.494 Y198.96 E11.84635
G1 X83.906 Y198.752 E11.8671
G1 X83.036 Y198.402 E11.89829
G1 X81.915 Y197.814 E11.94039
G1 X81.442 Y197.527 E11.95879
G1 X80.823 Y197.133 E11.9832
G1 X80.122 Y196.672 E12.0111
G1 X79.385 Y196.141 E12.04131
G1 X78.78 Y195.656 E12.0671
G1 X77.689 Y194.731 E12.11468
G1 X77.001 Y194.095 E12.14584
G1 X76.368 Y193.402 E12.17706
G1 X75.798 Y192.658 E12.20823
G1 X75.292 Y191.868 E12.23943
G1 X74.984 Y191.3 E12.26092
G1 X74.385 Y190.114 E12.30512
G1 X73.914 Y189.042 E12.34406
G1 X73.49 Y187.907 E12.38436
G1 X73.241 Y187.185 E12.40976
G1 X73.029 Y186.499 E12.43364
G1 X72.789 Y185.621 E12.46392
G1 X72.533 Y184.618 E12.49834
G1 X72.341 Y183.7 E12.52954
G1 X72.228 Y182.769 E12.56073
G1 X72.197 Y182.132 E12.58194
G1 X72.165 Y180.528 E12.6353
G1 X72.161 Y179.178 E12.6802
G1 X72.199 Y174.588 E12.83287
G1 X72.192 Y172.861 E12.89031
G1 X72.204 Y171.611 E12.93189
G1 X72.196 Y171.106 E12.94869
G1 X72.194 Y168.76 E13.02672
G1 X72.21 Y166.919 E13.08795
G1 X72.196 Y165.675 E13.12933
G1 X72.215 Y164.348 E13.17347
G1 X72.205 Y160.56 E13.29946
G1 X72.195 Y159.924 E13.32062
G1 X72.202 Y158.946 E13.35315
G1 X72.224 Y157.876 E13.38874
G1 X72.202 Y156.185 E13.44499
G1 X72.195 Y154.762 E13.49232
G1 X72.228 Y151.642 E13.5961
G1 X72.198 Y150.037 E13.64949
G1 X72.195 Y149.358 E13.67207
G1 X72.224 Y146.365 E13.77162
G1 X72.209 Y145.667 E13.79485
G1 X72.191 Y143.665 E13.86143
G1 X72.198 Y142.744 E13.89207
G1 X72.194 Y140.532 E13.96564
G1 X72.202 Y139.833 E13.98889
G1 X72.193 Y138.939 E14.01863
G1 X72.194 Y136.328 E14.10547
G1 X72.186 Y135.095 E14.14648
G1 X72.202 Y132.744 E14.22468
G1 X72.195 Y130.84 E14.288
G1 X72.212 Y129.762 E14.32386
G1 X72.276 Y127.641 E14.39444
G1 X72.344 Y126.706 E14.42562
G1 X72.492 Y125.78 E14.45681
G1 X72.718 Y124.869 E14.48803
G1 X72.968 Y124.121 E14.51426
G1 X73.68 Y122.216 E14.5819
G1 X74.188 Y120.889 E14.62916
G1 X74.56 Y120.029 E14.66032
G1 X75.005 Y119.203 E14.69153
G1 X75.518 Y118.417 E14.72275
G1 X76.096 Y117.679 E14.75393
G1 X76.735 Y116.992 E14.78513
G1 X77.393 Y116.394 E14.81471
G1 X78.812 Y115.204 E14.8763
G1 X79.789 Y114.472 E14.91691
G0 F6000 X80.011 Y114.805
G1 F1200 X81.378 Y113.896 E14.97151
G1 X82.18 Y113.384 E15.00315
G1 X82.977 Y112.925 E15.03374
G1 X83.757 Y112.559 E15.0624
G1 X84.259 Y112.348 E15.08051
G1 X85.348 Y111.908 E15.11958
G1 X86.216 Y111.601 E15.1502
G1 X87.107 Y111.37 E15.18081
G1 X88.015 Y111.218 E15.21143
G1 X88.933 Y111.145 E15.24206
G1 X89.67 Y111.144 E15.26658
G1 X90.47 Y111.171 E15.2932
G1 X92.956 Y111.223 E15.3759
G1 X93.837 Y111.217 E15.40521
G1 X96.806 Y111.234 E15.50396
G1 X97.857 Y111.222 E15.53891
G1 X102.061 Y111.214 E15.67874
G1 X105.738 Y111.1 E15.8011
G1 X106.413 Y111.101 E15.82355
G1 X108.428 Y111.173 E15.89061
G1 X110.451 Y111.212 E15.95791
G1 X111.582 Y111.221 E15.99553
G1 X112.375 Y111.217 E16.0219
G1 X115.162 Y111.236 E16.1146
G1 X117.603 Y111.221 E16.19579
G1 X122.761 Y111.223 E16.36734
G1 X124.2 Y111.215 E16.41521
G1 X125.422 Y111.224 E16.45585
G1 X126.596 Y111.217 E16.4949
G1 X128.522 Y111.23 E16.55896
G1 X130.349 Y111.221 E16.61973
G1 X130.857 Y111.226 E16.63662
G1 X133.828 Y111.215 E16.73544
G1 X134.789 Y111.202 E16.76741
G1 X136.375 Y111.218 E16.82016
G1 X138.328 Y111.226 E16.88512
G1 X139.185 Y111.218 E16.91362
G1 X141.621 Y111.228 E16.99465
G1 X142.911 Y111.218 E17.03755
G1 X143.726 Y111.224 E17.06466
G1 X144.816 Y111.218 E17.10091
G1 X147.404 Y111.234 E17.18699
G1 X148.682 Y111.221 E17.2295
G1 X150.884 Y111.227 E17.30274
G1 X152.604 Y111.217 E17.35995
G1 X156.702 Y111.096 E17.49631
G1 X159.545 Y111.076 E17.59087
G1 X162.052 Y110.986 E17.67431
G1 X164.569 Y110.823 E17.7582
G1 X167.11 Y110.588 E17.84307
G1 X169.579 Y110.287 E17.9258
G1 X172.117 Y109.906 E18.01116
G1 X174.616 Y109.458 E18.0956
G1 X177.062 Y108.947 E18.17871
G1 X179.522 Y108.362 E18.26281
G1 X181.941 Y107.712 E18.34612
G1 X184.417 Y106.971 E18.43208
G1 X186.79 Y106.188 E18.5152
G1 X189.188 Y105.32 E18.60002
G1 X191.549 Y104.389 E18.68443
G1 X192.094 Y104.164 E18.70404
G1 X192.959 Y103.849 E18.73466
G1 X193.848 Y103.61 E18.76528
G1 X194.755 Y103.45 E18.79591
G1 X195.672 Y103.369 E18.82653
G1 X196.593 Y103.367 E18.85716
G1 X197.54 Y103.45 E18.88878
G1 X200.385 Y103.827 E18.98423
G1 X201.292 Y103.987 E19.01486
G1 X202.181 Y104.226 E19.04548
G1 X203.046 Y104.541 E19.0761
G1 X203.881 Y104.929 E19.10673
G1 X204.679 Y105.389 E19.13736
G1 X205.164 Y105.716 E19.15682
G1 X206.142 Y106.42 E19.1969
G1 X206.749 Y106.878 E19.22219
G1 X207.593 Y107.587 E19.25885
G1 X208.363 Y108.305 E19.29387
G1 X209.146 Y109.053 E19.32988
G1 X209.55 Y109.461 E19.34898
G1 X209.972 Y109.911 E19.3695
G1 X211.783 Y111.791 E19.45632
G1 X213.616 Y113.589 E19.54172
G1 X214.956 Y114.85 E19.60292
G1 X215.705 Y115.596 E19.63808
G1 X216.299 Y116.219 E19.66671
G1 X217.642 Y117.666 E19.73237
G1 X220.414 Y120.455 E19.86316
G1 X220.672 Y120.703 E19.87506
G1 X221.307 Y121.37 E19.90569
G1 X221.882 Y122.089 E19.93631
G1 X222.392 Y122.856 E19.96695
G1 X222.833 Y123.664 E19.99756
G1 X223.34 Y124.881 E20.04141
G1 X223.547 Y125.498 E20.06306
G1 X223.692 Y125.968 E20.07942
G1 X223.925 Y126.859 E20.11005
G1 X224.08 Y127.766 E20.14065
G1 X224.155 Y128.684 E20.17129
G1 X224.151 Y129.605 E20.20192
G1 X224.066 Y130.521 E20.23252
G1 X223.903 Y131.427 E20.26314
G1 X223.703 Y132.181 E20.28908
G1 X223.436 Y133.036 E20.31887
G1 X223.253 Y133.561 E20.33736
G1 X222.954 Y134.36 E20.36574
G1 X222.473 Y135.593 E20.40976
G1 X221.627 Y137.959 E20.49333
G1 X220.848 Y140.349 E20.57694
G1 X220.126 Y142.796 E20.6618
G1 X219.486 Y145.215 E20.74502
G1 X218.905 Y147.694 E20.82971
G1 X218.389 Y150.217 E20.91536
G1 X217.965 Y152.634 E20.99698
G1 X217.592 Y155.184 E21.08269
G1 X217.299 Y157.671 E21.16598
G1 X217.076 Y160.172 E21.2495
G1 X216.92 Y162.745 E21.33523
G1 X216.839 Y165.235 E21.41809
G1 X216.822 Y167.053 E21.47856
G1 X216.831 Y168.95 E21.54166
G1 X216.823 Y169.993 E21.57635
G1 X216.831 Y172.576 E21.66226
G1 X216.824 Y173.371 E21.6887
G1 X216.837 Y175.159 E21.74817
G1 X216.83 Y176.307 E21.78636
G1 X216.841 Y177.72 E21.83335
G1 X216.825 Y178.172 E21.8484
G1 X216.826 Y178.724 E21.86676
G1 X216.877 Y181.661 E21.96446
G1 X216.853 Y182.581 E21.99507
G1 X216.75 Y183.496 E22.02569
G1 X216.477 Y184.735 E22.06789
G1 X216.112 Y186.02 E22.11232
G1 X215.783 Y187.114 E22.15032
G1 X215.492 Y188.014 E22.18178
G1 X215.033 Y189.184 E22.22358
G1 X214.644 Y190.024 E22.25437
G1 X214.265 Y190.791 E22.28282
G1 X213.817 Y191.596 E22.31346
G1 X213.301 Y192.358 E22.34407
G1 X212.721 Y193.073 E22.37469
G1 X212.331 Y193.491 E22.39371
G1 X209.975 Y195.877 E22.50523
G1 X209.3 Y196.503 E22.53585
G1 X208.573 Y197.069 E22.5665
G1 X207.801 Y197.569 E22.59709
G1 X206.987 Y198 E22.62772
G1 X206.139 Y198.359 E22.65835
G1 X205.264 Y198.644 E22.68896
G1 X204.465 Y198.832 E22.71626
G1 X203.406 Y199.039 E22.75215
G1 X203.24 Y199.081 E22.75784
G1 X202.64 Y199.206 E22.77823
G1 X202.295 Y199.263 E22.78986
G1 X201.147 Y199.49 E22.82878
G1 X200.237 Y199.629 E22.8594
G1 X199.318 Y199.689 E22.89003
G1 X198.781 Y199.688 E22.90789
G1 X195.787 Y199.637 E23.00749
G1 X193.261 Y199.67 E23.09151
G1 X192.865 Y199.684 E23.10469
G1 X191.956 Y199.697 E23.13492
G1 X190.191 Y199.695 E23.19363
G1 X189.552 Y199.685 E23.21488
G1 X188.401 Y199.696 E23.25317
G1 X187.359 Y199.691 E23.28783
G1 X186.579 Y199.697 E23.31377
G1 X184.054 Y199.689 E23.39775
G1 X183.197 Y199.697 E23.42626
G1 X181.79 Y199.689 E23.47305
G1 X180.553 Y199.698 E23.5142
G1 X178.725 Y199.683 E23.575
G1 X175.227 Y199.697 E23.69134
G1 X173.724 Y199.687 E23.74134
G1 X172.309 Y199.697 E23.7884
G1 X170.216 Y199.686 E23.85801
G1 X168.133 Y199.696 E23.9273
G1 X166.895 Y199.689 E23.96847
G1 X164.746 Y199.698 E24.03995
G1 X162.5 Y199.686 E24.11465
G1 X161.511 Y199.696 E24.14755
