;FLAVOR:Marlin
;TIME:5382
;Filament used: 2.42894m
;Layer height: 0.2
;MINX:127.913
;MINY:119.13
;MINZ:0.32
;MAXX:172.086
;MAXY:178.555
;MAXZ:69.12
;Generated with Cura_SteamEngine 5.2.1
M140 S60
M105
M190 S60
M104 S200
M105
M109 S200
M82 ;absolute extrusion mode
; Ender 3 Max Custom Start G-code
G92 E0 ; Reset Extruder
G28 ; Home all axes
G1 Z2.0 F3000 ; Move Z Axis up little to prevent scratching of Heat Bed
G1 X0.1 Y20 Z0.3 F5000.0 ; Move to start position
G1 X0.1 Y200.0 Z0.3 F1500.0 E15 ; Draw the first line
G1 X0.4 Y200.0 Z0.3 F5000.0 ; Move to side a little
G1 X0.4 Y20 Z0.3 F1500.0 E30 ; Draw the second line
G92 E0 ; Reset Extruder
G1 Z2.0 F3000 ; Move Z Axis up little to prevent scratching of Heat Bed
G1 X5 Y20 Z0.3 F5000.0 ; Move over to prevent blob squish
G92 E0
G92 E0
G1 F1500 E-6.5
;LAYER_COUNT:346
;LAYER:0
M107
G0 F6000 X133.462 Y123.006 Z0.32
;TYPE:SKIRT
G1 F1500 E0
G1 F900 X134.116 Y122.354 E0.05406
G1 X134.824 Y121.761 E0.10812
G1 X135.58 Y121.232 E0.16213
G1 X136.379 Y120.77 E0.21616
G1 X137.216 Y120.379 E0.27024
G1 X138.083 Y120.062 E0.32428
G1 X138.974 Y119.821 E0.37831
G1 X139.883 Y119.659 E0.43236
G1 X140.591 Y119.587 E0.47402
G1 X142.312 Y119.48 E0.57496
G1 X144.596 Y119.299 E0.70907
G1 X145.952 Y119.174 E0.78879
G1 X147.154 Y119.131 E0.8592
G1 X147.98 Y119.149 E0.90756
G1 X150.591 Y119.168 E1.06041
G1 X152.898 Y119.13 E1.19547
G1 X154.127 Y119.181 E1.26748
G1 X154.735 Y119.241 E1.30324
G1 X157.348 Y119.463 E1.45675
G1 X159.333 Y119.582 E1.57316
G1 X160.251 Y119.677 E1.62718
G1 X161.158 Y119.851 E1.68124
G1 X162.046 Y120.103 E1.73528
G1 X162.909 Y120.431 E1.78932
G1 X163.741 Y120.833 E1.84341
G1 X164.534 Y121.305 E1.89743
G1 X165.284 Y121.843 E1.95146
G1 X165.984 Y122.445 E2.00551
G1 X166.63 Y123.105 E2.05957
G1 X167.216 Y123.818 E2.1136
G1 X167.656 Y124.45 E2.15868
G1 X168.021 Y125.019 E2.19825
G1 X170.205 Y128.541 E2.44084
G1 X170.565 Y129.14 E2.48175
G1 X171.006 Y129.951 E2.53579
G1 X171.375 Y130.797 E2.58982
G1 X171.669 Y131.672 E2.64385
G1 X171.887 Y132.57 E2.69795
G1 X172.026 Y133.482 E2.75195
G1 X172.086 Y134.404 E2.80603
G1 X172.065 Y135.327 E2.86008
G1 X171.965 Y136.244 E2.91408
G1 X171.776 Y137.216 E2.97204
G1 X171.492 Y138.213 E3.03272
G1 X171.246 Y138.88 E3.07434
G1 X171.029 Y139.4 E3.10732
G1 X170.805 Y139.904 E3.13961
G1 X169.769 Y142.311 E3.29301
G1 X168.831 Y144.672 E3.44172
G1 X167.981 Y147.002 E3.58691
G1 X167.167 Y149.447 E3.73776
G1 X166.427 Y151.896 E3.88752
G1 X165.792 Y154.208 E4.02787
G1 X165.513 Y155.088 E4.08191
G1 X165.04 Y156.187 E4.15195
G1 X164.702 Y156.865 E4.1963
G1 X162.535 Y161.051 E4.47222
G1 X162.197 Y161.682 E4.51413
G1 X161.726 Y162.477 E4.56822
G1 X161.188 Y163.227 E4.62225
G1 X160.588 Y163.928 E4.67626
G1 X159.929 Y164.575 E4.73032
G1 X159.216 Y165.162 E4.78438
G1 X158.455 Y165.685 E4.83844
G1 X157.652 Y166.141 E4.89249
G1 X156.813 Y166.525 E4.94651
G1 X155.943 Y166.835 E5.00057
G1 X155.05 Y167.069 E5.05461
G1 X154.14 Y167.224 E5.10865
G1 X153.22 Y167.301 E5.16269
G1 X152.676 Y167.308 E5.19454
G1 X149.655 Y167.273 E5.37139
G1 X147.37 Y167.309 E5.50517
G1 X146.447 Y167.283 E5.55922
G1 X145.53 Y167.178 E5.61325
G1 X144.625 Y166.994 E5.66731
G1 X143.74 Y166.732 E5.72134
G1 X142.881 Y166.395 E5.77535
G1 X142.054 Y165.984 E5.82941
G1 X141.265 Y165.504 E5.88348
G1 X140.521 Y164.957 E5.93753
G1 X139.828 Y164.348 E5.99154
G1 X139.189 Y163.681 E6.04561
G1 X138.611 Y162.961 E6.09966
G1 X138.097 Y162.194 E6.1537
G1 X137.81 Y161.692 E6.18755
G1 X137.379 Y160.888 E6.24095
G1 X135.359 Y156.988 E6.49806
G1 X134.964 Y156.199 E6.54971
G1 X134.588 Y155.356 E6.60374
G1 X134.217 Y154.239 E6.67264
G1 X133.921 Y153.151 E6.73864
G1 X133.18 Y150.571 E6.89578
G1 X132.412 Y148.159 E7.04396
G1 X131.575 Y145.761 E7.19263
G1 X130.702 Y143.477 E7.33577
G1 X129.358 Y140.286 E7.53846
G1 X128.862 Y139.137 E7.61171
G1 X128.533 Y138.274 E7.66578
G1 X128.359 Y137.694 E7.70123
G1 X128.282 Y137.409 E7.71851
G1 X128.08 Y136.508 E7.77256
G1 X127.957 Y135.594 E7.82655
G1 X127.913 Y134.671 E7.88064
G1 X127.949 Y133.749 E7.93465
G1 X128.065 Y132.833 E7.9887
G1 X128.26 Y131.93 E8.04278
G1 X128.532 Y131.048 E8.09681
G1 X128.88 Y130.193 E8.15084
G1 X129.433 Y129.142 E8.22036
G1 X129.825 Y128.489 E8.26495
G1 X131.968 Y125.038 E8.50274
G1 X132.335 Y124.466 E8.54253
G1 X132.351 Y124.443 E8.54417
G0 F810 X132.867 Y123.712
G0 X133.462 Y123.006
G0 F6000 X133.811 Y123.276
G1 F900 X134.454 Y122.641 E8.59707
G1 X135.151 Y122.065 E8.65
G1 X135.896 Y121.553 E8.70291
G1 X136.684 Y121.109 E8.75586
G1 X137.507 Y120.736 E8.80875
G1 X138.36 Y120.437 E8.86166
G1 X139.237 Y120.215 E8.91462
G1 X140.129 Y120.071 E8.96751
G1 X140.62 Y120.026 E8.99638
G1 X141.6 Y119.96 E9.05387
G1 X142.295 Y119.922 E9.09462
G1 X144.676 Y119.733 E9.23443
G1 X145.993 Y119.612 E9.31185
G1 X147.145 Y119.571 E9.37933
G1 X147.968 Y119.589 E9.42752
G1 X150.596 Y119.608 E9.58136
G1 X152.906 Y119.57 E9.7166
G1 X154.084 Y119.619 E9.78562
G1 X154.726 Y119.683 E9.82339
G1 X157.284 Y119.9 E9.97366
G1 X159.307 Y120.021 E10.0923
G1 X160.206 Y120.115 E10.14521
G1 X161.093 Y120.288 E10.19811
G1 X161.962 Y120.539 E10.25106
G1 X162.805 Y120.866 E10.30399
G1 X163.615 Y121.265 E10.35685
G1 X164.388 Y121.735 E10.4098
G1 X165.115 Y122.271 E10.46268
G1 X165.793 Y122.87 E10.51564
G1 X166.415 Y123.526 E10.56856
G1 X166.977 Y124.234 E10.62147
G1 X167.286 Y124.688 E10.65362
G1 X167.647 Y125.251 E10.69277
G1 X169.828 Y128.767 E10.93497
G1 X170.188 Y129.366 E10.97588
G1 X170.619 Y130.161 E11.02881
G1 X170.978 Y130.991 E11.08175
G1 X171.262 Y131.849 E11.13466
G1 X171.469 Y132.729 E11.18758
G1 X171.598 Y133.623 E11.24045
G1 X171.647 Y134.526 E11.29339
G1 X171.617 Y135.43 E11.34634
G1 X171.506 Y136.327 E11.39924
G1 X171.345 Y137.125 E11.4469
G1 X171.069 Y138.093 E11.50582
G1 X170.839 Y138.714 E11.54459
G1 X170.627 Y139.222 E11.57681
G1 X170.394 Y139.747 E11.61043
G1 X169.357 Y142.156 E11.76396
G1 X168.427 Y144.497 E11.91142
G1 X167.557 Y146.883 E12.06008
G1 X166.752 Y149.298 E12.2091
G1 X166.003 Y151.777 E12.36069
G1 X165.367 Y154.094 E12.50134
G1 X165.093 Y154.955 E12.55423
G1 X164.646 Y155.991 E12.62028
G1 X164.238 Y156.808 E12.67374
G1 X162.214 Y160.717 E12.93142
G1 X161.809 Y161.475 E12.98173
G1 X161.347 Y162.252 E13.03464
G1 X160.819 Y162.985 E13.08752
G1 X160.227 Y163.669 E13.14048
G1 X159.578 Y164.298 E13.19338
G1 X158.876 Y164.867 E13.24628
G1 X158.126 Y165.372 E13.29921
G1 X157.334 Y165.808 E13.35213
G1 X156.507 Y166.173 E13.40505
G1 X155.651 Y166.463 E13.45796
G1 X154.772 Y166.677 E13.51091
G1 X153.879 Y166.812 E13.56378
G1 X152.681 Y166.868 E13.63399
G1 X149.653 Y166.833 E13.81125
G1 X147.363 Y166.869 E13.94532
G1 X146.46 Y166.843 E13.9982
G1 X145.562 Y166.738 E14.05113
G1 X144.677 Y166.553 E14.10405
G1 X143.812 Y166.291 E14.15696
G1 X142.973 Y165.954 E14.20989
G1 X142.167 Y165.544 E14.26282
G1 X141.401 Y165.064 E14.31574
G1 X140.68 Y164.519 E14.36864
G1 X140.01 Y163.911 E14.42161
G1 X139.397 Y163.248 E14.47446
G1 X138.844 Y162.532 E14.52742
G1 X138.198 Y161.484 E14.59949
G1 X137.77 Y160.685 E14.65255
G1 X135.681 Y156.65 E14.91852
G1 X135.358 Y156.003 E14.96086
G1 X134.991 Y155.177 E15.01377
G1 X134.641 Y154.124 E15.07872
G1 X134.32 Y152.946 E15.15019
G1 X133.607 Y150.465 E15.30131
G1 X132.819 Y147.988 E15.45346
G1 X131.995 Y145.629 E15.59974
G1 X131.105 Y143.297 E15.74585
G1 X129.798 Y140.196 E15.94284
G1 X129.266 Y138.963 E16.02145
G1 X128.945 Y138.118 E16.07436
G1 X128.784 Y137.58 E16.10724
G1 X128.707 Y137.295 E16.12452
G1 X128.51 Y136.412 E16.17748
G1 X128.392 Y135.516 E16.23038
G1 X128.353 Y134.613 E16.28329
G1 X128.394 Y133.71 E16.3362
G1 X128.515 Y132.814 E16.38913
G1 X128.715 Y131.932 E16.44207
G1 X128.992 Y131.072 E16.49496
G1 X129.344 Y130.239 E16.5479
G1 X129.811 Y129.369 E16.6057
G1 X130.282 Y128.585 E16.65924
G1 X132.257 Y125.404 E16.87842
G1 X132.699 Y124.714 E16.92638
G0 F810 X132.705 Y124.704
G0 X133.227 Y123.966
G0 X133.811 Y123.276
G1 F1500 E10.42638
;MESH:chocobo.stl
G0 F6000 X140.394 Y130.415
G0 X141.323 Y130.992
G0 X146.863 Y154.169
G1 F1500 E16.92638
G0 F6000 X146.962 Y154.775
;TYPE:WALL-INNER
G1 F900 X147.555 Y150.895 E17.15615
G1 X147.494 Y150.599 E17.17384
G1 X147.528 Y145.885 E17.44979
G1 X147.571 Y145.663 E17.46303
G1 X148.783 Y134.968 E18.0931
G1 X148.779 Y134.929 E18.0954
G1 X146.897 Y131.196 E18.34012
G1 X145.058 Y134.537 E18.56336
G1 X145.021 Y134.76 E18.5766
G1 X144.922 Y134.962 E18.58976
G1 X144.776 Y135.108 E18.60185
G1 X144.615 Y135.193 E18.61251
G1 X144.285 Y135.236 E18.63199
G1 X144.001 Y135.144 E18.64946
G1 X143.827 Y135.006 E18.66246
G1 X143.654 Y134.699 E18.68309
G1 X141.337 Y131.409 E18.91865
G1 X139.28 Y134.723 E19.14697
G1 X141.795 Y140.341 E19.50729
G1 X143.968 Y145.838 E19.8533
G1 X144.014 Y146.119 E19.86997
G1 X144.023 Y146.321 E19.88181
G1 X145.118 Y151.213 E20.17526
G1 X146.127 Y153.161 E20.30368
G0 F810 X146.962 Y154.775
G0 F6000 X146.863 Y154.169
G0 X147.074 Y155.446
G0 X147.193 Y156.177
;TYPE:WALL-OUTER
G1 F900 X148.002 Y150.882 E20.61724
G1 X147.935 Y150.566 E20.63614
G1 X147.967 Y145.915 E20.90841
G1 X148.005 Y145.737 E20.91907
G1 X149.226 Y134.993 E21.55204
G1 X149.221 Y134.93 E21.55574
G1 X149.21 Y134.806 E21.56303
G1 X146.914 Y130.252 E21.86158
G1 X144.632 Y134.397 E22.13856
G1 X144.566 Y134.703 E22.15688
G1 X144.463 Y134.78 E22.16441
G1 X144.322 Y134.798 E22.17273
G1 X144.158 Y134.702 E22.18385
G1 X144.028 Y134.466 E22.19963
G1 X141.314 Y130.612 E22.47556
G1 X138.782 Y134.689 E22.7565
G1 X141.386 Y140.503 E23.12941
G1 X143.552 Y145.969 E23.47359
G1 X143.536 Y146.062 E23.47911
G1 X143.577 Y146.345 E23.49585
G1 X144.701 Y151.365 E23.79699
G1 X146.357 Y154.563 E24.0078
G0 F810 X147.193 Y156.177
G0 F6000 X147.074 Y155.446
G0 X146.752 Y153.508
;TYPE:SKIN
G1 F900 X147.152 Y150.905 E24.16196
G1 X147.099 Y150.65 E24.17721
G1 X147.135 Y145.831 E24.45931
G1 X147.179 Y145.598 E24.47319
G1 X148.331 Y135.466 E25.07012
G1 X148.382 Y135.021 E25.09634
G1 X146.881 Y132.047 E25.29134
G1 X145.441 Y134.666 E25.4663
G1 X145.416 Y134.823 E25.47561
G1 X145.247 Y135.192 E25.49937
G1 X145.01 Y135.431 E25.51907
G1 X144.743 Y135.572 E25.53674
G1 X144.24 Y135.634 E25.56641
G1 X143.807 Y135.493 E25.59307
G1 X143.523 Y135.271 E25.61417
G1 X143.316 Y134.908 E25.63863
G1 X141.36 Y132.126 E25.83771
G1 X139.727 Y134.751 E26.01868
G1 X142.15 Y140.16 E26.36562
G1 X144.35 Y145.717 E26.71548
G1 X144.408 Y146.061 E26.7359
G1 X144.419 Y146.275 E26.74845
G1 X145.492 Y151.073 E27.03625
G1 X145.917 Y151.893 E27.09032
G0 F810 X146.752 Y153.508
G0 F6000 X145.907 Y150.917
G1 F900 X146.521 Y152.106 E27.16865
G1 X146.603 Y151.581 E27.19975
G1 X145.898 Y150.876 E27.25812
G1 X145.719 Y150.074 E27.30622
G1 X146.687 Y151.042 E27.38636
G1 X146.706 Y150.914 E27.39393
G1 X146.656 Y150.681 E27.40788
G1 X146.658 Y150.392 E27.4248
G1 X145.54 Y149.273 E27.51739
G1 X145.36 Y148.471 E27.56551
G1 X146.663 Y149.775 E27.67342
G1 X146.668 Y149.157 E27.7096
G1 X145.181 Y147.67 E27.8327
G1 X145.002 Y146.868 E27.8808
G1 X146.672 Y148.539 E28.01909
G1 X146.676 Y147.921 E28.05527
G1 X144.864 Y146.108 E28.20532
G1 X144.777 Y145.61 E28.23491
G1 X144.64 Y145.262 E28.2568
G1 X146.681 Y147.303 E28.42577
G1 X146.685 Y146.685 E28.46195
G1 X144.232 Y144.232 E28.66502
G1 X143.825 Y143.203 E28.72979
G1 X146.69 Y146.067 E28.96693
G1 X146.691 Y145.848 E28.97975
G1 X146.746 Y145.502 E29.00026
G1 X143.418 Y142.174 E29.27577
G1 X143.011 Y141.144 E29.3406
G1 X146.81 Y144.943 E29.6551
G1 X146.873 Y144.384 E29.68803
G1 X142.617 Y140.128 E30.04036
G1 X142.112 Y139 E30.11271
G1 X146.937 Y143.826 E30.51219
G1 X147.001 Y143.267 E30.54512
G1 X141.607 Y137.873 E30.99167
G1 X141.102 Y136.746 E31.06396
G1 X147.064 Y142.708 E31.55752
G1 X147.128 Y142.15 E31.5904
G1 X140.597 Y135.619 E32.13107
G1 X140.224 Y134.785 E32.18455
G1 X140.285 Y134.685 E32.19141
G1 X147.191 Y141.591 E32.76312
G1 X147.254 Y141.032 E32.79605
G1 X140.524 Y134.301 E33.35323
G1 X140.762 Y133.917 E33.37968
G1 X147.318 Y140.473 E33.92242
G1 X147.382 Y139.915 E33.9553
G1 X141 Y133.533 E34.48363
G1 X141.239 Y133.15 E34.51006
G1 X142.258 Y134.169 E34.59442
G1 X142.477 Y134.48 E34.61668
G0 F810 X142.943 Y135.142
G0 X143.187 Y135.567
G0 X143.596 Y135.887
G0 F6000 X144.159 Y136.07
G1 F900 X147.445 Y139.356 E34.88871
G1 X147.509 Y138.797 E34.92165
G1 X144.729 Y136.018 E35.15175
G1 X144.88 Y135.997 E35.16067
G1 X145.176 Y135.842 E35.18023
G1 X147.573 Y138.239 E35.37867
G1 X147.636 Y137.68 E35.4116
G1 X145.508 Y135.552 E35.58777
G1 X145.612 Y135.448 E35.59638
G1 X145.742 Y135.164 E35.61466
G1 X147.699 Y137.121 E35.77667
G1 X147.763 Y136.562 E35.80961
G1 X145.915 Y134.714 E35.96259
G1 X146.135 Y134.312 E35.98942
G1 X147.827 Y136.004 E36.12949
G1 X147.89 Y135.445 E36.16242
G1 X146.356 Y133.911 E36.28941
G1 X146.576 Y133.509 E36.31624
G1 X147.686 Y134.618 E36.40809
G1 X147.648 Y134.543 E36.41301
G0 F810 X147.051 Y133.361
G0 X146.797 Y133.107
G0 X146.863 Y132.989
G0 F6000 X145.142 Y135.347
G0 X143.866 Y135.487
G0 X141.381 Y132.922
G1 F900 X141.239 Y133.15 E36.42873
G1 F1500 E29.92873
G0 F6000 X147.79 Y145.701
G0 X148.851 Y146.009
G0 X151.181 Y150.475
G0 X152.284 Y150.583
G0 X153.138 Y154.168
G1 F1500 E36.42873
G0 F6000 X153.039 Y154.774
;TYPE:WALL-INNER
G1 F900 X154.882 Y151.213 E36.66345
G1 X155.978 Y146.324 E36.95674
G1 X155.974 Y146.221 E36.96278
G1 X156.033 Y145.831 E36.98587
G1 X158.216 Y140.316 E37.33308
G1 X160.721 Y134.725 E37.69171
G1 X158.663 Y131.409 E37.92017
G1 X156.345 Y134.698 E38.15571
G1 X156.207 Y134.949 E38.17248
G1 X156.002 Y135.143 E38.189
G1 X155.716 Y135.236 E38.2066
G1 X155.385 Y135.193 E38.22614
G1 X155.225 Y135.108 E38.23675
G1 X155.078 Y134.961 E38.24892
G1 X154.979 Y134.76 E38.26203
G1 X154.941 Y134.539 E38.27516
G1 X153.103 Y131.196 E38.49848
G1 X151.212 Y134.946 E38.74433
G1 X152.429 Y145.661 E39.37559
G1 X152.475 Y145.869 E39.38806
G1 X152.505 Y150.599 E39.66495
G1 X152.446 Y150.894 E39.68256
G1 X152.765 Y152.977 E39.80592
G0 F810 X153.039 Y154.774
G0 F6000 X153.138 Y154.168
G0 X152.927 Y155.445
G0 X152.808 Y156.178
;TYPE:WALL-OUTER
G1 F900 X155.299 Y151.365 E40.12316
G1 X156.424 Y146.347 E40.42419
G1 X156.414 Y146.241 E40.43043
G1 X156.457 Y145.947 E40.44782
G1 X158.618 Y140.496 E40.79107
G1 X161.179 Y134.769 E41.15831
G1 X161.203 Y134.667 E41.16444
G1 X158.686 Y130.612 E41.44382
G1 X155.969 Y134.466 E41.71985
G1 X155.814 Y134.754 E41.739
G1 X155.678 Y134.798 E41.74737
G1 X155.537 Y134.78 E41.75569
G1 X155.434 Y134.703 E41.76322
G1 X155.367 Y134.399 E41.78144
G1 X153.086 Y130.252 E42.05849
G1 X150.79 Y134.806 E42.35704
G1 X150.775 Y134.997 E42.36826
G1 X151.995 Y145.736 E43.00094
G1 X152.035 Y145.93 E43.01253
G1 X152.064 Y150.568 E43.28404
G1 X151.999 Y150.882 E43.30281
G1 X152.534 Y154.381 E43.51001
G0 F810 X152.808 Y156.178
G0 F6000 X152.927 Y155.445
G0 X153.248 Y153.508
;TYPE:SKIN
G1 F900 X154.507 Y151.074 E43.67042
G1 X155.582 Y146.275 E43.95831
G1 X155.589 Y146.084 E43.9695
G1 X155.647 Y145.735 E43.99021
G1 X157.839 Y140.188 E44.33935
G1 X160.274 Y134.753 E44.68797
G1 X158.641 Y132.126 E44.86904
G1 X156.682 Y134.909 E45.06827
G1 X156.483 Y135.267 E45.09224
G1 X156.202 Y135.488 E45.11317
G1 X155.799 Y135.621 E45.13801
G1 X155.747 Y135.632 E45.14112
G1 X155.254 Y135.572 E45.1702
G1 X154.965 Y135.406 E45.18971
G1 X154.755 Y135.194 E45.20717
G1 X154.612 Y134.902 E45.22621
G1 X154.561 Y134.672 E45.24
G1 X153.119 Y132.048 E45.41527
G1 X151.62 Y135.02 E45.61012
G1 X152.822 Y145.596 E46.2332
G1 X152.866 Y145.835 E46.24743
G1 X152.9 Y150.653 E46.52947
G1 X152.849 Y150.904 E46.54446
G1 X152.973 Y151.711 E46.59226
G0 F810 X153.248 Y153.508
G0 F6000 X153.388 Y151.521
