;FLAVOR:Marlin
;TIME:5582
;Filament used: 2.25475m
;Layer height: 0.12
;MINX:89.273
;MINY:108.662
;MINZ:0.12
;MAXX:188.264
;MAXY:191.338
;MAXZ:3.24
;Generated with Cura_SteamEngine 5.2.1
M140 S60
M105
M190 S60
M104 S215
M105
M109 S215
M82 ;absolute extrusion mode
; Ender 3 Max Custom Start G-code
G92 E0 ; Reset Extruder
G28 ; Home all axes
G1 Z2.0 F3000 ; Move Z Axis up little to prevent scratching of Heat Bed
G1 X0.1 Y20 Z0.3 F5000.0 ; Move to start position
G1 X0.1 Y200.0 Z0.3 F1500.0 E15 ; Draw the first line
G1 X0.4 Y200.0 Z0.3 F5000.0 ; Move to side a little
G1 X0.4 Y20 Z0.3 F1500.0 E30 ; Draw the second line
G92 E0 ; Reset Extruder
G1 Z2.0 F3000 ; Move Z Axis up little to prevent scratching of Heat Bed
G1 X5 Y20 Z0.3 F5000.0 ; Move over to prevent blob squish
G92 E0
G92 E0
G1 F1500 E-6.5
;LAYER_COUNT:27
;LAYER:0
M107
G0 F6000 X95.813 Y138.589 Z0.12
;TYPE:SKIRT
G1 F1500 E0
G1 F1200 X96.595 Y138.103 E0.01837
G1 X97.123 Y137.805 E0.03047
G1 X99.367 Y136.494 E0.08234
G1 X101.465 Y135.189 E0.13164
G1 X103.592 Y133.78 E0.18256
G1 X105.646 Y132.334 E0.23269
G1 X107.663 Y130.828 E0.28292
G1 X109.644 Y129.258 E0.33336
G1 X111.554 Y127.656 E0.38311
G1 X113.463 Y125.959 E0.43408
G1 X115.225 Y124.309 E0.48226
G1 X115.936 Y123.698 E0.50097
G1 X116.697 Y123.149 E0.51969
G1 X117.663 Y122.582 E0.54204
G1 X118.172 Y122.323 E0.55344
G1 X126.331 Y118.403 E0.73408
G1 X127.127 Y118.035 E0.75158
G1 X127.683 Y117.797 E0.76365
G1 X129.16 Y117.213 E0.79535
G1 X131.479 Y116.252 E0.84544
G1 X134.89 Y114.699 E0.92023
G1 X144.574 Y110.051 E1.1346
G1 X145.374 Y109.68 E1.15219
G1 X146.241 Y109.322 E1.17091
G1 X147.135 Y109.04 E1.18962
G1 X148.051 Y108.835 E1.20835
G1 X148.98 Y108.709 E1.22706
G1 X149.917 Y108.662 E1.24578
G1 X150.854 Y108.696 E1.26449
G1 X151.785 Y108.809 E1.28321
G1 X152.703 Y109.001 E1.30193
G1 X153.601 Y109.27 E1.32063
G1 X154.494 Y109.624 E1.3398
G1 X155.106 Y109.902 E1.35322
G1 X165.251 Y114.763 E1.57771
G1 X167.557 Y115.829 E1.62841
G1 X169.852 Y116.811 E1.67823
G1 X172.289 Y117.773 E1.73051
G1 X172.712 Y117.951 E1.73967
G1 X173.36 Y118.243 E1.75385
G1 X181.364 Y122.079 E1.93098
G1 X182.124 Y122.454 E1.94789
G1 X182.947 Y122.905 E1.96662
G1 X183.728 Y123.424 E1.98533
G1 X184.462 Y124.008 E2.00405
G1 X185.143 Y124.652 E2.02275
G1 X185.768 Y125.352 E2.04148
G1 X186.33 Y126.102 E2.06018
G1 X186.827 Y126.898 E2.07891
G1 X187.253 Y127.733 E2.09762
G1 X187.608 Y128.602 E2.11635
G1 X187.886 Y129.497 E2.13505
G1 X188.088 Y130.413 E2.15377
G1 X188.211 Y131.343 E2.17249
G1 X188.251 Y132.074 E2.1871
G1 X188.264 Y132.769 E2.20098
G1 X188.263 Y141.393 E2.37308
G1 X188.253 Y142.111 E2.38741
G1 X188.227 Y142.732 E2.39981
G1 X188.192 Y143.228 E2.40973
G1 X188.046 Y145.827 E2.46168
G1 X187.974 Y148.36 E2.51225
G1 X187.974 Y150.849 E2.56192
G1 X188.046 Y153.389 E2.61263
G1 X188.235 Y156.621 E2.67724
G1 X188.259 Y157.259 E2.68998
G1 X188.263 Y166.699 E2.87836
G1 X188.253 Y167.429 E2.89293
G1 X188.2 Y168.365 E2.91164
G1 X188.068 Y169.294 E2.93037
G1 X187.857 Y170.207 E2.94907
G1 X187.569 Y171.1 E2.96779
G1 X187.206 Y171.965 E2.98651
G1 X186.77 Y172.795 E3.00522
G1 X186.266 Y173.586 E3.02394
G1 X185.696 Y174.331 E3.04266
G1 X185.064 Y175.024 E3.06138
G1 X184.376 Y175.661 E3.08009
G1 X183.636 Y176.237 E3.0988
G1 X182.85 Y176.748 E3.11751
G1 X182.191 Y177.108 E3.1325
G1 X181.551 Y177.427 E3.14677
G1 X174.002 Y181.043 E3.31381
G1 X172.664 Y181.662 E3.34323
G1 X170.308 Y182.792 E3.39537
G1 X169.069 Y183.408 E3.42298
G1 X155.366 Y189.973 E3.72621
G1 X154.616 Y190.321 E3.7427
G1 X153.749 Y190.678 E3.76142
G1 X152.854 Y190.96 E3.78014
G1 X151.939 Y191.165 E3.79885
G1 X151.01 Y191.291 E3.81756
G1 X150.073 Y191.338 E3.83629
G1 X149.136 Y191.304 E3.855
G1 X148.205 Y191.191 E3.87371
G1 X147.287 Y190.999 E3.89243
G1 X146.388 Y190.729 E3.91116
G1 X145.573 Y190.409 E3.92863
G1 X144.969 Y190.138 E3.94185
G1 X131.137 Y183.52 E4.24785
G1 X129.801 Y182.857 E4.27761
G1 X127.37 Y181.692 E4.33141
G1 X126.529 Y181.311 E4.34983
G1 X118.623 Y177.531 E4.52471
G1 X117.845 Y177.145 E4.54204
G1 X117.024 Y176.692 E4.56075
G1 X116.244 Y176.17 E4.57948
G1 X115.313 Y175.406 E4.60352
G1 X114.615 Y174.766 E4.62242
G1 X112.648 Y173.008 E4.67506
G1 X110.723 Y171.384 E4.72532
G1 X108.738 Y169.801 E4.77599
G1 X106.735 Y168.296 E4.82599
G1 X104.698 Y166.855 E4.87578
G1 X102.583 Y165.444 E4.92652
G1 X100.459 Y164.115 E4.97652
G1 X98.277 Y162.833 E5.02702
G1 X96.657 Y161.932 E5.06402
G1 X95.858 Y161.441 E5.08273
G1 X95.213 Y160.972 E5.09864
G1 X94.755 Y160.606 E5.11034
G1 X93.77 Y159.783 E5.13596
G1 X93.088 Y159.195 E5.15393
G1 X92.405 Y158.552 E5.17265
G1 X91.78 Y157.853 E5.19136
G1 X91.216 Y157.103 E5.21009
G1 X90.719 Y156.308 E5.2288
G1 X90.29 Y155.474 E5.24751
G1 X89.935 Y154.606 E5.26623
G1 X89.655 Y153.711 E5.28494
G1 X89.452 Y152.795 E5.30367
G1 X89.328 Y151.866 E5.32237
G1 X89.283 Y150.978 E5.34011
G1 X89.273 Y149.909 E5.36145
G1 X89.284 Y148.963 E5.38033
G1 X89.338 Y148.026 E5.39906
G1 X89.471 Y147.098 E5.41777
G1 X89.683 Y146.184 E5.43649
G1 X89.972 Y145.292 E5.4552
G1 X90.336 Y144.428 E5.47391
G1 X90.772 Y143.598 E5.49262
G1 X91.277 Y142.807 E5.51135
G1 X91.848 Y142.063 E5.53007
G1 X92.48 Y141.37 E5.54878
G1 X93.083 Y140.807 E5.56525
G1 X93.567 Y140.388 E5.57802
G1 X94.546 Y139.568 E5.60351
G1 X95.061 Y139.149 E5.61676
G1 X95.813 Y138.589 E5.63547
G0 F6000 X96.052 Y138.91
G1 F1200 X96.791 Y138.452 E5.65282
G1 X97.293 Y138.169 E5.66432
G1 X99.559 Y136.845 E5.71669
G1 X101.717 Y135.502 E5.76741
G1 X103.797 Y134.125 E5.81719
G1 X105.893 Y132.649 E5.86835
G1 X107.922 Y131.133 E5.9189
G1 X109.865 Y129.594 E5.96836
G1 X111.831 Y127.945 E6.01957
G1 X113.72 Y126.266 E6.07001
G1 X115.498 Y124.601 E6.11862
G1 X116.197 Y124.002 E6.13699
G1 X116.945 Y123.465 E6.15536
G1 X117.847 Y122.937 E6.17622
G1 X118.346 Y122.684 E6.18738
G1 X126.661 Y118.69 E6.37147
G1 X127.295 Y118.398 E6.3854
G1 X127.83 Y118.169 E6.39701
G1 X129.279 Y117.596 E6.42811
G1 X131.654 Y116.612 E6.47941
G1 X135.07 Y115.057 E6.55431
G1 X144.747 Y110.412 E6.76852
G1 X145.542 Y110.043 E6.78601
G1 X146.393 Y109.693 E6.80437
G1 X147.272 Y109.418 E6.82275
G1 X148.171 Y109.22 E6.84112
G1 X149.084 Y109.101 E6.8595
G1 X150.004 Y109.062 E6.87787
G1 X150.924 Y109.103 E6.89625
G1 X151.836 Y109.223 E6.91461
G1 X152.735 Y109.422 E6.93298
G1 X153.614 Y109.699 E6.95138
G1 X154.33 Y109.989 E6.96679
G1 X154.933 Y110.263 E6.98001
G1 X165.06 Y115.116 E7.20411
G1 X167.381 Y116.188 E7.25513
G1 X169.714 Y117.187 E7.30578
G1 X172.142 Y118.145 E7.35787
G1 X172.55 Y118.316 E7.36669
G1 X173.187 Y118.604 E7.38065
G1 X181.191 Y122.44 E7.55777
G1 X181.947 Y122.813 E7.57459
G1 X182.754 Y123.256 E7.59297
G1 X183.52 Y123.767 E7.61134
G1 X184.238 Y124.343 E7.62971
G1 X184.904 Y124.979 E7.64809
G1 X185.511 Y125.671 E7.66646
G1 X186.057 Y126.412 E7.68483
G1 X186.536 Y127.198 E7.70319
G1 X186.945 Y128.023 E7.72157
G1 X187.281 Y128.88 E7.73994
G1 X187.542 Y129.763 E7.75831
G1 X187.725 Y130.666 E7.7767
G1 X187.828 Y131.58 E7.79506
G1 X187.851 Y132.083 E7.80511
G1 X187.864 Y132.769 E7.8188
G1 X187.863 Y141.388 E7.9908
G1 X187.853 Y142.106 E8.00513
G1 X187.828 Y142.704 E8.01707
G1 X187.79 Y143.246 E8.02792
G1 X187.646 Y145.794 E8.07884
G1 X187.574 Y148.349 E8.12985
G1 X187.574 Y150.86 E8.17996
G1 X187.646 Y153.393 E8.23053
G1 X187.836 Y156.645 E8.29554
G1 X187.864 Y157.593 E8.31447
G1 X187.863 Y166.693 E8.49607
G1 X187.853 Y167.423 E8.51064
G1 X187.8 Y168.342 E8.52901
G1 X187.668 Y169.253 E8.54738
G1 X187.458 Y170.15 E8.56576
G1 X187.17 Y171.024 E8.58412
G1 X186.807 Y171.871 E8.60251
G1 X186.373 Y172.682 E8.62087
G1 X185.87 Y173.453 E8.63924
G1 X185.301 Y174.177 E8.65762
G1 X184.672 Y174.85 E8.676
G1 X183.987 Y175.465 E8.69437
G1 X183.251 Y176.018 E8.71274
G1 X182.47 Y176.506 E8.73112
G1 X182.011 Y176.751 E8.7415
G1 X181.378 Y177.067 E8.75562
G1 X173.964 Y180.619 E8.91968
G1 X172.591 Y181.254 E8.94987
G1 X170.083 Y182.457 E9.00538
G1 X168.896 Y183.048 E9.03184
G1 X155.193 Y189.613 E9.33506
G1 X154.448 Y189.958 E9.35145
G1 X153.596 Y190.308 E9.36983
G1 X152.718 Y190.583 E9.38819
G1 X151.818 Y190.78 E9.40657
G1 X150.905 Y190.899 E9.42495
G1 X149.986 Y190.938 E9.4433
G1 X149.066 Y190.897 E9.46168
G1 X148.153 Y190.776 E9.48006
G1 X147.254 Y190.577 E9.49844
G1 X146.376 Y190.3 E9.51681
G1 X145.734 Y190.043 E9.53061
G1 X145.142 Y189.777 E9.54356
G1 X131.31 Y183.159 E9.84956
G1 X129.934 Y182.477 E9.88021
G1 X127.58 Y181.349 E9.9323
G1 X126.92 Y181.052 E9.94674
G1 X118.646 Y177.097 E10.12975
G1 X118.023 Y176.787 E10.14364
G1 X117.217 Y176.342 E10.16201
G1 X116.453 Y175.828 E10.18039
G1 X115.583 Y175.111 E10.20289
G1 X114.866 Y174.454 E10.2223
G1 X112.909 Y172.704 E10.27469
G1 X110.985 Y171.082 E10.32491
G1 X108.982 Y169.484 E10.37604
G1 X106.983 Y167.983 E10.42593
G1 X104.904 Y166.511 E10.47676
G1 X102.811 Y165.115 E10.52697
G1 X100.653 Y163.764 E10.57778
G1 X98.463 Y162.478 E10.62846
G1 X96.852 Y161.582 E10.66524
G1 X96.067 Y161.1 E10.68363
G1 X95.46 Y160.657 E10.69862
G1 X95.011 Y160.299 E10.71008
G1 X93.889 Y159.36 E10.73928
G1 X93.349 Y158.893 E10.75353
G1 X92.68 Y158.261 E10.77189
G1 X92.067 Y157.573 E10.79028
G1 X91.517 Y156.835 E10.80865
G1 X91.033 Y156.052 E10.82702
G1 X90.619 Y155.23 E10.84539
G1 X90.277 Y154.375 E10.86376
G1 X90.011 Y153.493 E10.88215
G1 X89.823 Y152.592 E10.90052
G1 X89.713 Y151.678 E10.91889
G1 X89.683 Y150.974 E10.93295
G1 X89.673 Y149.905 E10.95428
G1 X89.684 Y148.969 E10.97296
G1 X89.738 Y148.049 E10.99136
G1 X89.871 Y147.139 E11.00971
G1 X90.082 Y146.242 E11.0281
G1 X90.371 Y145.368 E11.04647
G1 X90.734 Y144.522 E11.06484
G1 X91.169 Y143.711 E11.0832
G1 X91.673 Y142.941 E11.10157
G1 X92.242 Y142.217 E11.11995
G1 X92.872 Y141.545 E11.13833
G1 X93.345 Y141.11 E11.15115
G1 X93.96 Y140.579 E11.16737
G1 X94.681 Y139.975 E11.18614
G1 X95.313 Y139.46 E11.20241
G1 X96.052 Y138.91 E11.22079
G0 F6000 X96.291 Y139.231
G1 F1200 X96.988 Y138.8 E11.23714
G1 X97.507 Y138.507 E11.24904
G1 X99.782 Y137.179 E11.30161
G1 X101.902 Y135.859 E11.35144
G1 X104.026 Y134.453 E11.40228
G1 X106.134 Y132.968 E11.45373
G1 X108.148 Y131.464 E11.5039
G1 X110.147 Y129.881 E11.55478
G1 X112.088 Y128.252 E11.60535
G1 X113.977 Y126.573 E11.65579
G1 X115.771 Y124.893 E11.70483
G1 X116.457 Y124.306 E11.72285
G1 X117.192 Y123.781 E11.74088
G1 X118.032 Y123.291 E11.76028
G1 X118.519 Y123.044 E11.77118
G1 X126.828 Y119.053 E11.95513
G1 X127.462 Y118.761 E11.96906
G1 X127.977 Y118.541 E11.98024
G1 X129.452 Y117.958 E12.01189
G1 X131.805 Y116.983 E12.06272
G1 X135.21 Y115.433 E12.13738
G1 X144.92 Y110.772 E12.35232
G1 X145.71 Y110.406 E12.36969
G1 X146.545 Y110.063 E12.38771
G1 X147.408 Y109.796 E12.40573
G1 X148.291 Y109.605 E12.42376
G1 X149.187 Y109.494 E12.44178
G1 X150.09 Y109.462 E12.45981
G1 X150.992 Y109.511 E12.47784
G1 X151.886 Y109.639 E12.49586
G1 X152.765 Y109.845 E12.51388
G1 X153.622 Y110.129 E12.5319
G1 X154.167 Y110.354 E12.54366
G1 X154.76 Y110.624 E12.55666
G1 X164.843 Y115.456 E12.77979
G1 X167.235 Y116.561 E12.83238
G1 X169.589 Y117.568 E12.88347
G1 X171.995 Y118.518 E12.93509
G1 X172.388 Y118.682 E12.94359
G1 X173.014 Y118.965 E12.9573
G1 X181.126 Y122.853 E13.13682
G1 X181.77 Y123.171 E13.15115
G1 X182.561 Y123.607 E13.16917
G1 X183.311 Y124.11 E13.1872
G1 X184.013 Y124.678 E13.20522
G1 X184.662 Y125.306 E13.22324
G1 X185.253 Y125.989 E13.24126
G1 X185.782 Y126.721 E13.25929
G1 X186.243 Y127.497 E13.2773
G1 X186.635 Y128.311 E13.29533
G1 X186.952 Y129.157 E13.31336
G1 X187.194 Y130.027 E13.33138
G1 X187.357 Y130.915 E13.3494
G1 X187.452 Y132.091 E13.37294
G1 X187.464 Y132.769 E13.38647
G1 X187.463 Y141.382 E13.55835
G1 X187.453 Y142.1 E13.57268
G1 X187.429 Y142.676 E13.58419
G1 X187.392 Y143.198 E13.59463
G1 X187.246 Y145.794 E13.64652
G1 X187.174 Y148.338 E13.69731
G1 X187.174 Y150.872 E13.74788
G1 X187.245 Y153.393 E13.79821
G1 X187.437 Y156.668 E13.86368
G1 X187.464 Y157.593 E13.88214
G1 X187.463 Y166.688 E14.06364
G1 X187.453 Y167.418 E14.07821
G1 X187.401 Y168.319 E14.09622
G1 X187.269 Y169.213 E14.11426
G1 X187.058 Y170.091 E14.13228
G1 X186.771 Y170.947 E14.15029
G1 X186.409 Y171.775 E14.16833
G1 X185.976 Y172.567 E14.18634
G1 X185.474 Y173.318 E14.20437
G1 X184.907 Y174.021 E14.22239
G1 X184.281 Y174.671 E14.2404
G1 X183.599 Y175.264 E14.25844
G1 X182.868 Y175.794 E14.27645
G1 X181.832 Y176.393 E14.30034
G1 X181.205 Y176.706 E14.31432
G1 X173.791 Y180.258 E14.47838
G1 X172.399 Y180.902 E14.50899
G1 X169.937 Y182.083 E14.56348
G1 X168.723 Y182.687 E14.59054
G1 X155.02 Y189.252 E14.89376
G1 X154.28 Y189.595 E14.91004
G1 X153.444 Y189.938 E14.92807
G1 X152.582 Y190.205 E14.94608
G1 X151.699 Y190.395 E14.9641
G1 X150.803 Y190.506 E14.98212
G1 X149.9 Y190.538 E15.00015
G1 X148.998 Y190.489 E15.01818
G1 X148.104 Y190.361 E15.0362
G1 X147.225 Y190.154 E15.05422
G1 X146.368 Y189.87 E15.07224
G1 X145.895 Y189.677 E15.08243
G1 X145.315 Y189.416 E15.09513
G1 X131.349 Y182.733 E15.4041
G1 X130.106 Y182.116 E15.43179
G1 X127.722 Y180.974 E15.48454
G1 X126.874 Y180.589 E15.50313
G1 X118.824 Y176.739 E15.6812
G1 X118.201 Y176.429 E15.69509
G1 X117.411 Y175.991 E15.71312
G1 X116.663 Y175.485 E15.73114
G1 X115.853 Y174.816 E15.7521
G1 X115.122 Y174.146 E15.77189
G1 X113.168 Y172.399 E15.8242
G1 X111.23 Y170.764 E15.8748
G1 X109.227 Y169.167 E15.92592
G1 X107.226 Y167.664 E15.97586
G1 X105.135 Y166.184 E16.02699
G1 X103.024 Y164.776 E16.07762
G1 X100.863 Y163.423 E16.1285
G1 X98.666 Y162.133 E16.17935
G1 X97.046 Y161.232 E16.21634
G1 X96.277 Y160.759 E16.23436
G1 X95.707 Y160.343 E16.24844
G1 X95.268 Y159.992 E16.25965
G1 X94.151 Y159.057 E16.28872
G1 X93.611 Y158.59 E16.30297
G1 X92.955 Y157.97 E16.32098
G1 X92.356 Y157.294 E16.33901
G1 X91.819 Y156.567 E16.35705
G1 X91.349 Y155.796 E16.37507
G1 X90.948 Y154.987 E16.39308
G1 X90.621 Y154.145 E16.41111
G1 X90.37 Y153.278 E16.42912
G1 X90.196 Y152.391 E16.44716
G1 X90.102 Y151.493 E16.46518
G1 X90.083 Y150.97 E16.47562
G1 X90.073 Y149.901 E16.49696
G1 X90.084 Y148.974 E16.51546
G1 X90.137 Y148.073 E16.53347
G1 X90.27 Y147.18 E16.55149
G1 X90.481 Y146.302 E16.56951
G1 X90.769 Y145.446 E16.58753
G1 X91.132 Y144.619 E16.60555
G1 X91.566 Y143.827 E16.62358
G1 X92.069 Y143.077 E16.6416
G1 X92.636 Y142.374 E16.65962
G1 X93.263 Y141.724 E16.67764
G1 X93.607 Y141.412 E16.68691
G1 X94.091 Y140.993 E16.69969
G1 X94.938 Y140.282 E16.72176
G1 X95.566 Y139.77 E16.73793
G1 X96.291 Y139.231 E16.75595
G1 F1500 E10.25595
;MESH:gem.stl
G0 F6000 X101.451 Y147.265
G0 X102.146 Y148.093
G0 X101.437 Y149.664
G0 X101.437 Y150.336
G0 X102.358 Y151.325
;TYPE:WALL-INNER
G1 F1500 E16.75595
G1 F1200 X103.088 Y151.325 E16.77052
G1 X104.173 Y150.413 E16.79881
G1 X104.173 Y150 E16.80705
G1 X104.173 Y149.587 E16.81529
G1 X103.087 Y148.676 E16.84358
G1 X102.358 Y148.676 E16.85813
G1 X101.273 Y149.586 E16.88639
G1 X101.273 Y150.414 E16.90291
G1 X102.358 Y151.325 E16.93118
G0 F6000 X103.233 Y151.725
G1 F1200 X104.573 Y150.6 E16.9661
G1 X104.573 Y150 E16.97807
G1 X104.573 Y149.4 E16.99005
G1 X103.233 Y148.276 E17.02495
G1 X102.212 Y148.276 E17.04532
G1 X100.873 Y149.4 E17.08021
G1 X100.873 Y150.6 E17.10416
G1 X102.212 Y151.725 E17.13906
G1 X103.233 Y151.725 E17.15943
G0 F6000 X103.379 Y152.125
;TYPE:WALL-OUTER
G1 F1200 X104.973 Y150.786 E17.20098
G1 X104.973 Y150 E17.21666
G1 X104.973 Y149.214 E17.23235
G1 X103.379 Y147.876 E17.27388
G1 X102.066 Y147.876 E17.30008
G1 X100.473 Y149.214 E17.3416
G1 X100.473 Y150.786 E17.37297
G1 X102.066 Y152.125 E17.4145
G1 X103.379 Y152.125 E17.4407
G0 F6000 X103.125 Y151.432
G0 X102.32 Y151.162
G0 X102.488 Y150.964
;TYPE:SKIN
G1 F1200 X102.958 Y150.964 E17.45008
