;FLAVOR:Marlin
;TIME:5618
;Filament used: 2.51484m
;Layer height: 0.16
;MINX:95.337
;MINY:117.36
;MINZ:0.2
;MAXX:207.012
;MAXY:181
;MAXZ:5.96
;Generated with Cura_SteamEngine 5.2.1
M140 S60
M105
M190 S60
M104 S215
M105
M109 S215
M82 ;absolute extrusion mode
; Ender 3 Max Custom Start G-code
G92 E0 ; Reset Extruder
G28 ; Home all axes
G1 Z2.0 F3000 ; Move Z Axis up little to prevent scratching of Heat Bed
G1 X0.1 Y20 Z0.3 F5000.0 ; Move to start position
G1 X0.1 Y200.0 Z0.3 F1500.0 E15 ; Draw the first line
G1 X0.4 Y200.0 Z0.3 F5000.0 ; Move to side a little
G1 X0.4 Y20 Z0.3 F1500.0 E30 ; Draw the second line
G92 E0 ; Reset Extruder
G1 Z2.0 F3000 ; Move Z Axis up little to prevent scratching of Heat Bed
G1 X5 Y20 Z0.3 F5000.0 ; Move over to prevent blob squish
G92 E0
G92 E0
G1 F1500 E-6.5
;LAYER_COUNT:49
;LAYER:0
M107
G0 F6000 X101.319 Y125.603 Z0.2
;TYPE:SKIRT
G1 F1500 E0
G1 F1200 X101.884 Y125.199 E0.0231
G1 X102.211 Y124.977 E0.03625
G1 X102.977 Y124.502 E0.06623
G1 X103.601 Y124.162 E0.08986
G1 X104.041 Y123.939 E0.10627
G1 X104.896 Y123.551 E0.1375
G1 X105.374 Y123.358 E0.15464
G1 X106 Y123.123 E0.17688
G1 X106.814 Y122.86 E0.20533
G1 X107.182 Y122.757 E0.21804
G1 X107.957 Y122.562 E0.24462
G1 X108.53 Y122.438 E0.26412
G1 X109.312 Y122.304 E0.29051
G1 X109.883 Y122.225 E0.30968
G1 X110.504 Y122.157 E0.33046
G1 X111.261 Y122.106 E0.3557
G1 X112.366 Y122.073 E0.39246
G1 X145.237 Y122.048 E1.48576
G1 X147.641 Y122.038 E1.56572
G1 X148.974 Y122.046 E1.61005
G1 X164.416 Y122.036 E2.12366
G1 X167.025 Y121.997 E2.21044
G1 X169.555 Y121.888 E2.29467
G1 X172.051 Y121.71 E2.3779
G1 X174.538 Y121.461 E2.46103
G1 X177.065 Y121.137 E2.54576
G1 X179.551 Y120.745 E2.62947
G1 X181.998 Y120.289 E2.71226
G1 X184.465 Y119.756 E2.79621
G1 X186.901 Y119.157 E2.87964
G1 X189.358 Y118.479 E2.96442
G1 X190.795 Y118.036 E3.01443
G1 X191.599 Y117.8 E3.0423
G1 X192.509 Y117.575 E3.07348
G1 X193.435 Y117.428 E3.10466
G1 X194.371 Y117.36 E3.13588
G1 X195.309 Y117.372 E3.16708
G1 X196.242 Y117.464 E3.19826
G1 X197.164 Y117.635 E3.22945
G1 X198.068 Y117.884 E3.26063
G1 X198.948 Y118.21 E3.29185
G1 X199.797 Y118.609 E3.32305
G1 X200.834 Y119.226 E3.36318
G1 X201.487 Y119.665 E3.38935
G1 X202.41 Y120.32 E3.427
G1 X203.149 Y120.897 E3.45818
G1 X203.837 Y121.535 E3.48939
G1 X204.467 Y122.23 E3.52059
G1 X205.036 Y122.976 E3.55179
G1 X205.539 Y123.767 E3.58297
G1 X205.973 Y124.599 E3.61418
G1 X206.334 Y125.464 E3.64536
G1 X206.621 Y126.357 E3.67655
G1 X206.83 Y127.271 E3.70774
G1 X206.961 Y128.2 E3.73894
G1 X207.012 Y129.136 E3.77012
G1 X206.983 Y130.074 E3.80133
G1 X206.875 Y131.005 E3.83251
G1 X206.687 Y131.924 E3.8637
G1 X206.334 Y133.072 E3.90365
G1 X205.979 Y134.036 E3.93782
G1 X205.114 Y136.485 E4.0242
G1 X204.343 Y138.885 E4.10805
G1 X203.636 Y141.317 E4.19228
G1 X203.01 Y143.725 E4.27504
G1 X202.44 Y146.203 E4.35961
G1 X201.939 Y148.699 E4.44428
G1 X201.527 Y151.11 E4.52563
G1 X201.167 Y153.643 E4.61073
G1 X200.881 Y156.158 E4.69492
G1 X200.672 Y158.618 E4.77703
G1 X200.529 Y161.158 E4.86165
G1 X200.456 Y163.722 E4.94696
G1 X200.437 Y166.008 E5.02299
G1 X200.363 Y167.187 E5.06229
G1 X200.306 Y167.677 E5.07869
G1 X200.158 Y168.603 E5.10988
G1 X199.895 Y169.636 E5.14534
G1 X199.703 Y170.261 E5.16708
G1 X199.39 Y171.145 E5.19827
G1 X198.84 Y172.307 E5.24103
G1 X198.576 Y172.79 E5.25934
G1 X198.092 Y173.593 E5.29052
G1 X197.637 Y174.229 E5.31653
G1 X197.274 Y174.7 E5.33631
G1 X196.67 Y175.418 E5.36752
G1 X196.216 Y175.884 E5.38916
G1 X195.666 Y176.417 E5.41463
G1 X194.965 Y177.041 E5.44585
G1 X194.448 Y177.438 E5.46753
G1 X193.882 Y177.841 E5.49064
G1 X193.586 Y178.042 E5.50254
G1 X192.79 Y178.535 E5.53368
G1 X192.165 Y178.873 E5.55731
G1 X191.721 Y179.097 E5.57385
G1 X190.867 Y179.483 E5.60502
G1 X190.424 Y179.661 E5.6209
G1 X189.78 Y179.902 E5.64377
G1 X188.987 Y180.158 E5.67149
G1 X188.271 Y180.353 E5.69617
G1 X187.835 Y180.46 E5.7111
G1 X187.251 Y180.587 E5.73098
G1 X186.484 Y180.718 E5.75686
G1 X185.916 Y180.797 E5.77593
G1 X185.288 Y180.866 E5.79694
G1 X184.514 Y180.917 E5.82274
G1 X183.425 Y180.949 E5.85898
G1 X150.433 Y180.976 E6.9563
G1 X149.67 Y180.988 E6.98168
G1 X137.877 Y180.996 E7.37392
G1 X136.06 Y180.986 E7.43435
G1 X112.822 Y181 E8.20725
G1 X111.981 Y180.988 E8.23522
G1 X111.515 Y180.971 E8.25073
G1 X110.827 Y180.932 E8.27365
G1 X110.129 Y180.87 E8.29696
G1 X109.344 Y180.764 E8.32331
G1 X108.815 Y180.675 E8.34115
G1 X108.22 Y180.558 E8.36132
G1 X107.422 Y180.365 E8.38862
G1 X106.923 Y180.228 E8.40583
G1 X106.116 Y179.973 E8.43398
G1 X105.416 Y179.714 E8.45881
G1 X105.051 Y179.568 E8.47188
G1 X104.217 Y179.194 E8.50228
G1 X103.775 Y178.973 E8.51872
G1 X103.179 Y178.657 E8.54116
G1 X102.37 Y178.173 E8.57251
G1 X101.808 Y177.792 E8.59509
G1 X101.398 Y177.497 E8.61189
G1 X100.318 Y176.611 E8.65836
G1 X99.885 Y176.207 E8.67805
G1 X99.227 Y175.538 E8.70926
G1 X98.855 Y175.105 E8.72825
G1 X98.402 Y174.548 E8.75213
G1 X97.842 Y173.795 E8.78334
G1 X97.251 Y172.822 E8.8212
G1 X96.922 Y172.211 E8.84429
G1 X96.513 Y171.367 E8.87548
G1 X96.067 Y170.142 E8.91884
G1 X95.91 Y169.616 E8.9371
G1 X95.68 Y168.707 E8.96828
G1 X95.509 Y167.607 E9.00531
G1 X95.448 Y167.02 E9.02494
G1 X95.395 Y166.261 E9.05024
G1 X95.38 Y165.637 E9.071
G1 X95.363 Y154.143 E9.4533
G1 X95.344 Y152.914 E9.49418
G1 X95.337 Y151.499 E9.54124
G1 X95.357 Y149.245 E9.61621
G1 X95.342 Y137.911 E9.99318
G1 X95.352 Y137.067 E10.02126
G1 X95.377 Y136.456 E10.0416
G1 X95.434 Y135.775 E10.06433
G1 X95.474 Y135.416 E10.07634
G1 X95.617 Y134.489 E10.10754
G1 X95.875 Y133.458 E10.14289
G1 X96.065 Y132.828 E10.16477
G1 X96.373 Y131.942 E10.19597
G1 X96.962 Y130.696 E10.24181
G1 X97.243 Y130.186 E10.26118
G1 X97.73 Y129.384 E10.29238
G1 X98.178 Y128.762 E10.31788
G1 X98.575 Y128.249 E10.33945
G1 X99.496 Y127.203 E10.38581
G1 X100.029 Y126.687 E10.41048
G1 X100.383 Y126.365 E10.4264
G1 X101.319 Y125.603 E10.46654
G0 F6000 X101.554 Y125.927
G1 F1200 X102.109 Y125.53 E10.48924
G1 X102.436 Y125.308 E10.50238
G1 X103.174 Y124.85 E10.53127
G1 X103.782 Y124.519 E10.5543
G1 X104.222 Y124.296 E10.5707
G1 X105.045 Y123.922 E10.60077
G1 X105.523 Y123.729 E10.61792
G1 X106.137 Y123.498 E10.63973
G1 X106.922 Y123.245 E10.66717
G1 X107.634 Y123.052 E10.6917
G1 X108.052 Y122.95 E10.70601
G1 X108.604 Y122.831 E10.72479
G1 X109.367 Y122.7 E10.75054
G1 X109.938 Y122.621 E10.76972
G1 X110.536 Y122.556 E10.78972
G1 X111.276 Y122.506 E10.81439
G1 X112.366 Y122.473 E10.85066
G1 X145.239 Y122.448 E11.94402
G1 X147.638 Y122.438 E12.02381
G1 X148.971 Y122.446 E12.06815
G1 X164.423 Y122.436 E12.58209
G1 X167.047 Y122.397 E12.66937
G1 X169.567 Y122.288 E12.75326
G1 X172.084 Y122.109 E12.83719
G1 X174.593 Y121.857 E12.92106
G1 X177.107 Y121.535 E13.00536
G1 X179.615 Y121.14 E13.0898
G1 X182.083 Y120.679 E13.17331
G1 X184.547 Y120.148 E13.25714
G1 X187.022 Y119.539 E13.34192
G1 X189.454 Y118.867 E13.42584
G1 X190.908 Y118.42 E13.47643
G1 X191.712 Y118.184 E13.5043
G1 X192.605 Y117.963 E13.5349
G1 X193.515 Y117.821 E13.56553
G1 X194.433 Y117.758 E13.59614
G1 X195.354 Y117.775 E13.62677
G1 X196.269 Y117.872 E13.65738
G1 X197.173 Y118.048 E13.68801
G1 X198.058 Y118.302 E13.71863
G1 X198.918 Y118.632 E13.74927
G1 X199.746 Y119.034 E13.77988
G1 X200.611 Y119.558 E13.81352
G1 X201.515 Y120.171 E13.84985
G1 X202.178 Y120.645 E13.87696
G1 X202.903 Y121.213 E13.90759
G1 X203.576 Y121.841 E13.93821
G1 X204.192 Y122.525 E13.96882
G1 X204.746 Y123.26 E13.99943
G1 X205.234 Y124.041 E14.03006
G1 X205.653 Y124.86 E14.06066
G1 X205.999 Y125.714 E14.09131
G1 X206.27 Y126.593 E14.1219
G1 X206.463 Y127.494 E14.15255
G1 X206.578 Y128.407 E14.18316
G1 X206.613 Y129.327 E14.21378
G1 X206.568 Y130.247 E14.24441
G1 X206.443 Y131.159 E14.27503
G1 X206.24 Y132.057 E14.30565
G1 X205.959 Y132.933 E14.33625
G1 X205.607 Y133.889 E14.37013
G1 X204.732 Y136.367 E14.45754
G1 X203.961 Y138.766 E14.54135
G1 X203.253 Y141.201 E14.62569
G1 X202.617 Y143.648 E14.70978
G1 X202.051 Y146.106 E14.79368
G1 X201.546 Y148.624 E14.87909
G1 X201.131 Y151.052 E14.96102
G1 X200.767 Y153.613 E15.04706
G1 X200.487 Y156.08 E15.12963
G1 X200.27 Y158.631 E15.21479
G1 X200.129 Y161.123 E15.2978
G1 X200.056 Y163.708 E15.38382
G1 X200.037 Y166.004 E15.46018
G1 X199.966 Y167.141 E15.49807
G1 X199.909 Y167.631 E15.51448
G1 X199.763 Y168.54 E15.5451
G1 X199.513 Y169.519 E15.57871
G1 X199.321 Y170.144 E15.60046
G1 X199.012 Y171.011 E15.63107
G1 X198.489 Y172.115 E15.6717
G1 X198.225 Y172.598 E15.69001
G1 X197.749 Y173.386 E15.72063
G1 X197.32 Y173.985 E15.74513
G1 X196.957 Y174.456 E15.76491
G1 X196.364 Y175.16 E15.79553
G1 X195.938 Y175.597 E15.81582
G1 X195.388 Y176.13 E15.8413
G1 X194.699 Y176.741 E15.87193
G1 X194.214 Y177.113 E15.89226
G1 X193.657 Y177.51 E15.91501
G1 X193.361 Y177.711 E15.92691
G1 X192.594 Y178.186 E15.95691
G1 X191.985 Y178.516 E15.97995
G1 X191.541 Y178.74 E15.99649
G1 X190.718 Y179.112 E16.02653
G1 X190.275 Y179.29 E16.04241
G1 X189.643 Y179.526 E16.06485
G1 X188.879 Y179.773 E16.09155
G1 X188.175 Y179.965 E16.11582
G1 X187.739 Y180.072 E16.13076
G1 X187.177 Y180.194 E16.14988
G1 X186.429 Y180.322 E16.17512
G1 X185.861 Y180.401 E16.1942
G1 X185.256 Y180.467 E16.21444
G1 X184.5 Y180.517 E16.23964
G1 X183.425 Y180.549 E16.27541
G1 X150.427 Y180.576 E17.37293
G1 X149.664 Y180.588 E17.39831
G1 X137.879 Y180.596 E17.79028
G1 X136.062 Y180.586 E17.85071
G1 X112.828 Y180.6 E18.62348
G1 X111.987 Y180.588 E18.65145
G1 X111.538 Y180.572 E18.6664
G1 X110.85 Y180.533 E18.68932
G1 X110.177 Y180.473 E18.71179
G1 X109.41 Y180.369 E18.73753
G1 X108.881 Y180.28 E18.75538
G1 X108.308 Y180.167 E18.7748
G1 X107.528 Y179.98 E18.80148
G1 X107.029 Y179.843 E18.81869
G1 X106.251 Y179.597 E18.84583
G1 X105.564 Y179.343 E18.87019
G1 X105.199 Y179.197 E18.88327
G1 X104.396 Y178.836 E18.91255
G1 X103.954 Y178.615 E18.92898
G1 X103.37 Y178.305 E18.95098
G1 X102.59 Y177.839 E18.9812
G1 X102.041 Y177.467 E19.00325
G1 X101.631 Y177.172 E19.02005
G1 X100.591 Y176.318 E19.06481
G1 X100.158 Y175.914 E19.08451
G1 X99.512 Y175.258 E19.11513
G1 X99.165 Y174.852 E19.13289
G1 X98.712 Y174.295 E19.15677
G1 X98.163 Y173.556 E19.18739
G1 X97.603 Y172.632 E19.22333
G1 X97.274 Y172.021 E19.24641
G1 X96.873 Y171.193 E19.27701
G1 X96.45 Y170.028 E19.31823
G1 X96.293 Y169.502 E19.33649
G1 X96.068 Y168.609 E19.36712
G1 X95.907 Y167.566 E19.40222
G1 X95.846 Y166.979 E19.42185
G1 X95.795 Y166.247 E19.44625
G1 X95.78 Y165.637 E19.46655
G1 X95.763 Y154.135 E19.84911
G1 X95.744 Y152.912 E19.88979
G1 X95.737 Y151.503 E19.93665
G1 X95.757 Y149.249 E20.01162
G1 X95.742 Y137.911 E20.38873
G1 X95.752 Y137.072 E20.41664
G1 X95.776 Y136.483 E20.43624
G1 X95.831 Y135.819 E20.4584
G1 X95.871 Y135.46 E20.47042
G1 X96.013 Y134.551 E20.50102
G1 X96.257 Y133.573 E20.53454
G1 X96.447 Y132.943 E20.55643
G1 X96.751 Y132.074 E20.58705
G1 X97.312 Y130.889 E20.63066
G1 X97.593 Y130.379 E20.65002
G1 X98.072 Y129.592 E20.68067
G1 X98.494 Y129.007 E20.70466
G1 X98.891 Y128.494 E20.72623
G1 X99.779 Y127.486 E20.77091
G1 X100.298 Y126.983 E20.79495
G1 X100.652 Y126.661 E20.81087
G1 X101.554 Y125.927 E20.84955
G0 F6000 X101.789 Y126.25
G1 F1200 X102.067 Y126.048 E20.86098
G1 X102.661 Y125.639 E20.88496
G1 X103.371 Y125.198 E20.91276
G1 X103.963 Y124.876 E20.93518
G1 X104.403 Y124.653 E20.95158
G1 X105.195 Y124.293 E20.98052
G1 X105.673 Y124.1 E20.99766
G1 X106.274 Y123.874 E21.01902
G1 X107.03 Y123.63 E21.04544
G1 X107.398 Y123.527 E21.05815
G1 X108.147 Y123.339 E21.08384
G1 X108.678 Y123.224 E21.10191
G1 X109.422 Y123.096 E21.12702
G1 X109.993 Y123.017 E21.14619
G1 X110.569 Y122.954 E21.16546
G1 X111.29 Y122.906 E21.18949
G1 X112.366 Y122.873 E21.2253
G1 X145.24 Y122.848 E22.31869
G1 X147.636 Y122.838 E22.39838
G1 X148.969 Y122.846 E22.44272
G1 X164.429 Y122.836 E22.95692
G1 X167.035 Y122.797 E23.04361
G1 X169.612 Y122.686 E23.1294
G1 X172.119 Y122.507 E23.21299
G1 X174.643 Y122.254 E23.29736
G1 X177.158 Y121.932 E23.3817
G1 X179.679 Y121.535 E23.46658
G1 X182.163 Y121.071 E23.55063
G1 X184.654 Y120.534 E23.63538
G1 X187.128 Y119.925 E23.72012
G1 X189.543 Y119.259 E23.80344
G1 X191.02 Y118.804 E23.85485
G1 X191.824 Y118.568 E23.88272
G1 X192.701 Y118.352 E23.91276
G1 X193.594 Y118.215 E23.94281
G1 X194.495 Y118.157 E23.97283
G1 X195.398 Y118.179 E24.00288
G1 X196.295 Y118.281 E24.0329
G1 X197.18 Y118.462 E24.06295
G1 X198.045 Y118.72 E24.09297
G1 X198.884 Y119.054 E24.12301
G1 X199.691 Y119.461 E24.15307
G1 X200.388 Y119.89 E24.18029
G1 X201.282 Y120.496 E24.21621
G1 X201.945 Y120.97 E24.24332
G1 X202.656 Y121.528 E24.27338
G1 X203.314 Y122.146 E24.3034
G1 X203.916 Y122.819 E24.33344
G1 X204.455 Y123.544 E24.36348
G1 X204.929 Y124.313 E24.39353
G1 X205.332 Y125.121 E24.42356
G1 X205.662 Y125.961 E24.45358
G1 X205.917 Y126.828 E24.48364
G1 X206.094 Y127.713 E24.51365
G1 X206.192 Y128.611 E24.5437
G1 X206.21 Y129.514 E24.57374
G1 X206.148 Y130.415 E24.60378
G1 X206.007 Y131.307 E24.63381
G1 X205.788 Y132.183 E24.66385
G1 X205.584 Y132.795 E24.6853
G1 X205.226 Y133.766 E24.71972
G1 X204.346 Y136.258 E24.80762
G1 X203.582 Y138.637 E24.89073
G1 X202.868 Y141.094 E24.97583
G1 X202.228 Y143.555 E25.06041
G1 X201.663 Y146.01 E25.14419
G1 X201.153 Y148.55 E25.23036
G1 X200.728 Y151.039 E25.31434
G1 X200.377 Y153.509 E25.39732
G1 X200.086 Y156.072 E25.48311
G1 X199.873 Y158.574 E25.56663
G1 X199.729 Y161.127 E25.65168
G1 X199.656 Y163.692 E25.73703
G1 X199.637 Y166.001 E25.81383
G1 X199.569 Y167.095 E25.85028
G1 X199.512 Y167.585 E25.86669
G1 X199.368 Y168.476 E25.89671
G1 X199.13 Y169.401 E25.92848
G1 X198.938 Y170.026 E25.95023
G1 X198.635 Y170.877 E25.98027
G1 X198.138 Y171.923 E26.01879
G1 X197.874 Y172.406 E26.0371
G1 X197.406 Y173.179 E26.06715
G1 X197.003 Y173.741 E26.09015
G1 X196.64 Y174.212 E26.10993
G1 X196.058 Y174.902 E26.13995
G1 X195.659 Y175.31 E26.15893
G1 X195.109 Y175.843 E26.18441
G1 X194.434 Y176.442 E26.21442
G1 X193.98 Y176.789 E26.23343
G1 X193.671 Y177.012 E26.2461
G1 X193.136 Y177.38 E26.2677
G1 X192.398 Y177.837 E26.29657
G1 X191.804 Y178.159 E26.31904
G1 X191.36 Y178.383 E26.33558
G1 X190.569 Y178.741 E26.36446
G1 X190.126 Y178.919 E26.38034
G1 X189.506 Y179.15 E26.40235
G1 X188.77 Y179.388 E26.42808
G1 X188.08 Y179.576 E26.45186
G1 X187.644 Y179.683 E26.46679
G1 X187.103 Y179.8 E26.4852
G1 X186.374 Y179.926 E26.50981
G1 X185.806 Y180.005 E26.52888
G1 X185.223 Y180.069 E26.54839
G1 X184.486 Y180.118 E26.57296
G1 X183.424 Y180.149 E26.60829
G1 X150.42 Y180.176 E27.70601
G1 X149.657 Y180.188 E27.73139
G1 X137.881 Y180.196 E28.12306
G1 X136.064 Y180.186 E28.1835
G1 X112.833 Y180.2 E28.95616
G1 X111.992 Y180.188 E28.98414
G1 X111.561 Y180.173 E28.99848
G1 X110.873 Y180.134 E29.0214
G1 X110.225 Y180.076 E29.04304
G1 X109.477 Y179.975 E29.06815
G1 X108.948 Y179.886 E29.08599
G1 X108.396 Y179.777 E29.1047
G1 X107.634 Y179.594 E29.13077
G1 X107.135 Y179.457 E29.14798
G1 X106.386 Y179.22 E29.17411
G1 X106.052 Y179.1 E29.18591
G1 X105.348 Y178.825 E29.21105
G1 X104.574 Y178.478 E29.23926
G1 X104.132 Y178.257 E29.2557
G1 X103.56 Y177.954 E29.27723
G1 X102.81 Y177.505 E29.3063
G1 X102.275 Y177.143 E29.32779
G1 X101.865 Y176.848 E29.34458
G1 X100.864 Y176.026 E29.38767
G1 X100.431 Y175.622 E29.40736
G1 X99.798 Y174.977 E29.43742
G1 X99.476 Y174.6 E29.45391
G1 X99.023 Y174.043 E29.47779
G1 X98.484 Y173.318 E29.50784
G1 X97.955 Y172.443 E29.54184
G1 X97.626 Y171.832 E29.56493
G1 X97.234 Y171.018 E29.59497
G1 X96.833 Y169.913 E29.63407
G1 X96.676 Y169.387 E29.65233
G1 X96.456 Y168.511 E29.68237
G1 X96.305 Y167.524 E29.71558
G1 X96.244 Y166.937 E29.73521
G1 X96.195 Y166.233 E29.75868
