;FLAVOR:Marlin
;TIME:5573
;Filament used: 2.24041m
;Layer height: 0.12
;MINX:108.772
;MINY:103.835
;MINZ:0.12
;MAXX:191.228
;MAXY:218.5
;MAXZ:3.24
;Generated with Cura_SteamEngine 5.2.1
M140 S60
M105
M190 S60
M104 S210
M105
M109 S210
M82 ;absolute extrusion mode
; Ender 3 Max Custom Start G-code
G92 E0 ; Reset Extruder
G28 ; Home all axes
G1 Z2.0 F3000 ; Move Z Axis up little to prevent scratching of Heat Bed
G1 X0.1 Y20 Z0.3 F5000.0 ; Move to start position
G1 X0.1 Y200.0 Z0.3 F1500.0 E15 ; Draw the first line
G1 X0.4 Y200.0 Z0.3 F5000.0 ; Move to side a little
G1 X0.4 Y20 Z0.3 F1500.0 E30 ; Draw the second line
G92 E0 ; Reset Extruder
G1 Z2.0 F3000 ; Move Z Axis up little to prevent scratching of Heat Bed
G1 X5 Y20 Z0.3 F5000.0 ; Move over to prevent blob squish
G92 E0
G92 E0
G1 F1500 E-6.5
;LAYER_COUNT:27
;LAYER:0
M107
G0 F6000 X124.458 Y107.653 Z0.12
;TYPE:SKIRT
G1 F1500 E0
G1 F1200 X125.1 Y106.97 E0.01871
G1 X125.799 Y106.345 E0.03742
G1 X126.549 Y105.781 E0.05615
G1 X127.343 Y105.283 E0.07485
G1 X128.178 Y104.855 E0.09357
G1 X129.045 Y104.499 E0.11228
G1 X129.94 Y104.218 E0.131
G1 X130.856 Y104.015 E0.14972
G1 X131.785 Y103.89 E0.16843
G1 X132.551 Y103.847 E0.18374
G1 X133.26 Y103.835 E0.19789
G1 X142.055 Y103.835 E0.3734
G1 X142.918 Y103.846 E0.39063
G1 X143.54 Y103.873 E0.40305
G1 X143.995 Y103.905 E0.41215
G1 X146.56 Y104.051 E0.46342
G1 X149.119 Y104.123 E0.51451
G1 X151.607 Y104.123 E0.56416
G1 X154.154 Y104.051 E0.61501
G1 X157.708 Y103.848 E0.68605
G1 X158.337 Y103.835 E0.6986
G1 X167.074 Y103.836 E0.87296
G1 X167.775 Y103.846 E0.88695
G1 X168.711 Y103.899 E0.90566
G1 X169.64 Y104.032 E0.92439
G1 X170.553 Y104.244 E0.94309
G1 X171.446 Y104.532 E0.96182
G1 X172.31 Y104.896 E0.98053
G1 X173.141 Y105.332 E0.99925
G1 X173.931 Y105.837 E1.01797
G1 X174.675 Y106.407 E1.03667
G1 X175.368 Y107.039 E1.05539
G1 X176.005 Y107.728 E1.07411
G1 X176.581 Y108.468 E1.09283
G1 X177.092 Y109.255 E1.11155
G1 X177.448 Y109.908 E1.12639
G1 X177.764 Y110.541 E1.14051
G1 X181.519 Y118.377 E1.31392
G1 X181.889 Y119.176 E1.33149
G1 X182.132 Y119.742 E1.34378
G1 X182.609 Y120.947 E1.36964
G1 X182.675 Y121.093 E1.37284
G1 X183.024 Y121.983 E1.39192
G1 X184.019 Y124.329 E1.44277
G1 X185.228 Y126.958 E1.50052
G1 X189.833 Y136.57 E1.71321
G1 X190.214 Y137.393 E1.73131
G1 X190.571 Y138.26 E1.75002
G1 X190.852 Y139.155 E1.76874
G1 X191.056 Y140.07 E1.78745
G1 X191.182 Y140.999 E1.80616
G1 X191.228 Y141.936 E1.82488
G1 X191.194 Y142.873 E1.84359
G1 X191.08 Y143.804 E1.86231
G1 X190.887 Y144.722 E1.88103
G1 X190.617 Y145.62 E1.89974
G1 X190.287 Y146.456 E1.91768
G1 X190.046 Y146.989 E1.92935
G1 X185.148 Y157.198 E2.15532
G1 X184.073 Y159.524 E2.20645
G1 X183.072 Y161.856 E2.2571
G1 X182.191 Y164.076 E2.30476
G1 X181.979 Y164.575 E2.31558
G1 X181.372 Y165.903 E2.34472
G1 X177.818 Y173.308 E2.50863
G1 X177.435 Y174.078 E2.5258
G1 X176.83 Y175.138 E2.55015
G1 X176.296 Y175.962 E2.56975
G1 X175.722 Y176.82 E2.59035
G1 X174.389 Y178.94 E2.64032
G1 X173.107 Y181.117 E2.69074
G1 X171.895 Y183.312 E2.74078
G1 X170.741 Y185.551 E2.79105
G1 X169.645 Y187.832 E2.84155
G1 X168.622 Y190.127 E2.89169
G1 X167.669 Y192.435 E2.94152
G1 X166.758 Y194.835 E2.99275
G1 X165.942 Y197.181 E3.04232
G1 X165.194 Y199.544 E3.09178
G1 X164.494 Y202.001 E3.14276
G1 X163.864 Y204.47 E3.19361
G1 X163.299 Y206.977 E3.2449
G1 X163.077 Y208.036 E3.26649
G1 X162.846 Y208.945 E3.28521
G1 X162.537 Y209.831 E3.30393
G1 X162.155 Y210.687 E3.32264
G1 X161.701 Y211.507 E3.34134
G1 X160.978 Y212.551 E3.36669
G1 X160.592 Y213.035 E3.37904
G1 X159.784 Y214 E3.40416
G1 X159.196 Y214.682 E3.42213
G1 X158.553 Y215.365 E3.44085
G1 X157.854 Y215.991 E3.45957
G1 X157.105 Y216.554 E3.47827
G1 X156.31 Y217.052 E3.49699
G1 X155.476 Y217.481 E3.51571
G1 X154.608 Y217.836 E3.53442
G1 X153.713 Y218.117 E3.55314
G1 X152.798 Y218.32 E3.57185
G1 X151.868 Y218.445 E3.59057
G1 X151.048 Y218.489 E3.60696
G1 X150.146 Y218.5 E3.62496
G1 X149.029 Y218.49 E3.64725
G1 X148.092 Y218.441 E3.66598
G1 X147.163 Y218.313 E3.68469
G1 X146.248 Y218.107 E3.70341
G1 X145.354 Y217.823 E3.72213
G1 X144.488 Y217.464 E3.74084
G1 X143.655 Y217.032 E3.75956
G1 X142.862 Y216.532 E3.77827
G1 X142.115 Y215.965 E3.79699
G1 X141.418 Y215.337 E3.81571
G1 X140.821 Y214.702 E3.8331
G1 X140.278 Y214.074 E3.84967
G1 X139.586 Y213.246 E3.8712
G1 X139.16 Y212.723 E3.88467
G1 X138.599 Y211.971 E3.90339
G1 X138.105 Y211.174 E3.9221
G1 X137.68 Y210.338 E3.94082
G1 X137.328 Y209.469 E3.95953
G1 X137.051 Y208.573 E3.97824
G1 X136.911 Y207.975 E3.9905
G1 X136.627 Y206.585 E4.01881
G1 X136.066 Y204.039 E4.07084
G1 X135.471 Y201.658 E4.11981
G1 X134.774 Y199.176 E4.17126
G1 X134.028 Y196.778 E4.22138
G1 X133.214 Y194.404 E4.27146
G1 X132.329 Y192.046 E4.32172
G1 X131.382 Y189.722 E4.3718
G1 X130.367 Y187.42 E4.42201
G1 X129.29 Y185.15 E4.47215
G1 X128.129 Y182.875 E4.52312
G1 X126.938 Y180.693 E4.57273
G1 X125.667 Y178.516 E4.62304
G1 X124.334 Y176.373 E4.6734
G1 X123.954 Y175.796 E4.68719
G1 X123.456 Y175.015 E4.70567
G1 X122.817 Y173.864 E4.73194
G1 X118.995 Y165.885 E4.9085
G1 X118.425 Y164.646 E4.93572
G1 X117.317 Y162.33 E4.98695
G1 X116.895 Y161.489 E5.00573
G1 X110.144 Y147.392 E5.31764
G1 X109.776 Y146.594 E5.33518
G1 X109.421 Y145.726 E5.3539
G1 X109.142 Y144.83 E5.37262
G1 X108.939 Y143.914 E5.39135
G1 X108.816 Y142.985 E5.41005
G1 X108.772 Y142.048 E5.42877
G1 X108.808 Y141.111 E5.44748
G1 X108.924 Y140.18 E5.4662
G1 X109.119 Y139.263 E5.48491
G1 X109.391 Y138.365 E5.50364
G1 X109.724 Y137.526 E5.52165
G1 X109.987 Y136.947 E5.53434
G1 X116.651 Y123.039 E5.8421
G1 X117.279 Y121.776 E5.87025
G1 X118.399 Y119.44 E5.92195
G1 X118.719 Y118.732 E5.93746
G1 X122.595 Y110.631 E6.11667
G1 X122.908 Y109.994 E6.13084
G1 X123.358 Y109.171 E6.14956
G1 X123.875 Y108.389 E6.16826
G1 X124.458 Y107.653 E6.187
G0 F6000 X124.793 Y107.877
G1 F1200 X125.428 Y107.21 E6.20538
G1 X126.118 Y106.601 E6.22374
G1 X126.859 Y106.054 E6.24212
G1 X127.644 Y105.573 E6.2605
G1 X128.468 Y105.162 E6.27887
G1 X129.325 Y104.824 E6.29726
G1 X130.207 Y104.562 E6.31562
G1 X131.109 Y104.378 E6.33399
G1 X132.024 Y104.272 E6.35237
G1 X132.56 Y104.247 E6.36308
G1 X133.26 Y104.235 E6.37705
G1 X142.055 Y104.235 E6.55256
G1 X142.912 Y104.246 E6.56967
G1 X143.512 Y104.272 E6.58165
G1 X143.943 Y104.303 E6.59028
G1 X146.562 Y104.451 E6.64262
G1 X149.108 Y104.523 E6.69345
G1 X151.618 Y104.523 E6.74354
G1 X154.155 Y104.451 E6.79419
G1 X157.719 Y104.248 E6.86543
G1 X158.337 Y104.235 E6.87777
G1 X167.068 Y104.236 E7.052
G1 X167.769 Y104.246 E7.06599
G1 X168.688 Y104.299 E7.08436
G1 X169.599 Y104.432 E7.10274
G1 X170.495 Y104.643 E7.12111
G1 X171.37 Y104.931 E7.13949
G1 X172.216 Y105.294 E7.15786
G1 X173.027 Y105.729 E7.17623
G1 X173.798 Y106.233 E7.19461
G1 X174.522 Y106.802 E7.21298
G1 X175.194 Y107.431 E7.23135
G1 X175.809 Y108.116 E7.24972
G1 X176.362 Y108.852 E7.2681
G1 X176.849 Y109.634 E7.28648
G1 X177.09 Y110.088 E7.29674
G1 X177.403 Y110.714 E7.3107
G1 X181.222 Y118.685 E7.48709
G1 X181.526 Y119.343 E7.50155
G1 X181.76 Y119.89 E7.51343
G1 X182.208 Y121.022 E7.53772
G1 X182.303 Y121.239 E7.54245
G1 X182.672 Y122.18 E7.56262
G1 X183.645 Y124.475 E7.61237
G1 X184.837 Y127.066 E7.66928
G1 X189.473 Y136.743 E7.88341
G1 X189.851 Y137.56 E7.90138
G1 X190.201 Y138.412 E7.91976
G1 X190.475 Y139.291 E7.93813
G1 X190.672 Y140.19 E7.9565
G1 X190.79 Y141.103 E7.97487
G1 X190.828 Y142.023 E7.99325
G1 X190.786 Y142.943 E8.01162
G1 X190.665 Y143.856 E8.03
G1 X190.465 Y144.754 E8.04836
G1 X190.188 Y145.632 E8.06674
G1 X189.921 Y146.294 E8.08098
G1 X189.685 Y146.816 E8.09241
G1 X184.796 Y157.007 E8.31798
G1 X183.7 Y159.377 E8.37009
G1 X182.704 Y161.699 E8.42051
G1 X181.819 Y163.928 E8.46837
G1 X181.615 Y164.409 E8.47879
G1 X181.103 Y165.534 E8.50346
G1 X177.457 Y173.135 E8.67169
G1 X177.077 Y173.899 E8.68872
G1 X176.494 Y174.921 E8.7122
G1 X176.053 Y175.603 E8.72841
G1 X175.404 Y176.574 E8.75172
G1 X174.039 Y178.746 E8.80291
G1 X172.771 Y180.899 E8.85277
G1 X171.547 Y183.115 E8.90329
G1 X170.368 Y185.403 E8.95466
G1 X169.29 Y187.646 E9.00432
G1 X168.264 Y189.948 E9.05462
G1 X167.285 Y192.319 E9.10581
G1 X166.39 Y194.678 E9.15616
G1 X165.56 Y197.066 E9.20661
G1 X164.807 Y199.441 E9.25633
G1 X164.108 Y201.893 E9.30721
G1 X163.48 Y204.355 E9.35792
G1 X162.913 Y206.872 E9.40941
G1 X162.686 Y207.954 E9.43147
G1 X162.458 Y208.846 E9.44984
G1 X162.153 Y209.715 E9.46822
G1 X161.774 Y210.554 E9.48659
G1 X161.324 Y211.357 E9.50496
G1 X160.663 Y212.304 E9.52801
G1 X160.285 Y212.778 E9.54011
G1 X159.37 Y213.869 E9.56852
G1 X158.893 Y214.421 E9.58308
G1 X158.262 Y215.09 E9.60143
G1 X157.574 Y215.703 E9.61982
G1 X156.836 Y216.253 E9.63819
G1 X156.054 Y216.738 E9.65655
G1 X155.232 Y217.152 E9.67492
G1 X154.377 Y217.494 E9.6933
G1 X153.495 Y217.761 E9.71169
G1 X152.594 Y217.949 E9.73006
G1 X151.68 Y218.059 E9.74843
G1 X151.042 Y218.089 E9.76117
G1 X150.149 Y218.1 E9.779
G1 X149.032 Y218.09 E9.80129
G1 X148.113 Y218.041 E9.81965
G1 X147.201 Y217.914 E9.83803
G1 X146.304 Y217.707 E9.8564
G1 X145.428 Y217.424 E9.87477
G1 X144.58 Y217.065 E9.89315
G1 X143.766 Y216.634 E9.91153
G1 X142.993 Y216.135 E9.92989
G1 X142.266 Y215.57 E9.94826
G1 X141.591 Y214.944 E9.96664
G1 X141.123 Y214.439 E9.98038
G1 X140.585 Y213.817 E9.99679
G1 X139.896 Y212.993 E10.01822
G1 X139.47 Y212.47 E10.03168
G1 X138.92 Y211.732 E10.05005
G1 X138.437 Y210.949 E10.06841
G1 X138.023 Y210.126 E10.08679
G1 X137.682 Y209.271 E10.10516
G1 X137.416 Y208.39 E10.12353
G1 X137.303 Y207.895 E10.13366
G1 X137.013 Y206.472 E10.16264
G1 X136.461 Y203.969 E10.21379
G1 X135.856 Y201.549 E10.26357
G1 X135.158 Y199.063 E10.3151
G1 X134.415 Y196.677 E10.36497
G1 X133.586 Y194.26 E10.41596
G1 X132.702 Y191.903 E10.4662
G1 X131.742 Y189.546 E10.51699
G1 X130.736 Y187.265 E10.56674
G1 X129.636 Y184.947 E10.61794
G1 X128.501 Y182.723 E10.66777
G1 X127.291 Y180.507 E10.71816
G1 X125.999 Y178.293 E10.76931
G1 X124.669 Y176.154 E10.81958
G1 X124.288 Y175.576 E10.83339
G1 X123.793 Y174.8 E10.85176
G1 X123.178 Y173.692 E10.87705
G1 X119.358 Y165.718 E11.0535
G1 X118.766 Y164.432 E11.08175
G1 X117.669 Y162.138 E11.13249
G1 X117.359 Y161.526 E11.14618
G1 X110.432 Y147.065 E11.46617
G1 X110.139 Y146.427 E11.48018
G1 X109.792 Y145.574 E11.49856
G1 X109.519 Y144.695 E11.51692
G1 X109.325 Y143.795 E11.5353
G1 X109.208 Y142.882 E11.55367
G1 X109.172 Y141.962 E11.57204
G1 X109.216 Y141.042 E11.59042
G1 X109.339 Y140.13 E11.60878
G1 X109.541 Y139.232 E11.62715
G1 X109.82 Y138.354 E11.64554
G1 X110.09 Y137.689 E11.65986
G1 X110.347 Y137.12 E11.67232
G1 X116.942 Y123.354 E11.97693
G1 X117.605 Y122.02 E12.00666
G1 X118.775 Y119.579 E12.06068
G1 X119.182 Y118.684 E12.0803
G1 X122.954 Y110.807 E12.25459
G1 X123.267 Y110.17 E12.26875
G1 X123.709 Y109.362 E12.28713
G1 X124.219 Y108.596 E12.3055
G1 X124.793 Y107.877 E12.32386
G0 F6000 X125.129 Y108.101
G1 F1200 X125.755 Y107.45 E12.34188
G1 X126.437 Y106.858 E12.3599
G1 X127.168 Y106.328 E12.37792
G1 X127.944 Y105.865 E12.39595
G1 X128.757 Y105.472 E12.41398
G1 X129.602 Y105.153 E12.432
G1 X130.472 Y104.91 E12.45003
G1 X131.359 Y104.745 E12.46803
G1 X132.568 Y104.647 E12.49224
G1 X133.26 Y104.635 E12.50605
G1 X142.055 Y104.635 E12.68156
G1 X142.906 Y104.646 E12.69855
G1 X143.483 Y104.671 E12.71007
G1 X143.89 Y104.7 E12.71821
G1 X146.563 Y104.851 E12.77164
G1 X149.096 Y104.923 E12.82221
G1 X151.629 Y104.923 E12.87276
G1 X154.156 Y104.852 E12.92321
G1 X157.423 Y104.661 E12.98852
G1 X158.05 Y104.639 E13.00104
G1 X167.062 Y104.636 E13.18088
G1 X167.763 Y104.646 E13.19487
G1 X168.665 Y104.699 E13.2129
G1 X169.558 Y104.831 E13.23092
G1 X170.437 Y105.042 E13.24896
G1 X171.293 Y105.33 E13.26698
G1 X172.12 Y105.692 E13.285
G1 X172.912 Y106.126 E13.30302
G1 X173.662 Y106.629 E13.32104
G1 X174.365 Y107.196 E13.33906
G1 X175.015 Y107.822 E13.35707
G1 X175.608 Y108.504 E13.37511
G1 X176.137 Y109.236 E13.39313
G1 X176.733 Y110.267 E13.4169
G1 X176.959 Y110.717 E13.42695
G1 X180.859 Y118.853 E13.607
G1 X181.163 Y119.511 E13.62146
G1 X181.388 Y120.037 E13.63288
G1 X181.789 Y121.05 E13.65462
G1 X181.93 Y121.385 E13.66188
G1 X182.29 Y122.303 E13.68155
G1 X183.278 Y124.632 E13.73204
G1 X184.495 Y127.279 E13.79018
G1 X189.112 Y136.916 E14.00343
G1 X189.488 Y137.728 E14.02129
G1 X189.83 Y138.564 E14.03931
G1 X190.097 Y139.427 E14.05734
G1 X190.286 Y140.31 E14.07536
G1 X190.397 Y141.206 E14.09338
G1 X190.427 Y142.109 E14.11141
G1 X190.378 Y143.01 E14.12941
G1 X190.25 Y143.904 E14.14744
G1 X190.042 Y144.783 E14.16546
G1 X189.758 Y145.64 E14.18348
G1 X189.556 Y146.132 E14.19409
G1 X189.324 Y146.643 E14.20529
G1 X184.443 Y156.816 E14.43046
G1 X183.341 Y159.201 E14.48289
G1 X182.341 Y161.53 E14.53347
G1 X181.448 Y163.781 E14.5818
G1 X181.251 Y164.243 E14.59182
G1 X180.651 Y165.556 E14.62063
G1 X177.027 Y173.104 E14.78772
G1 X176.719 Y173.721 E14.80148
G1 X176.158 Y174.704 E14.82407
G1 X175.631 Y175.517 E14.84341
G1 X175.05 Y176.386 E14.86427
G1 X173.714 Y178.511 E14.91436
G1 X172.41 Y180.724 E14.96562
G1 X171.185 Y182.943 E15.0162
G1 X170.031 Y185.182 E15.06647
G1 X168.923 Y187.488 E15.11752
G1 X167.887 Y189.811 E15.16828
G1 X166.917 Y192.161 E15.21902
G1 X166.014 Y194.542 E15.26983
G1 X165.187 Y196.919 E15.32006
G1 X164.415 Y199.358 E15.37111
G1 X163.727 Y201.77 E15.42117
G1 X163.089 Y204.273 E15.47271
G1 X162.512 Y206.832 E15.52506
G1 X162.294 Y207.872 E15.54627
G1 X162.07 Y208.746 E15.56427
G1 X161.769 Y209.598 E15.58231
G1 X161.394 Y210.419 E15.60032
G1 X160.947 Y211.204 E15.61835
G1 X160.348 Y212.058 E15.63916
G1 X159.979 Y212.521 E15.65098
G1 X159.171 Y213.486 E15.67609
G1 X158.591 Y214.159 E15.69382
G1 X157.971 Y214.816 E15.71185
G1 X157.295 Y215.415 E15.72988
G1 X156.569 Y215.952 E15.7479
G1 X155.798 Y216.422 E15.76592
G1 X154.988 Y216.823 E15.78395
G1 X154.147 Y217.15 E15.80196
G1 X153.279 Y217.402 E15.82
G1 X152.393 Y217.576 E15.83802
G1 X151.495 Y217.671 E15.85604
G1 X151.035 Y217.689 E15.86522
G1 X150.153 Y217.7 E15.88283
G1 X149.036 Y217.69 E15.90512
G1 X148.134 Y217.642 E15.92314
G1 X147.24 Y217.514 E15.94117
G1 X146.361 Y217.308 E15.95918
G1 X145.503 Y217.025 E15.97721
G1 X144.674 Y216.667 E15.99523
G1 X143.88 Y216.237 E16.01325
G1 X143.127 Y215.738 E16.03128
G1 X142.42 Y215.175 E16.04932
G1 X141.767 Y214.552 E16.06733
G1 X141.425 Y214.177 E16.07745
G1 X140.891 Y213.56 E16.09374
G1 X140.294 Y212.847 E16.1123
G1 X139.781 Y212.218 E16.12849
G1 X139.242 Y211.493 E16.14652
G1 X138.769 Y210.723 E16.16456
G1 X138.367 Y209.915 E16.18257
G1 X138.037 Y209.074 E16.2006
G1 X137.695 Y207.815 E16.22663
G1 X137.413 Y206.433 E16.25478
G1 X136.845 Y203.858 E16.3074
G1 X136.243 Y201.449 E16.35695
G1 X135.539 Y198.942 E16.40892
G1 X134.79 Y196.534 E16.45924
G1 X133.968 Y194.138 E16.50979
G1 X133.072 Y191.748 E16.56073
G1 X132.12 Y189.413 E16.61105
G1 X131.093 Y187.082 E16.66188
G1 X130.003 Y184.787 E16.71259
G1 X128.851 Y182.528 E16.76319
G1 X127.63 Y180.292 E16.81403
G1 X126.351 Y178.102 E16.86464
G1 X124.999 Y175.927 E16.91575
G1 X124.622 Y175.355 E16.92942
G1 X124.131 Y174.585 E16.94764
G1 X123.538 Y173.519 E16.97199
G1 X119.788 Y165.693 E17.14517
G1 X119.192 Y164.398 E17.17362
G1 X118.02 Y161.946 E17.22785
G1 X117.716 Y161.346 E17.24127
G1 X110.796 Y146.898 E17.56097
G1 X110.503 Y146.26 E17.57498
G1 X110.163 Y145.423 E17.593
G1 X109.898 Y144.56 E17.61102
G1 X109.71 Y143.676 E17.62906
G1 X109.602 Y142.78 E17.64707
G1 X109.573 Y141.877 E17.6651
G1 X109.624 Y140.976 E17.6831
G1 X109.755 Y140.082 E17.70114
G1 X109.964 Y139.203 E17.71917
G1 X110.25 Y138.347 E17.73718
G1 X110.455 Y137.852 E17.74787
