;FLAVOR:Marlin
;TIME:6279
;Filament used: 3.81656m
;Layer height: 0.2
;MINX:75.12
;MINY:97.11
;MINZ:0.32
;MAXX:210.17
;MAXY:211.7
;MAXZ:20.12
;Generated with Cura_SteamEngine 5.2.1
M140 S60
M105
M190 S60
M104 S200
M105
M109 S200
M82 ;absolute extrusion mode
; Ender 3 Max Custom Start G-code
G92 E0 ; Reset Extruder
G28 ; Home all axes
G1 Z2.0 F3000 ; Move Z Axis up little to prevent scratching of Heat Bed
G1 X0.1 Y20 Z0.3 F5000.0 ; Move to start position
G1 X0.1 Y200.0 Z0.3 F1500.0 E15 ; Draw the first line
G1 X0.4 Y200.0 Z0.3 F5000.0 ; Move to side a little
G1 X0.4 Y20 Z0.3 F1500.0 E30 ; Draw the second line
G92 E0 ; Reset Extruder
G1 Z2.0 F3000 ; Move Z Axis up little to prevent scratching of Heat Bed
G1 X5 Y20 Z0.3 F5000.0 ; Move over to prevent blob squish
G92 E0
G92 E0
G1 F1500 E-6.5
;LAYER_COUNT:100
;LAYER:0
M107
G0 F6000 X84.53 Y139.37 Z0.32
;TYPE:SKIRT
G1 F1500 E0
G1 F900 X85.349 Y138.943 E0.05407
G1 X85.88 Y138.711 E0.08799
G1 X86.495 Y138.463 E0.12681
G1 X88.903 Y137.461 E0.27948
G1 X91.198 Y136.431 E0.42674
G1 X93.481 Y135.326 E0.57521
G1 X95.72 Y134.163 E0.7229
G1 X97.952 Y132.921 E0.87242
G1 X100.086 Y131.656 E1.01764
G1 X102.247 Y130.289 E1.16733
G1 X104.34 Y128.882 E1.31496
G1 X106.364 Y127.435 E1.4606
G1 X108.421 Y125.876 E1.61169
G1 X110.364 Y124.315 E1.75759
G1 X112.29 Y122.675 E1.90567
G1 X114.179 Y120.972 E2.05455
G1 X116.021 Y119.216 E2.20352
G1 X117.772 Y117.446 E2.34927
G1 X119.524 Y115.575 E2.49931
G1 X121.168 Y113.716 E2.64458
G1 X122.816 Y111.743 E2.79507
G1 X124.372 Y109.77 E2.94216
G1 X125.874 Y107.749 E3.08956
G1 X127.31 Y105.697 E3.23617
G1 X128.731 Y103.543 E3.38723
G1 X129.628 Y102.113 E3.48604
G1 X130.152 Y101.353 E3.54008
G1 X130.74 Y100.641 E3.59414
G1 X131.388 Y99.983 E3.6482
G1 X132.089 Y99.383 E3.70221
G1 X132.841 Y98.846 E3.7563
G1 X133.635 Y98.376 E3.81031
G1 X134.468 Y97.977 E3.86438
G1 X135.332 Y97.651 E3.91844
G1 X136.22 Y97.401 E3.97244
G1 X137.127 Y97.229 E4.02648
G1 X138.36 Y97.123 E4.09892
G1 X138.98 Y97.11 E4.13522
G1 X143.08 Y97.11 E4.37523
G1 X143.929 Y97.121 E4.42493
G1 X144.759 Y97.153 E4.47355
G1 X147.426 Y97.228 E4.62974
G1 X149.932 Y97.228 E4.77643
G1 X152.575 Y97.153 E4.93121
G1 X153.555 Y97.117 E4.98862
G1 X153.948 Y97.11 E5.01163
G1 X158.196 Y97.111 E5.26029
G1 X158.894 Y97.121 E5.30116
G1 X159.815 Y97.174 E5.35516
G1 X160.729 Y97.307 E5.40923
G1 X161.628 Y97.518 E5.46328
G1 X162.505 Y97.807 E5.51734
G1 X163.354 Y98.17 E5.57139
G1 X164.168 Y98.605 E5.62541
G1 X164.942 Y99.109 E5.67948
G1 X165.669 Y99.678 E5.73352
G1 X166.344 Y100.308 E5.78757
G1 X166.962 Y100.994 E5.84162
G1 X167.518 Y101.73 E5.89562
G1 X168.009 Y102.513 E5.94972
G1 X168.43 Y103.334 E6.00373
G1 X168.778 Y104.189 E6.05777
G1 X169.051 Y105.071 E6.11181
G1 X169.247 Y105.973 E6.16585
G1 X169.39 Y107.303 E6.24415
G1 X169.494 Y109.619 E6.37986
G1 X169.676 Y112.169 E6.52951
G1 X169.928 Y114.682 E6.67735
G1 X170.252 Y117.197 E6.82579
G1 X170.643 Y119.681 E6.97299
G1 X171.104 Y122.153 E7.12019
G1 X171.639 Y124.633 E7.26871
G1 X172.244 Y127.09 E7.41683
G1 X172.917 Y129.527 E7.56483
G1 X173.66 Y131.947 E7.71301
G1 X174.47 Y134.343 E7.86107
G1 X175.342 Y136.699 E8.00813
G1 X176.289 Y139.053 E8.15666
G1 X177.296 Y141.364 E8.30422
G1 X178.365 Y143.641 E8.45147
G1 X179.521 Y145.93 E8.60158
G1 X180.712 Y148.135 E8.74829
G1 X181.974 Y150.317 E8.89584
G1 X183.303 Y152.473 E9.0441
G1 X184.685 Y154.581 E9.19165
G1 X186.117 Y156.633 E9.33813
G1 X187.648 Y158.703 E9.48884
G1 X189.2 Y160.68 E9.63597
G1 X190.807 Y162.613 E9.78312
G1 X192.485 Y164.516 E9.93164
G1 X194.21 Y166.369 E10.07984
G1 X195.968 Y168.152 E10.22641
G1 X197.819 Y169.925 E10.37645
G1 X199.66 Y171.591 E10.5218
G1 X201.591 Y173.243 E10.67056
G1 X203.548 Y174.822 E10.81775
G1 X205.401 Y176.221 E10.95367
G1 X206.016 Y176.696 E10.99916
G1 X206.722 Y177.292 E11.05324
G1 X207.373 Y177.946 E11.10726
G1 X207.965 Y178.654 E11.16128
G1 X208.494 Y179.411 E11.21534
G1 X208.956 Y180.211 E11.26942
G1 X209.346 Y181.047 E11.32342
G1 X209.663 Y181.915 E11.37752
G1 X209.903 Y182.806 E11.43153
G1 X210.065 Y183.715 E11.48558
G1 X210.158 Y184.953 E11.55826
G1 X210.17 Y185.732 E11.60386
G1 X210.163 Y196.262 E12.22027
G1 X210.153 Y196.92 E12.25879
G1 X210.099 Y197.842 E12.31285
G1 X209.965 Y198.755 E12.36687
G1 X209.753 Y199.654 E12.42094
G1 X209.464 Y200.531 E12.47499
G1 X209.1 Y201.379 E12.52901
G1 X208.664 Y202.193 E12.58307
G1 X208.16 Y202.966 E12.63709
G1 X207.59 Y203.693 E12.69116
G1 X206.96 Y204.367 E12.74517
G1 X206.273 Y204.985 E12.79926
G1 X205.207 Y205.758 E12.87634
G1 X204.501 Y206.206 E12.92529
G1 X202.358 Y207.611 E13.07529
G1 X199.773 Y209.424 E13.26012
G1 X199.436 Y209.668 E13.28448
G1 X198.666 Y210.178 E13.33854
G1 X197.855 Y210.619 E13.39258
G1 X197.009 Y210.988 E13.44661
G1 X196.134 Y211.283 E13.50066
G1 X195.237 Y211.501 E13.5547
G1 X194.324 Y211.641 E13.60877
G1 X193.403 Y211.7 E13.66279
G1 X192.48 Y211.681 E13.71683
G1 X191.562 Y211.581 E13.77089
G1 X191.001 Y211.48 E13.80426
G1 X188.372 Y210.933 E13.96145
G1 X185.879 Y210.486 E14.10971
G1 X183.38 Y210.111 E14.25764
G1 X180.87 Y209.806 E14.40565
G1 X178.131 Y209.552 E14.56667
G1 X177.333 Y209.448 E14.61378
G1 X176.264 Y209.265 E14.67726
G1 X167.316 Y207.594 E15.21012
G1 X166.6 Y207.45 E15.25287
G1 X165.989 Y207.308 E15.28959
G1 X165.229 Y207.108 E15.33559
G1 X151.622 Y203.309 E16.16258
G1 X151.047 Y203.14 E16.19766
G1 X150.444 Y202.944 E16.23478
G1 X149.599 Y202.64 E16.28735
G1 X144.498 Y200.707 E16.60667
G1 X143.317 Y200.233 E16.68116
G1 X130.766 Y194.748 E17.48296
G1 X130.162 Y194.475 E17.52177
G1 X129.553 Y194.175 E17.56151
G1 X128.236 Y193.47 E17.64895
G1 X122.432 Y190.215 E18.03849
G1 X121.031 Y189.404 E18.13325
G1 X111.771 Y183.884 E18.76431
G1 X109.35 Y182.394 E18.93072
G1 X107.149 Y181.102 E19.08012
G1 X104.941 Y179.886 E19.22768
G1 X102.71 Y178.74 E19.3745
G1 X100.398 Y177.633 E19.52455
G1 X98.099 Y176.613 E19.67178
G1 X95.797 Y175.666 E19.81749
G1 X93.363 Y174.747 E19.96979
G1 X91.03 Y173.939 E20.11432
G1 X88.259 Y173.071 E20.2843
G1 X87.074 Y172.638 E20.35815
G1 X85.946 Y172.145 E20.43021
G1 X84.967 Y171.691 E20.49338
G1 X84.147 Y171.266 E20.54745
G1 X83.367 Y170.773 E20.60146
G1 X82.832 Y170.376 E20.64046
G1 X82.11 Y169.804 E20.69438
G1 X81.027 Y168.9 E20.77696
G1 X80.347 Y168.276 E20.83099
G1 X79.723 Y167.596 E20.88501
G1 X79.324 Y167.091 E20.92269
G1 X78.607 Y166.12 E20.99335
G1 X77.975 Y165.22 E21.05772
G1 X77.478 Y164.442 E21.11176
G1 X77.05 Y163.624 E21.16581
G1 X76.786 Y163.014 E21.20472
G1 X76.351 Y161.904 E21.2745
G1 X75.957 Y160.822 E21.34191
G1 X75.679 Y159.942 E21.39593
G1 X75.479 Y159.041 E21.44996
G1 X75.365 Y158.216 E21.49871
G1 X75.17 Y156.229 E21.61559
G1 X75.12 Y155.307 E21.66964
G1 X75.149 Y154.384 E21.72369
G1 X75.245 Y153.552 E21.77272
G1 X75.452 Y152.219 E21.85169
G1 X75.621 Y151.276 E21.90777
G1 X75.826 Y150.376 E21.9618
G1 X76.108 Y149.497 E22.01584
G1 X76.326 Y148.955 E22.05004
G1 X76.811 Y147.845 E22.12095
G1 X77.268 Y146.862 E22.1844
G1 X77.693 Y146.042 E22.23847
G1 X78.187 Y145.263 E22.29246
G1 X78.578 Y144.736 E22.33088
G1 X79.15 Y144.014 E22.3848
G1 X80.054 Y142.931 E22.46738
G1 X80.678 Y142.251 E22.5214
G1 X81.358 Y141.627 E22.57543
G1 X81.862 Y141.228 E22.61306
G1 X82.849 Y140.5 E22.68485
G1 X83.019 Y140.381 E22.697
G0 F810 X83.752 Y139.867
G0 X84.53 Y139.37
G0 F6000 X84.767 Y139.742
G1 F900 X85.569 Y139.325 E22.74991
G1 X86.045 Y139.119 E22.78027
G1 X86.632 Y138.882 E22.81733
G1 X89.071 Y137.868 E22.97195
G1 X91.387 Y136.828 E23.12057
G1 X93.692 Y135.712 E23.27048
G1 X95.94 Y134.544 E23.41878
G1 X98.138 Y133.322 E23.56599
G1 X100.335 Y132.019 E23.71552
G1 X102.492 Y130.655 E23.86491
G1 X104.59 Y129.244 E24.01291
G1 X106.633 Y127.783 E24.15994
G1 X108.688 Y126.227 E24.31083
G1 X110.651 Y124.649 E24.45826
G1 X112.578 Y123.008 E24.60642
G1 X114.485 Y121.289 E24.75672
G1 X116.309 Y119.55 E24.90424
G1 X118.095 Y117.746 E25.05284
G1 X119.845 Y115.876 E25.20276
G1 X121.509 Y113.995 E25.34977
G1 X123.156 Y112.023 E25.50018
G1 X124.724 Y110.035 E25.64839
G1 X126.214 Y108.029 E25.79467
G1 X127.695 Y105.915 E25.94576
G1 X129.098 Y103.786 E26.09502
G1 X130.001 Y102.347 E26.19446
G1 X130.515 Y101.603 E26.2474
G1 X131.092 Y100.908 E26.30028
G1 X131.729 Y100.266 E26.35322
G1 X132.42 Y99.683 E26.40614
G1 X133.16 Y99.164 E26.45905
G1 X133.943 Y98.712 E26.51198
G1 X134.762 Y98.331 E26.56485
G1 X135.613 Y98.023 E26.61783
G1 X136.487 Y97.792 E26.67075
G1 X137.378 Y97.64 E26.72366
G1 X138.372 Y97.563 E26.78202
G1 X138.98 Y97.55 E26.81762
G1 X143.08 Y97.55 E27.05762
G1 X143.923 Y97.561 E27.10698
G1 X144.802 Y97.594 E27.15847
G1 X147.413 Y97.668 E27.31137
G1 X149.945 Y97.668 E27.45959
G1 X152.601 Y97.593 E27.61513
G1 X153.571 Y97.557 E27.67195
G1 X153.948 Y97.55 E27.69402
G1 X158.189 Y97.551 E27.94228
G1 X158.887 Y97.561 E27.98314
G1 X159.79 Y97.614 E28.03609
G1 X160.684 Y97.746 E28.08899
G1 X161.563 Y97.957 E28.14191
G1 X162.42 Y98.245 E28.19483
G1 X163.248 Y98.608 E28.24776
G1 X164.041 Y99.042 E28.30067
G1 X164.793 Y99.544 E28.3536
G1 X165.497 Y100.111 E28.40652
G1 X166.148 Y100.738 E28.45943
G1 X166.741 Y101.42 E28.51233
G1 X167.272 Y102.152 E28.56527
G1 X167.736 Y102.928 E28.61819
G1 X168.129 Y103.742 E28.67111
G1 X168.449 Y104.587 E28.724
G1 X168.694 Y105.458 E28.77696
G1 X168.86 Y106.346 E28.82985
G1 X168.951 Y107.323 E28.88728
G1 X169.056 Y109.669 E29.02475
G1 X169.238 Y112.211 E29.17394
G1 X169.492 Y114.745 E29.32301
G1 X169.815 Y117.255 E29.47116
G1 X170.204 Y119.724 E29.61747
G1 X170.683 Y122.289 E29.77021
G1 X171.201 Y124.692 E29.91411
G1 X171.82 Y127.205 E30.06561
G1 X172.5 Y129.666 E30.21507
G1 X173.24 Y132.078 E30.36276
G1 X174.047 Y134.466 E30.51032
G1 X174.934 Y136.865 E30.66004
G1 X175.883 Y139.223 E30.80883
G1 X176.895 Y141.545 E30.95711
G1 X177.974 Y143.843 E31.10572
G1 X179.127 Y146.126 E31.25543
G1 X180.314 Y148.323 E31.40161
G1 X181.611 Y150.567 E31.55333
G1 X182.931 Y152.708 E31.70057
G1 X184.312 Y154.814 E31.84799
G1 X185.78 Y156.918 E31.99817
G1 X187.295 Y158.966 E32.14729
G1 X188.855 Y160.954 E32.29522
G1 X190.468 Y162.894 E32.44291
G1 X192.145 Y164.796 E32.59134
G1 X193.903 Y166.684 E32.74236
G1 X195.662 Y168.468 E32.88901
G1 X197.512 Y170.24 E33.03897
G1 X199.371 Y171.923 E33.18577
G1 X201.324 Y173.593 E33.33619
G1 X203.285 Y175.176 E33.48372
G1 X205.132 Y176.57 E33.61917
G1 X205.747 Y177.045 E33.66466
G1 X206.437 Y177.628 E33.71754
G1 X207.073 Y178.271 E33.77048
G1 X207.65 Y178.967 E33.8234
G1 X208.163 Y179.711 E33.87631
G1 X208.608 Y180.498 E33.92923
G1 X208.982 Y181.321 E33.98215
G1 X209.282 Y182.174 E34.03508
G1 X209.505 Y183.05 E34.08799
G1 X209.65 Y183.942 E34.14089
G1 X209.719 Y184.961 E34.20068
G1 X209.729 Y185.554 E34.2354
G1 X209.723 Y196.255 E34.86181
G1 X209.713 Y196.913 E34.90033
G1 X209.659 Y197.816 E34.95329
G1 X209.526 Y198.71 E35.0062
G1 X209.314 Y199.589 E35.05913
G1 X209.026 Y200.445 E35.112
G1 X208.662 Y201.273 E35.16494
G1 X208.228 Y202.066 E35.21786
G1 X207.724 Y202.817 E35.2708
G1 X207.157 Y203.52 E35.32367
G1 X206.529 Y204.171 E35.37662
G1 X205.847 Y204.764 E35.42953
G1 X204.971 Y205.386 E35.49242
G1 X204.3 Y205.812 E35.53894
G1 X202.086 Y207.264 E35.69393
G1 X199.573 Y209.025 E35.87356
G1 X199.178 Y209.312 E35.90214
G1 X198.423 Y209.811 E35.95512
G1 X197.628 Y210.24 E36.008
G1 X196.798 Y210.598 E36.06091
G1 X195.939 Y210.881 E36.11386
G1 X195.059 Y211.087 E36.16676
G1 X194.164 Y211.215 E36.21969
G1 X193.261 Y211.263 E36.27262
G1 X192.358 Y211.231 E36.32551
G1 X191.091 Y211.049 E36.40044
G1 X188.467 Y210.503 E36.55734
G1 X185.956 Y210.053 E36.70667
G1 X183.422 Y209.673 E36.85666
G1 X180.934 Y209.37 E37.00338
G1 X178.171 Y209.114 E37.16581
G1 X177.407 Y209.014 E37.21091
G1 X176.511 Y208.862 E37.26411
G1 X167.403 Y207.162 E37.80648
G1 X166.687 Y207.018 E37.84924
G1 X166.101 Y206.883 E37.88444
G1 X165.341 Y206.683 E37.93044
G1 X151.88 Y202.926 E38.74853
G1 X151.171 Y202.718 E38.79179
G1 X150.593 Y202.53 E38.82737
G1 X149.586 Y202.166 E38.89005
G1 X144.794 Y200.35 E39.19003
G1 X143.493 Y199.83 E39.27204
G1 X130.942 Y194.345 E40.07385
G1 X130.343 Y194.074 E40.11233
G1 X129.76 Y193.787 E40.15037
G1 X128.642 Y193.191 E40.22454
G1 X122.647 Y189.831 E40.62683
G1 X121.257 Y189.026 E40.72086
G1 X112.001 Y183.509 E41.35163
G1 X110.092 Y182.34 E41.48267
G1 X109.554 Y182.003 E41.51983
G1 X107.374 Y180.722 E41.66784
G1 X105.171 Y179.51 E41.81503
G1 X102.89 Y178.338 E41.96515
G1 X100.597 Y177.24 E42.11397
G1 X98.263 Y176.204 E42.26345
G1 X95.939 Y175.249 E42.41053
G1 X93.556 Y174.349 E42.55965
G1 X91.136 Y173.51 E42.70958
G1 X88.386 Y172.649 E42.87826
G1 X87.249 Y172.234 E42.94912
G1 X86.131 Y171.746 E43.02053
G1 X85.152 Y171.292 E43.0837
G1 X84.35 Y170.875 E43.13661
G1 X83.587 Y170.39 E43.18953
G1 X83.106 Y170.031 E43.22467
G1 X82.158 Y169.275 E43.29565
G1 X81.31 Y168.563 E43.36047
G1 X80.644 Y167.952 E43.41337
G1 X80.035 Y167.284 E43.46629
G1 X79.677 Y166.829 E43.50018
G1 X78.967 Y165.867 E43.57017
G1 X78.335 Y164.967 E43.63454
G1 X77.849 Y164.205 E43.68745
G1 X77.432 Y163.403 E43.74036
G1 X77.195 Y162.852 E43.77548
G1 X76.765 Y161.754 E43.8445
G1 X76.371 Y160.672 E43.91191
G1 X76.099 Y159.81 E43.96482
G1 X75.905 Y158.927 E44.01774
G1 X75.803 Y158.173 E44.06228
G1 X75.608 Y156.186 E44.17916
G1 X75.559 Y155.283 E44.23209
G1 X75.591 Y154.38 E44.28499
G1 X75.68 Y153.62 E44.32978
G1 X75.887 Y152.287 E44.40875
G1 X76.054 Y151.355 E44.46417
G1 X76.255 Y150.474 E44.51707
G1 X76.534 Y149.614 E44.56999
G1 X76.729 Y149.13 E44.60054
G1 X77.099 Y148.276 E44.65502
G1 X77.667 Y147.048 E44.73422
G1 X78.084 Y146.245 E44.78719
G1 X78.57 Y145.483 E44.8401
G1 X78.923 Y145.01 E44.87464
G1 X79.679 Y144.062 E44.94562
G1 X80.391 Y143.214 E45.01044
G1 X81.002 Y142.548 E45.06335
G1 X81.67 Y141.939 E45.11626
G1 X82.125 Y141.581 E45.15015
G1 X83.102 Y140.86 E45.22123
G1 X83.256 Y140.752 E45.23224
G0 F810 X84.005 Y140.227
G0 X84.767 Y139.742
G1 F1500 E38.73224
;MESH:End_Clip.STL
G0 F6000 X137.985 Y127.436
G0 X139.084 Y127.436
G0 X157.86 Y126.98
G1 F1500 E45.23224
G0 F6000 X158.09 Y127.21
;TYPE:WALL-INNER
G1 F900 X158.09 Y110.345 E46.21948
G1 X158.09 Y108.43 E46.33158
G1 X154.26 Y108.43 E46.55578
G1 X154.257 Y124.712 E47.5089
G1 X154.135 Y124.974 E47.52582
G1 X153.916 Y125.169 E47.54298
G1 X153.685 Y125.25 E47.55731
G1 X143.791 Y125.253 E48.13648
G1 X143.471 Y125.172 E48.15581
G1 X143.253 Y124.978 E48.17289
G1 X143.13 Y124.716 E48.18983
G1 X143.127 Y108.43 E49.14318
G1 X139.31 Y108.43 E49.36662
G1 X139.311 Y127.209 E50.4659
G1 X156.272 Y127.21 E51.45876
G0 F810 X158.09 Y127.21
G0 F6000 X158.53 Y127.65
;TYPE:WALL-OUTER
G1 F900 X158.53 Y110.345 E52.47176
G1 X158.53 Y107.99 E52.60961
G1 X153.82 Y107.99 E52.88533
G1 X153.817 Y124.631 E53.85946
G1 X153.777 Y124.718 E53.86506
G1 X153.635 Y124.807 E53.87487
G1 X143.791 Y124.813 E54.45112
G1 X143.683 Y124.786 E54.45763
G1 X143.57 Y124.634 E54.46872
G1 X143.567 Y107.99 E55.44302
G1 X138.87 Y107.99 E55.71798
G1 X138.871 Y127.649 E56.86877
G1 X156.712 Y127.65 E57.91315
G0 F810 X158.53 Y127.65
G0 F6000 X157.86 Y126.98
G0 X157.694 Y126.814
;TYPE:SKIN
G1 F900 X157.694 Y110.345 E58.87721
G1 X157.694 Y108.826 E58.96612
G1 X154.656 Y108.826 E59.14396
G1 X154.652 Y124.615 E60.06822
G1 X154.62 Y124.854 E60.08233
G1 X154.458 Y125.211 E60.10528
G1 X154.116 Y125.517 E60.13214
G1 X153.744 Y125.643 E60.15514
G1 X143.766 Y125.649 E60.73923
G1 X143.28 Y125.526 E60.76857
G1 X142.929 Y125.215 E60.79602
G1 X142.767 Y124.858 E60.81897
G1 X142.735 Y124.621 E60.83297
G1 X142.731 Y108.826 E61.75758
G1 X139.706 Y108.826 E61.93466
G1 X139.707 Y126.813 E62.98758
G1 X155.876 Y126.814 E63.93407
