;FLAVOR:Marlin
;TIME:6127
;Filament used: 2.98875m
;Layer height: 0.16
;MINX:70.16
;MINY:130.436
;MINZ:0.2
;MAXX:217.367
;MAXY:189.424
;MAXZ:14.36
;Generated with Cura_SteamEngine 5.2.1
M140 S60
M105
M190 S60
M104 S215
M105
M109 S215
M82 ;absolute extrusion mode
; Ender 3 Max Custom Start G-code
G92 E0 ; Reset Extruder
G28 ; Home all axes
G1 Z2.0 F3000 ; Move Z Axis up little to prevent scratching of Heat Bed
G1 X0.1 Y20 Z0.3 F5000.0 ; Move to start position
G1 X0.1 Y200.0 Z0.3 F1500.0 E15 ; Draw the first line
G1 X0.4 Y200.0 Z0.3 F5000.0 ; Move to side a little
G1 X0.4 Y20 Z0.3 F1500.0 E30 ; Draw the second line
G92 E0 ; Reset Extruder
G1 Z2.0 F3000 ; Move Z Axis up little to prevent scratching of Heat Bed
G1 X5 Y20 Z0.3 F5000.0 ; Move over to prevent blob squish
G92 E0
G92 E0
G1 F1500 E-6.5
;LAYER_COUNT:115
;LAYER:0
M107
G0 F6000 X80.831 Y133.679 Z0.2
;TYPE:SKIRT
G1 F1500 E0
G1 F1200 X81.634 Y133.194 E0.0312
G1 X82.475 Y132.779 E0.06239
G1 X83.348 Y132.437 E0.09358
G1 X84.248 Y132.171 E0.12479
G1 X85.166 Y131.982 E0.15597
G1 X86.098 Y131.873 E0.18718
G1 X86.767 Y131.843 E0.20945
G1 X89.692 Y131.803 E0.30674
G1 X92.19 Y131.699 E0.3899
G1 X94.673 Y131.525 E0.47269
G1 X98.398 Y131.15 E0.59721
G1 X99.334 Y131.096 E0.62839
G1 X100.271 Y131.122 E0.65957
G1 X101.203 Y131.228 E0.69077
G1 X102.123 Y131.412 E0.72197
G1 X103.023 Y131.675 E0.75316
G1 X103.817 Y131.977 E0.78141
G1 X107.378 Y133.496 E0.91018
G1 X109.702 Y134.407 E0.9932
G1 X112.073 Y135.259 E1.077
G1 X114.467 Y136.044 E1.16079
G1 X116.892 Y136.764 E1.24493
G1 X119.304 Y137.407 E1.32795
G1 X121.765 Y137.988 E1.41206
G1 X124.228 Y138.497 E1.49571
G1 X126.718 Y138.938 E1.57981
G1 X129.185 Y139.303 E1.66276
G1 X131.681 Y139.602 E1.74637
G1 X134.196 Y139.831 E1.83037
G1 X136.71 Y139.987 E1.91414
G1 X139.231 Y140.073 E1.99804
G1 X141.761 Y140.087 E2.08219
G1 X144.243 Y140.032 E2.16476
G1 X146.776 Y139.903 E2.24912
G1 X149.28 Y139.705 E2.33266
G1 X151.789 Y139.434 E2.4166
G1 X154.29 Y139.093 E2.50055
G1 X156.75 Y138.685 E2.58349
G1 X159.241 Y138.201 E2.66789
G1 X161.675 Y137.656 E2.75085
G1 X164.118 Y137.035 E2.83469
G1 X166.567 Y136.338 E2.91937
G1 X168.938 Y135.592 E3.00205
G1 X171.332 Y134.762 E3.08632
G1 X173.696 Y133.866 E3.17041
G1 X177.144 Y132.453 E3.29434
G1 X178.125 Y132.089 E3.32914
G1 X178.844 Y131.848 E3.35437
G1 X179.475 Y131.653 E3.37633
G1 X180.167 Y131.457 E3.40025
G1 X181.222 Y131.194 E3.43642
G1 X182.256 Y130.973 E3.47159
G1 X182.936 Y130.849 E3.49457
G1 X183.6 Y130.743 E3.51694
G1 X183.96 Y130.694 E3.52902
G1 X184.995 Y130.573 E3.56368
G1 X185.783 Y130.507 E3.58998
G1 X186.714 Y130.455 E3.621
G1 X187.506 Y130.436 E3.64735
G1 X188.209 Y130.436 E3.67073
G1 X188.945 Y130.452 E3.69521
G1 X190.235 Y130.528 E3.73819
G1 X191.019 Y130.602 E3.76438
G1 X191.746 Y130.689 E3.78874
G1 X192.424 Y130.785 E3.81151
G1 X193.46 Y130.967 E3.8465
G1 X194.186 Y131.116 E3.87115
G1 X195.499 Y131.436 E3.9161
G1 X196.236 Y131.645 E3.94158
G1 X197.174 Y131.938 E3.97426
G1 X197.911 Y132.194 E4.00021
G1 X198.509 Y132.418 E4.02145
G1 X199.199 Y132.694 E4.04617
G1 X200.186 Y133.128 E4.08203
G1 X200.854 Y133.444 E4.10661
G1 X201.717 Y133.884 E4.13883
G1 X202.342 Y134.226 E4.16252
G1 X203.316 Y134.801 E4.20014
G1 X204.189 Y135.357 E4.23457
G1 X205.023 Y135.931 E4.26824
G1 X205.634 Y136.381 E4.29348
G1 X206.408 Y136.984 E4.32611
G1 X206.978 Y137.458 E4.35077
G1 X207.528 Y137.938 E4.37505
G1 X208.304 Y138.656 E4.41021
G1 X209.05 Y139.398 E4.44521
G1 X209.535 Y139.912 E4.46871
G1 X210.241 Y140.703 E4.50398
G1 X210.7 Y141.251 E4.52775
G1 X211.102 Y141.753 E4.54914
G1 X211.569 Y142.366 E4.57477
G1 X212.366 Y143.496 E4.62076
G1 X212.795 Y144.154 E4.64689
G1 X213.277 Y144.942 E4.67761
G1 X213.671 Y145.633 E4.70407
G1 X214.156 Y146.543 E4.73837
G1 X214.47 Y147.18 E4.76199
G1 X214.764 Y147.812 E4.78517
G1 X215.045 Y148.455 E4.80851
G1 X215.452 Y149.475 E4.84504
G1 X215.701 Y150.155 E4.86912
G1 X216.02 Y151.117 E4.90283
G1 X216.123 Y151.449 E4.91439
G1 X216.327 Y152.166 E4.93919
G1 X216.497 Y152.819 E4.96163
G1 X216.665 Y153.531 E4.98596
G1 X216.868 Y154.526 E5.01974
G1 X216.932 Y154.874 E5.03151
G1 X217.044 Y155.58 E5.05528
G1 X217.185 Y156.646 E5.09105
G1 X217.254 Y157.349 E5.11454
G1 X217.327 Y158.383 E5.14902
G1 X217.356 Y159.123 E5.17365
G1 X217.367 Y159.807 E5.1964
G1 X217.361 Y160.564 E5.22158
G1 X217.321 Y161.574 E5.2552
G1 X217.244 Y162.625 E5.29025
G1 X217.173 Y163.311 E5.31319
G1 X217.078 Y164.058 E5.33823
G1 X216.909 Y165.108 E5.3736
G1 X216.785 Y165.769 E5.39597
G1 X216.553 Y166.811 E5.43148
G1 X216.359 Y167.577 E5.45776
G1 X216.092 Y168.506 E5.48991
G1 X215.878 Y169.184 E5.51356
G1 X215.54 Y170.148 E5.54753
G1 X215.273 Y170.846 E5.57239
G1 X214.844 Y171.863 E5.6091
G1 X214.401 Y172.819 E5.64415
G1 X213.988 Y173.637 E5.67462
G1 X213.589 Y174.371 E5.70241
G1 X213.258 Y174.945 E5.72445
G1 X212.867 Y175.588 E5.74948
G1 X212.326 Y176.421 E5.78251
G1 X211.902 Y177.033 E5.80728
G1 X211.067 Y178.148 E5.85361
G1 X210.589 Y178.74 E5.87892
G1 X210.188 Y179.215 E5.89959
G1 X209.669 Y179.801 E5.92563
G1 X208.98 Y180.53 E5.95899
G1 X208.43 Y181.08 E5.98486
G1 X207.706 Y181.76 E6.0179
G1 X207.437 Y182.002 E6.02993
G1 X206.894 Y182.469 E6.05375
G1 X206.118 Y183.104 E6.0871
G1 X205.495 Y183.58 E6.11318
G1 X204.95 Y183.976 E6.13559
G1 X204.35 Y184.392 E6.15987
G1 X203.472 Y184.96 E6.19465
G1 X203.172 Y185.146 E6.20639
G1 X202.553 Y185.51 E6.23027
G1 X201.933 Y185.855 E6.25387
G1 X200.997 Y186.342 E6.28897
G1 X200.356 Y186.651 E6.31263
G1 X199.707 Y186.945 E6.33633
G1 X198.473 Y187.453 E6.38072
G1 X197.756 Y187.717 E6.40613
G1 X197.1 Y187.942 E6.42919
G1 X196.362 Y188.176 E6.45494
G1 X195.401 Y188.446 E6.48815
G1 X194.717 Y188.619 E6.51161
G1 X193.709 Y188.84 E6.54593
G1 X193.365 Y188.908 E6.5576
G1 X192.617 Y189.039 E6.58285
G1 X191.928 Y189.143 E6.60603
G1 X191.195 Y189.236 E6.63061
G1 X190.216 Y189.33 E6.66332
G1 X189.452 Y189.382 E6.68879
G1 X188.441 Y189.418 E6.72243
G1 X187.695 Y189.424 E6.74725
G1 X186.699 Y189.4 E6.78038
G1 X186.359 Y189.385 E6.7917
G1 X185.571 Y189.333 E6.81797
G1 X184.595 Y189.242 E6.85057
G1 X184.14 Y189.187 E6.86581
G1 X183.154 Y189.043 E6.89896
G1 X182.465 Y188.924 E6.92221
G1 X181.401 Y188.705 E6.95834
G1 X181.031 Y188.62 E6.97097
G1 X180.355 Y188.45 E6.99415
G1 X179.762 Y188.287 E7.01461
G1 X179.023 Y188.065 E7.04027
G1 X178.025 Y187.73 E7.07529
G1 X177.32 Y187.472 E7.10026
G1 X175.92 Y186.905 E7.15049
G1 X174.325 Y186.222 E7.2082
G1 X172.016 Y185.308 E7.2908
G1 X169.642 Y184.445 E7.37481
G1 X167.242 Y183.649 E7.45891
G1 X164.837 Y182.925 E7.54245
G1 X162.422 Y182.273 E7.62565
G1 X159.96 Y181.682 E7.70986
G1 X157.506 Y181.167 E7.79326
G1 X155.025 Y180.717 E7.87713
G1 X152.516 Y180.336 E7.96153
G1 X150.041 Y180.031 E8.04447
G1 X147.538 Y179.795 E8.12809
G1 X145.022 Y179.629 E8.21196
G1 X142.499 Y179.534 E8.29593
G1 X140.007 Y179.511 E8.37882
G1 X137.479 Y179.559 E8.46292
G1 X134.936 Y179.679 E8.54759
G1 X132.476 Y179.865 E8.62964
G1 X129.922 Y180.131 E8.71505
G1 X127.477 Y180.456 E8.79709
G1 X124.939 Y180.867 E8.8826
G1 X122.516 Y181.33 E8.96465
G1 X120.039 Y181.875 E9.049
G1 X117.613 Y182.481 E9.13217
G1 X115.167 Y183.168 E9.21667
G1 X112.759 Y183.918 E9.30056
G1 X110.374 Y184.735 E9.38441
G1 X108.072 Y185.597 E9.46617
G1 X106.53 Y186.235 E9.52167
G1 X105.151 Y186.791 E9.57112
G1 X104.267 Y187.105 E9.60233
G1 X103.36 Y187.342 E9.63351
G1 X102.436 Y187.501 E9.66469
G1 X101.501 Y187.58 E9.6959
G1 X100.563 Y187.58 E9.7271
G1 X99.6 Y187.496 E9.75925
G1 X98.452 Y187.343 E9.79777
G1 X95.269 Y186.862 E9.90484
G1 X82.66 Y184.93 E10.32911
G1 X81.814 Y184.789 E10.35763
G1 X80.896 Y184.595 E10.38884
G1 X79.999 Y184.323 E10.42002
G1 X79.128 Y183.975 E10.45121
G1 X78.289 Y183.555 E10.48242
G1 X77.49 Y183.064 E10.51361
G1 X76.735 Y182.508 E10.5448
G1 X76.03 Y181.889 E10.576
G1 X75.381 Y181.212 E10.60719
G1 X74.792 Y180.483 E10.63837
G1 X74.266 Y179.706 E10.66957
G1 X73.809 Y178.887 E10.70077
G1 X73.556 Y178.347 E10.7206
G1 X73.111 Y177.324 E10.75771
G1 X71.449 Y173.3 E10.90251
G1 X71.196 Y172.661 E10.92537
G1 X70.889 Y171.775 E10.95656
G1 X70.658 Y170.867 E10.98772
G1 X70.505 Y169.941 E11.01894
G1 X70.431 Y169.006 E11.05013
G1 X70.435 Y168.12 E11.0796
G1 X70.498 Y166.713 E11.12644
G1 X70.539 Y165.989 E11.15056
G1 X70.61 Y163.44 E11.23538
G1 X70.608 Y160.915 E11.31936
G1 X70.537 Y158.425 E11.40221
G1 X70.393 Y155.902 E11.48626
G1 X70.198 Y153.566 E11.56423
G1 X70.16 Y152.629 E11.59542
G1 X70.202 Y151.692 E11.62661
G1 X70.323 Y150.762 E11.65781
G1 X70.524 Y149.845 E11.68903
G1 X70.717 Y149.194 E11.71161
G1 X70.964 Y148.453 E11.73759
G1 X72.364 Y144.445 E11.8788
G1 X72.663 Y143.623 E11.90789
G1 X73.021 Y142.756 E11.93909
G1 X73.453 Y141.924 E11.97027
G1 X73.953 Y141.13 E12.00148
G1 X74.541 Y140.357 E12.03378
G1 X75.27 Y139.483 E12.07163
G1 X78.136 Y136.164 E12.21749
G1 X78.711 Y135.518 E12.24625
G1 X79.364 Y134.846 E12.27742
G1 X80.073 Y134.231 E12.30863
G1 X80.831 Y133.679 E12.33982
G0 F6000 X81.095 Y133.985
G1 F1200 X81.886 Y133.513 E12.37046
G1 X82.714 Y133.111 E12.40107
G1 X83.574 Y132.783 E12.43168
G1 X84.46 Y132.531 E12.46232
G1 X85.364 Y132.357 E12.49294
G1 X86.279 Y132.261 E12.52354
G1 X86.773 Y132.243 E12.53998
G1 X89.679 Y132.203 E12.63664
G1 X92.234 Y132.096 E12.7217
G1 X94.708 Y131.924 E12.80418
G1 X98.438 Y131.548 E12.92887
G1 X99.357 Y131.496 E12.95949
G1 X100.277 Y131.524 E12.9901
G1 X101.191 Y131.631 E13.02071
G1 X102.093 Y131.817 E13.05134
G1 X102.975 Y132.081 E13.08196
G1 X103.66 Y132.345 E13.10638
G1 X107.212 Y133.86 E13.23482
G1 X109.568 Y134.784 E13.31899
G1 X111.949 Y135.64 E13.40314
G1 X114.366 Y136.432 E13.48774
G1 X116.748 Y137.139 E13.57038
G1 X119.215 Y137.796 E13.65529
G1 X121.698 Y138.383 E13.74015
G1 X124.149 Y138.889 E13.82339
G1 X126.621 Y139.327 E13.90689
G1 X129.151 Y139.702 E13.99196
G1 X131.669 Y140.003 E14.07631
G1 X134.169 Y140.23 E14.1598
G1 X136.673 Y140.386 E14.24324
G1 X139.216 Y140.473 E14.32787
G1 X141.767 Y140.487 E14.41272
G1 X144.271 Y140.431 E14.49602
G1 X146.791 Y140.303 E14.57995
G1 X149.321 Y140.103 E14.66436
G1 X151.85 Y139.83 E14.74896
G1 X154.344 Y139.49 E14.83268
G1 X156.821 Y139.079 E14.91619
G1 X159.326 Y138.592 E15.00107
G1 X161.764 Y138.047 E15.08416
G1 X164.221 Y137.422 E15.16848
G1 X166.682 Y136.722 E15.25358
G1 X169.052 Y135.975 E15.33623
G1 X171.468 Y135.138 E15.42127
G1 X173.841 Y134.239 E15.50567
G1 X176.978 Y132.948 E15.6185
G1 X177.961 Y132.573 E15.65349
G1 X178.658 Y132.33 E15.67804
G1 X179.593 Y132.036 E15.71064
G1 X180.581 Y131.762 E15.74474
G1 X181.317 Y131.582 E15.76994
G1 X182.019 Y131.428 E15.79385
G1 X183.007 Y131.243 E15.82728
G1 X183.661 Y131.138 E15.84931
G1 X184.74 Y131.003 E15.88548
G1 X185.807 Y130.906 E15.92111
G1 X186.727 Y130.855 E15.95176
G1 X187.506 Y130.836 E15.97768
G1 X188.209 Y130.836 E16.00106
G1 X188.933 Y130.852 E16.02515
G1 X189.92 Y130.906 E16.05802
G1 X190.627 Y130.964 E16.08162
G1 X191.699 Y131.086 E16.1175
G1 X192.365 Y131.181 E16.13988
G1 X193.702 Y131.422 E16.18506
G1 X194.41 Y131.577 E16.20917
G1 X195.076 Y131.739 E16.23197
G1 X196.118 Y132.027 E16.26792
G1 X197.045 Y132.317 E16.30023
G1 X197.455 Y132.456 E16.31463
G1 X198.368 Y132.793 E16.347
G1 X199.048 Y133.065 E16.37135
G1 X200.023 Y133.494 E16.40678
G1 X200.681 Y133.805 E16.43099
G1 X201.533 Y134.239 E16.46279
G1 X202.147 Y134.575 E16.48607
G1 X203.111 Y135.144 E16.5233
G1 X203.701 Y135.515 E16.54648
G1 X204.511 Y136.06 E16.57896
G1 X204.787 Y136.254 E16.59018
G1 X205.39 Y136.698 E16.61508
G1 X206.154 Y137.293 E16.64729
G1 X206.715 Y137.76 E16.67157
G1 X207.265 Y138.24 E16.69585
G1 X207.771 Y138.701 E16.71861
G1 X208.023 Y138.941 E16.73019
G1 X208.761 Y139.674 E16.76479
G1 X209.238 Y140.18 E16.78791
G1 X209.936 Y140.961 E16.82275
G1 X210.388 Y141.501 E16.84617
G1 X210.79 Y142.003 E16.86756
G1 X211.249 Y142.606 E16.89277
G1 X211.859 Y143.464 E16.92778
G1 X212.277 Y144.087 E16.95274
G1 X212.931 Y145.143 E16.99405
G1 X213.319 Y145.823 E17.02009
G1 X213.798 Y146.722 E17.05397
G1 X214.107 Y147.349 E17.07722
G1 X214.401 Y147.981 E17.1004
G1 X214.678 Y148.613 E17.12335
G1 X214.81 Y148.935 E17.13493
G1 X215.186 Y149.906 E17.16956
G1 X215.425 Y150.583 E17.19344
G1 X215.739 Y151.561 E17.2276
G1 X215.94 Y152.266 E17.25199
G1 X216.11 Y152.919 E17.27443
G1 X216.276 Y153.621 E17.29842
G1 X216.476 Y154.604 E17.33179
G1 X216.648 Y155.634 E17.36652
G1 X216.787 Y156.688 E17.40188
G1 X216.855 Y157.379 E17.42497
G1 X216.927 Y158.401 E17.45905
G1 X216.956 Y159.13 E17.48331
G1 X216.967 Y159.814 E17.50607
G1 X216.952 Y160.875 E17.54136
G1 X216.903 Y161.88 E17.57483
G1 X216.846 Y162.584 E17.59832
G1 X216.775 Y163.27 E17.62126
G1 X216.681 Y164.005 E17.6459
G1 X216.514 Y165.042 E17.68084
G1 X216.392 Y165.692 E17.70283
G1 X216.163 Y166.722 E17.73793
G1 X215.972 Y167.476 E17.7638
G1 X215.708 Y168.394 E17.79557
G1 X215.498 Y169.062 E17.81886
G1 X215.163 Y170.013 E17.85239
G1 X214.9 Y170.7 E17.87686
G1 X214.476 Y171.705 E17.91314
G1 X214.18 Y172.356 E17.93692
G1 X213.635 Y173.449 E17.97755
G1 X213.243 Y174.171 E18.00487
G1 X212.912 Y174.745 E18.02691
G1 X212.527 Y175.379 E18.05158
G1 X211.806 Y176.473 E18.09516
G1 X211.388 Y177.06 E18.11913
G1 X210.754 Y177.898 E18.15408
G1 X210.284 Y178.482 E18.17901
G1 X209.883 Y178.957 E18.19968
G1 X209.371 Y179.534 E18.22534
G1 X208.691 Y180.254 E18.25828
G1 X208.149 Y180.795 E18.28375
G1 X207.434 Y181.467 E18.31639
G1 X206.64 Y182.161 E18.35146
G1 X206.116 Y182.593 E18.37405
G1 X205.528 Y183.055 E18.39892
G1 X204.469 Y183.826 E18.44249
G1 X203.861 Y184.236 E18.46688
G1 X202.967 Y184.803 E18.50209
G1 X202.358 Y185.161 E18.52559
G1 X201.738 Y185.506 E18.54919
G1 X201.125 Y185.83 E18.57225
G1 X199.894 Y186.424 E18.61771
G1 X199.263 Y186.701 E18.64063
G1 X198.332 Y187.078 E18.67404
G1 X197.626 Y187.339 E18.69907
G1 X196.97 Y187.564 E18.72214
G1 X196.244 Y187.794 E18.74747
G1 X195.294 Y188.061 E18.78029
G1 X194.621 Y188.231 E18.80337
G1 X193.625 Y188.449 E18.83729
G1 X192.863 Y188.593 E18.86308
G1 X191.56 Y188.789 E18.9069
G1 X190.837 Y188.872 E18.93111
G1 X190.18 Y188.932 E18.95305
G1 X189.428 Y188.983 E18.97812
G1 X188.429 Y189.018 E19.01137
G1 X187.694 Y189.024 E19.03582
G1 X186.383 Y188.986 E19.07944
G1 X185.606 Y188.935 E19.10534
G1 X184.643 Y188.844 E19.13751
G1 X183.887 Y188.749 E19.16285
G1 X183.214 Y188.648 E19.18549
G1 X182.224 Y188.47 E19.21894
G1 X181.127 Y188.232 E19.25628
G1 X180.461 Y188.064 E19.27912
G1 X179.868 Y187.901 E19.29958
G1 X179.14 Y187.682 E19.32486
G1 X178.154 Y187.351 E19.35945
G1 X177.46 Y187.097 E19.38403
G1 X175.907 Y186.465 E19.4398
G1 X174.494 Y185.858 E19.49095
G1 X172.152 Y184.931 E19.57473
G1 X169.768 Y184.065 E19.65909
G1 X167.379 Y183.273 E19.7428
G1 X164.942 Y182.539 E19.82745
G1 X162.523 Y181.885 E19.9108
G1 X160.056 Y181.293 E19.99518
G1 X157.554 Y180.768 E20.08021
G1 X155.091 Y180.322 E20.16346
G1 X152.588 Y179.942 E20.24766
G1 X150.095 Y179.635 E20.33121
G1 X147.565 Y179.396 E20.41573
G1 X145.062 Y179.231 E20.49916
G1 X142.517 Y179.136 E20.58387
G1 X139.968 Y179.111 E20.66865
G1 X137.453 Y179.159 E20.75231
G1 X134.958 Y179.277 E20.83539
G1 X132.402 Y179.471 E20.92065
G1 X129.899 Y179.731 E21.00435
G1 X127.397 Y180.063 E21.08829
G1 X124.906 Y180.467 E21.17223
G1 X122.392 Y180.947 E21.25735
G1 X119.961 Y181.482 E21.34014
G1 X117.504 Y182.096 E21.42438
G1 X115.054 Y182.784 E21.50902
G1 X112.647 Y183.534 E21.59287
G1 X110.24 Y184.358 E21.67749
G1 X107.907 Y185.232 E21.76035
G1 X106.291 Y185.9 E21.81851
G1 X105.002 Y186.42 E21.86474
G1 X104.134 Y186.727 E21.89536
G1 X103.242 Y186.958 E21.92601
G1 X102.334 Y187.11 E21.95663
