;FLAVOR:Marlin
;TIME:6061
;Filament used: 3.20133m
;Layer height: 0.2
;MINX:100.432
;MINY:127.07
;MINZ:0.2
;MAXX:191.21
;MAXY:168.236
;MAXZ:38.8
;Generated with Cura_SteamEngine 5.2.1
M140 S60
M105
M190 S60
M104 S215
M105
M109 S215
M82 ;absolute extrusion mode
; Ender 3 Max Custom Start G-code
G92 E0 ; Reset Extruder
G28 ; Home all axes
G1 Z2.0 F3000 ; Move Z Axis up little to prevent scratching of Heat Bed
G1 X0.1 Y20 Z0.3 F5000.0 ; Move to start position
G1 X0.1 Y200.0 Z0.3 F1500.0 E15 ; Draw the first line
G1 X0.4 Y200.0 Z0.3 F5000.0 ; Move to side a little
G1 X0.4 Y20 Z0.3 F1500.0 E30 ; Draw the second line
G92 E0 ; Reset Extruder
G1 Z2.0 F3000 ; Move Z Axis up little to prevent scratching of Heat Bed
G1 X5 Y20 Z0.3 F5000.0 ; Move over to prevent blob squish
G92 E0
G92 E0
G1 F1500 E-6.5
;LAYER_COUNT:194
;LAYER:0
M107
G0 F6000 X108.551 Y130.3 Z0.2
;TYPE:SKIRT
G1 F1500 E0
G1 F1200 X109.256 Y129.722 E0.03032
G1 X109.637 Y129.435 E0.04619
G1 X110.133 Y129.078 E0.06651
G1 X110.922 Y128.571 E0.09771
G1 X111.751 Y128.132 E0.12891
G1 X112.615 Y127.766 E0.16011
G1 X113.506 Y127.475 E0.19129
G1 X114.42 Y127.261 E0.22251
G1 X115.348 Y127.126 E0.2537
G1 X116.284 Y127.07 E0.28489
G1 X117.509 Y127.117 E0.32566
G1 X118.614 Y127.227 E0.3626
G1 X119.238 Y127.306 E0.38352
G1 X120.162 Y127.463 E0.41469
G1 X120.907 Y127.651 E0.44025
G1 X123.477 Y128.393 E0.52922
G1 X125.932 Y129.029 E0.61356
G1 X128.394 Y129.591 E0.69756
G1 X130.871 Y130.084 E0.78156
G1 X133.364 Y130.507 E0.86566
G1 X135.817 Y130.854 E0.94806
G1 X138.348 Y131.137 E1.03277
G1 X140.854 Y131.346 E1.11641
G1 X143.351 Y131.484 E1.19958
G1 X145.874 Y131.552 E1.28353
G1 X148.397 Y131.548 E1.36744
G1 X150.92 Y131.473 E1.4514
G1 X153.403 Y131.329 E1.53412
G1 X155.914 Y131.112 E1.61795
G1 X158.453 Y130.819 E1.70296
G1 X160.914 Y130.465 E1.78565
G1 X163.413 Y130.033 E1.87
G1 X165.993 Y129.511 E1.95755
G1 X167.259 Y129.236 E2.00064
G1 X169.439 Y128.797 E2.0746
G1 X171.904 Y128.225 E2.15877
G1 X172.317 Y128.117 E2.17297
G1 X172.486 Y128.081 E2.17871
G1 X173.731 Y127.765 E2.22144
G1 X174.649 Y127.574 E2.25262
G1 X175.58 Y127.461 E2.28381
G1 X176.244 Y127.43 E2.30592
G1 X177.491 Y127.413 E2.3474
G1 X178.353 Y127.423 E2.37607
G1 X179.289 Y127.474 E2.40725
G1 X180.218 Y127.604 E2.43845
G1 X181.132 Y127.813 E2.46964
G1 X182.025 Y128.099 E2.50082
G1 X182.891 Y128.461 E2.53204
G1 X183.722 Y128.894 E2.56321
G1 X184.541 Y129.416 E2.59551
G1 X185.527 Y130.113 E2.63567
G1 X186.237 Y130.642 E2.66512
G1 X186.965 Y131.234 E2.69633
G1 X187.639 Y131.886 E2.72752
G1 X188.256 Y132.593 E2.75873
G1 X188.81 Y133.349 E2.7899
G1 X189.297 Y134.151 E2.82111
G1 X189.715 Y134.99 E2.85229
G1 X190.067 Y135.885 E2.88427
G1 X190.335 Y136.664 E2.91167
G1 X190.709 Y137.84 E2.95272
G1 X190.952 Y138.746 E2.98392
G1 X191.118 Y139.669 E3.01511
G1 X191.204 Y140.603 E3.04631
G1 X191.21 Y141.541 E3.0775
G1 X191.136 Y142.476 E3.1087
G1 X190.983 Y143.401 E3.13988
G1 X190.723 Y144.404 E3.17435
G1 X190.395 Y145.461 E3.21116
G1 X189.959 Y146.748 E3.25635
G1 X189.152 Y149.227 E3.34306
G1 X188.442 Y151.635 E3.42656
G1 X187.802 Y154.059 E3.50995
G1 X187.063 Y157.268 E3.61947
G1 X186.843 Y158.308 E3.65483
G1 X186.602 Y159.24 E3.68685
G1 X186.433 Y159.794 E3.70611
G1 X186.24 Y160.376 E3.7265
G1 X185.897 Y161.249 E3.7577
G1 X185.481 Y162.089 E3.78888
G1 X184.995 Y162.891 E3.82007
G1 X184.442 Y163.649 E3.85127
G1 X183.827 Y164.357 E3.88247
G1 X183.154 Y165.01 E3.91366
G1 X182.458 Y165.579 E3.94356
G1 X182.077 Y165.866 E3.95942
G1 X181.541 Y166.249 E3.98133
G1 X180.751 Y166.754 E4.01252
G1 X179.92 Y167.189 E4.04371
G1 X179.055 Y167.552 E4.07492
G1 X178.162 Y167.84 E4.10612
G1 X177.249 Y168.05 E4.13728
G1 X176.32 Y168.182 E4.16849
G1 X175.209 Y168.236 E4.20549
G1 X174.46 Y168.229 E4.2304
G1 X173.922 Y168.211 E4.2483
G1 X172.987 Y168.14 E4.27949
G1 X172.061 Y167.989 E4.3107
G1 X171.126 Y167.752 E4.34278
G1 X169.679 Y167.317 E4.39303
G1 X167.19 Y166.618 E4.47902
G1 X164.752 Y166.007 E4.56262
G1 X162.298 Y165.466 E4.6462
G1 X159.841 Y164.996 E4.7294
G1 X157.339 Y164.59 E4.8137
G1 X154.83 Y164.256 E4.89789
G1 X152.341 Y163.996 E4.98113
G1 X149.862 Y163.808 E5.06381
G1 X147.308 Y163.687 E5.14886
G1 X144.813 Y163.638 E5.23186
G1 X142.259 Y163.662 E5.31681
G1 X139.763 Y163.755 E5.39988
G1 X137.284 Y163.918 E5.48251
G1 X134.742 Y164.157 E5.56743
G1 X132.263 Y164.462 E5.6505
G1 X129.753 Y164.843 E5.73494
G1 X127.253 Y165.294 E5.81944
G1 X125.517 Y165.651 E5.87838
G1 X124.48 Y165.888 E5.91376
G1 X122.402 Y166.341 E5.9845
G1 X121.137 Y166.599 E6.02744
G1 X117.74 Y167.402 E6.14354
G1 X116.819 Y167.578 E6.17473
G1 X115.886 Y167.676 E6.20593
G1 X115.397 Y167.695 E6.22221
G1 X114.152 Y167.712 E6.26362
G1 X113.289 Y167.702 E6.29232
G1 X112.352 Y167.651 E6.32354
G1 X111.423 Y167.521 E6.35473
G1 X110.509 Y167.312 E6.38592
G1 X109.616 Y167.026 E6.41711
G1 X108.75 Y166.665 E6.44831
G1 X107.919 Y166.231 E6.47949
G1 X107.092 Y165.703 E6.51213
G1 X106.089 Y164.993 E6.553
G1 X105.4 Y164.479 E6.58159
G1 X104.672 Y163.887 E6.6128
G1 X103.998 Y163.234 E6.64401
G1 X103.382 Y162.527 E6.6752
G1 X102.829 Y161.77 E6.70638
G1 X102.342 Y160.969 E6.73756
G1 X101.925 Y160.129 E6.76875
G1 X101.576 Y159.243 E6.80042
G1 X101.211 Y158.17 E6.83812
G1 X100.93 Y157.275 E6.86932
G1 X100.688 Y156.369 E6.90051
G1 X100.523 Y155.446 E6.9317
G1 X100.438 Y154.512 E6.96289
G1 X100.432 Y153.574 E6.99409
G1 X100.507 Y152.639 E7.02529
G1 X100.661 Y151.714 E7.05648
G1 X100.91 Y150.75 E7.08959
G1 X101.269 Y149.597 E7.12976
G1 X101.974 Y147.526 E7.20252
G1 X102.771 Y145.078 E7.28815
G1 X103.484 Y142.662 E7.37193
G1 X104.126 Y140.231 E7.45556
G1 X104.915 Y136.801 E7.57262
G1 X105.114 Y136.056 E7.59827
G1 X105.283 Y135.502 E7.61753
G1 X105.469 Y134.938 E7.63728
G1 X105.811 Y134.065 E7.66847
G1 X106.227 Y133.223 E7.6997
G1 X106.712 Y132.421 E7.73088
G1 X107.264 Y131.663 E7.76207
G1 X107.878 Y130.954 E7.79326
G1 X108.551 Y130.3 E7.82447
G0 F6000 X108.893 Y130.532
G1 F1200 X109.496 Y130.041 E7.85034
G1 X109.877 Y129.754 E7.8662
G1 X110.364 Y129.405 E7.88613
G1 X111.139 Y128.907 E7.91677
G1 X111.954 Y128.479 E7.94739
G1 X112.803 Y128.123 E7.97801
G1 X113.679 Y127.842 E8.0086
G1 X114.577 Y127.639 E8.03923
G1 X115.489 Y127.514 E8.06984
G1 X116.409 Y127.468 E8.10048
G1 X117.472 Y127.515 E8.13587
G1 X118.232 Y127.587 E8.16126
G1 X119.187 Y127.703 E8.19326
G1 X120.095 Y127.858 E8.22389
G1 X120.796 Y128.035 E8.24794
G1 X123.377 Y128.78 E8.33729
G1 X125.848 Y129.42 E8.42219
G1 X128.299 Y129.98 E8.50581
G1 X130.832 Y130.484 E8.59171
G1 X133.278 Y130.899 E8.67423
G1 X135.788 Y131.253 E8.75854
G1 X138.303 Y131.535 E8.84271
G1 X140.8 Y131.743 E8.92605
G1 X143.354 Y131.884 E9.01112
G1 X145.864 Y131.952 E9.09464
G1 X148.41 Y131.948 E9.17932
G1 X150.919 Y131.874 E9.2628
G1 X153.463 Y131.726 E9.34756
G1 X155.958 Y131.51 E9.43085
G1 X158.484 Y131.219 E9.51542
G1 X160.973 Y130.861 E9.59906
G1 X163.482 Y130.427 E9.68375
G1 X166.092 Y129.899 E9.77232
G1 X167.338 Y129.628 E9.81473
G1 X169.543 Y129.184 E9.88954
G1 X171.982 Y128.618 E9.97282
G1 X172.418 Y128.504 E9.98781
G1 X172.59 Y128.467 E9.99366
G1 X173.829 Y128.153 E10.03617
G1 X174.731 Y127.966 E10.06681
G1 X175.645 Y127.857 E10.09742
G1 X176.251 Y127.83 E10.1176
G1 X177.486 Y127.813 E10.15868
G1 X178.348 Y127.823 E10.18735
G1 X179.267 Y127.873 E10.21796
G1 X180.179 Y128.004 E10.24861
G1 X181.075 Y128.212 E10.2792
G1 X181.95 Y128.498 E10.30982
G1 X182.797 Y128.859 E10.34044
G1 X183.61 Y129.292 E10.37108
G1 X184.312 Y129.744 E10.39885
G1 X185.042 Y130.256 E10.4285
G1 X185.998 Y130.963 E10.46805
G1 X186.712 Y131.545 E10.49869
G1 X187.372 Y132.186 E10.52929
G1 X187.975 Y132.882 E10.55992
G1 X188.514 Y133.628 E10.59053
G1 X188.987 Y134.418 E10.62115
G1 X189.39 Y135.246 E10.65178
G1 X189.688 Y136.015 E10.67921
G1 X190.044 Y137.059 E10.7159
G1 X190.328 Y137.961 E10.74735
G1 X190.566 Y138.85 E10.77796
G1 X190.726 Y139.757 E10.80859
G1 X190.807 Y140.674 E10.83921
G1 X190.807 Y141.594 E10.86981
G1 X190.728 Y142.512 E10.90046
G1 X190.57 Y143.419 E10.93108
G1 X190.341 Y144.286 E10.9609
G1 X189.92 Y145.628 E11.00768
G1 X189.573 Y146.642 E11.04333
G1 X188.764 Y149.128 E11.13028
G1 X188.057 Y151.525 E11.2134
G1 X187.413 Y153.964 E11.2973
G1 X186.667 Y157.206 E11.40795
G1 X186.451 Y158.225 E11.4426
G1 X186.22 Y159.123 E11.47344
G1 X186.051 Y159.677 E11.4927
G1 X185.862 Y160.246 E11.51264
G1 X185.525 Y161.102 E11.54324
G1 X185.114 Y161.926 E11.57387
G1 X184.634 Y162.712 E11.6045
G1 X184.087 Y163.452 E11.63511
G1 X183.478 Y164.143 E11.66574
G1 X182.811 Y164.778 E11.69637
G1 X182.218 Y165.26 E11.72179
G1 X181.837 Y165.547 E11.73765
G1 X181.312 Y165.922 E11.75911
G1 X180.535 Y166.416 E11.78973
G1 X179.719 Y166.841 E11.82034
G1 X178.869 Y167.194 E11.85095
G1 X177.991 Y167.472 E11.88158
G1 X177.092 Y167.672 E11.91221
G1 X176.18 Y167.794 E11.94281
G1 X175.21 Y167.836 E11.97511
G1 X174.474 Y167.829 E11.99959
G1 X173.936 Y167.811 E12.01749
G1 X173.018 Y167.74 E12.04812
G1 X172.109 Y167.59 E12.07876
G1 X171.241 Y167.369 E12.10855
G1 X169.792 Y166.934 E12.15887
G1 X167.29 Y166.231 E12.24531
G1 X164.864 Y165.623 E12.32849
G1 X162.388 Y165.076 E12.41283
G1 X159.874 Y164.596 E12.49796
G1 X157.389 Y164.193 E12.58169
G1 X154.923 Y163.865 E12.66443
G1 X152.376 Y163.598 E12.74961
G1 X149.84 Y163.406 E12.8342
G1 X147.335 Y163.287 E12.91761
G1 X144.817 Y163.238 E13.00137
G1 X142.276 Y163.262 E13.08589
G1 X139.72 Y163.357 E13.17096
G1 X137.221 Y163.521 E13.25426
G1 X134.726 Y163.756 E13.33761
G1 X132.191 Y164.068 E13.42256
G1 X129.694 Y164.446 E13.50656
G1 X127.179 Y164.901 E13.59156
G1 X125.443 Y165.257 E13.6505
G1 X124.395 Y165.497 E13.68626
G1 X122.317 Y165.95 E13.757
G1 X121.031 Y166.212 E13.80065
G1 X117.648 Y167.012 E13.91627
G1 X116.744 Y167.185 E13.94689
G1 X115.391 Y167.295 E13.99204
G1 X114.156 Y167.312 E14.03312
G1 X113.293 Y167.302 E14.06182
G1 X112.374 Y167.252 E14.09243
G1 X111.463 Y167.121 E14.12304
G1 X110.566 Y166.913 E14.15367
G1 X109.691 Y166.627 E14.18429
G1 X108.844 Y166.266 E14.21491
G1 X108.031 Y165.833 E14.24555
G1 X107.322 Y165.376 E14.2736
G1 X106.572 Y164.849 E14.30409
G1 X105.639 Y164.158 E14.34271
G1 X104.925 Y163.576 E14.37334
G1 X104.265 Y162.934 E14.40397
G1 X103.663 Y162.238 E14.43458
G1 X103.124 Y161.492 E14.46519
G1 X102.652 Y160.702 E14.49579
G1 X102.249 Y159.873 E14.52645
G1 X101.955 Y159.113 E14.55356
G1 X101.593 Y158.05 E14.5909
G1 X101.312 Y157.155 E14.62211
G1 X101.074 Y156.266 E14.65271
G1 X100.915 Y155.359 E14.68334
G1 X100.835 Y154.442 E14.71396
G1 X100.835 Y153.521 E14.74459
G1 X100.915 Y152.604 E14.77521
G1 X101.074 Y151.697 E14.80583
G1 X101.292 Y150.868 E14.83434
G1 X101.648 Y149.726 E14.87413
G1 X102.338 Y147.698 E14.94538
G1 X103.159 Y145.177 E15.03356
G1 X103.869 Y142.772 E15.11696
G1 X104.513 Y140.333 E15.20087
G1 X105.305 Y136.89 E15.31837
G1 X105.496 Y136.173 E15.34305
G1 X105.665 Y135.619 E15.36231
G1 X105.848 Y135.068 E15.38162
G1 X106.184 Y134.211 E15.41224
G1 X106.594 Y133.386 E15.44288
G1 X107.073 Y132.6 E15.4735
G1 X107.619 Y131.859 E15.50411
G1 X108.227 Y131.167 E15.53475
G1 X108.893 Y130.532 E15.56535
G0 F6000 X109.234 Y130.765
G1 F1200 X109.737 Y130.361 E15.58681
G1 X110.118 Y130.074 E15.60268
G1 X110.594 Y129.732 E15.62217
G1 X111.355 Y129.245 E15.65222
G1 X112.155 Y128.826 E15.68226
G1 X112.99 Y128.481 E15.71231
G1 X113.851 Y128.21 E15.74233
G1 X114.734 Y128.017 E15.77239
G1 X115.629 Y127.903 E15.8024
G1 X116.532 Y127.868 E15.83246
G1 X117.434 Y127.913 E15.8625
G1 X118.194 Y127.985 E15.88789
G1 X119.137 Y128.1 E15.91948
G1 X120.027 Y128.253 E15.94952
G1 X120.685 Y128.419 E15.97209
G1 X123.305 Y129.175 E16.06279
G1 X125.731 Y129.804 E16.14614
G1 X128.237 Y130.376 E16.23164
G1 X130.724 Y130.871 E16.31598
G1 X133.227 Y131.296 E16.40042
G1 X135.72 Y131.648 E16.48416
G1 X138.265 Y131.933 E16.56934
G1 X140.813 Y132.145 E16.65437
G1 X143.322 Y132.284 E16.73795
G1 X145.853 Y132.352 E16.82216
G1 X148.387 Y132.348 E16.90645
G1 X150.956 Y132.272 E16.99193
G1 X153.482 Y132.125 E17.07609
G1 X156.005 Y131.907 E17.16031
G1 X158.55 Y131.613 E17.24552
G1 X161.027 Y131.258 E17.32875
G1 X163.565 Y130.819 E17.41442
G1 X166.128 Y130.3 E17.50139
G1 X167.417 Y130.02 E17.54527
G1 X169.608 Y129.579 E17.6196
G1 X172.102 Y129 E17.70476
G1 X173.928 Y128.54 E17.76739
G1 X174.812 Y128.358 E17.79741
G1 X175.709 Y128.254 E17.82744
G1 X176.258 Y128.23 E17.84572
G1 X177.481 Y128.213 E17.8864
G1 X178.343 Y128.223 E17.91507
G1 X179.245 Y128.273 E17.94512
G1 X180.139 Y128.403 E17.97517
G1 X181.017 Y128.612 E18.00518
G1 X181.874 Y128.897 E18.03522
G1 X182.702 Y129.257 E18.06525
G1 X183.496 Y129.689 E18.09532
G1 X184.082 Y130.071 E18.11858
G1 X184.812 Y130.583 E18.14824
G1 X185.759 Y131.284 E18.18743
G1 X186.459 Y131.855 E18.21747
G1 X187.105 Y132.486 E18.24751
G1 X187.693 Y133.171 E18.27753
G1 X188.218 Y133.906 E18.30758
G1 X188.676 Y134.684 E18.3376
G1 X189.064 Y135.5 E18.36765
G1 X189.31 Y136.145 E18.39061
G1 X189.662 Y137.179 E18.42694
G1 X189.946 Y138.081 E18.4584
G1 X190.179 Y138.953 E18.48842
G1 X190.334 Y139.843 E18.51846
G1 X190.409 Y140.743 E18.5485
G1 X190.405 Y141.646 E18.57854
G1 X190.32 Y142.545 E18.60857
G1 X190.157 Y143.433 E18.6386
G1 X189.959 Y144.167 E18.66388
G1 X189.631 Y145.224 E18.70069
G1 X189.186 Y146.537 E18.7468
G1 X188.396 Y148.964 E18.8317
G1 X187.661 Y151.456 E18.91811
G1 X187.026 Y153.862 E19.00087
G1 X186.283 Y157.09 E19.11104
G1 X186.06 Y158.142 E19.14681
G1 X185.837 Y159.006 E19.17649
G1 X185.668 Y159.56 E19.19575
G1 X185.484 Y160.115 E19.2152
G1 X185.152 Y160.955 E19.24524
G1 X184.747 Y161.763 E19.27531
G1 X184.273 Y162.531 E19.30532
G1 X183.732 Y163.254 E19.33536
G1 X183.13 Y163.927 E19.36539
G1 X182.47 Y164.544 E19.39544
G1 X181.977 Y164.94 E19.41647
G1 X181.596 Y165.227 E19.43234
G1 X181.083 Y165.594 E19.45332
G1 X180.321 Y166.078 E19.48334
G1 X179.519 Y166.493 E19.51337
G1 X178.683 Y166.836 E19.54343
G1 X177.82 Y167.103 E19.57347
G1 X176.937 Y167.293 E19.60352
G1 X176.041 Y167.404 E19.63354
G1 X175.211 Y167.436 E19.66117
G1 X174.487 Y167.429 E19.68525
G1 X173.949 Y167.411 E19.70316
G1 X173.049 Y167.341 E19.73318
G1 X172.158 Y167.192 E19.76323
G1 X171.356 Y166.986 E19.79077
G1 X169.906 Y166.55 E19.84113
G1 X167.39 Y165.844 E19.92804
G1 X164.942 Y165.23 E20.01199
G1 X162.477 Y164.686 E20.09594
G1 X159.942 Y164.202 E20.18178
G1 X157.469 Y163.8 E20.26511
G1 X154.946 Y163.465 E20.34977
G1 X152.415 Y163.2 E20.43441
G1 X149.889 Y163.008 E20.51866
G1 X147.326 Y162.887 E20.60401
G1 X144.822 Y162.838 E20.6873
G1 X142.257 Y162.862 E20.77262
G1 X139.715 Y162.957 E20.85723
G1 X137.194 Y163.122 E20.94125
G1 X134.673 Y163.36 E21.02548
G1 X132.153 Y163.669 E21.10992
G1 X129.634 Y164.051 E21.19466
G1 X127.074 Y164.514 E21.28119
G1 X125.36 Y164.866 E21.33938
G1 X124.31 Y165.106 E21.37521
G1 X122.232 Y165.559 E21.44595
G1 X120.95 Y165.82 E21.48946
G1 X117.556 Y166.623 E21.60546
G1 X116.669 Y166.792 E21.63549
G1 X115.384 Y166.895 E21.67837
G1 X114.161 Y166.912 E21.71905
G1 X113.298 Y166.902 E21.74776
G1 X112.396 Y166.852 E21.7778
G1 X111.502 Y166.722 E21.80785
G1 X110.624 Y166.513 E21.83787
G1 X109.767 Y166.228 E21.86791
G1 X108.939 Y165.868 E21.89794
G1 X108.146 Y165.436 E21.92797
G1 X107.552 Y165.049 E21.95155
G1 X106.567 Y164.352 E21.99169
G1 X105.878 Y163.838 E22.02028
G1 X105.179 Y163.266 E22.05032
G1 X104.533 Y162.635 E22.08035
G1 X103.945 Y161.949 E22.1104
G1 X103.42 Y161.214 E22.14045
G1 X102.963 Y160.435 E22.17049
G1 X102.576 Y159.619 E22.20052
G1 X102.333 Y158.983 E22.22317
G1 X101.974 Y157.93 E22.26017
G1 X101.693 Y157.035 E22.29137
G1 X101.461 Y156.163 E22.32138
G1 X101.307 Y155.273 E22.35142
