;FLAVOR:Marlin
;TIME:6379
;Filament used: 2.71234m
;Layer height: 0.2
;MINX:84.302
;MINY:107.454
;MINZ:0.2
;MAXX:223.024
;MAXY:142.58
;MAXZ:39.6
;Generated with Cura_SteamEngine 5.2.1
M140 S60
M105
M190 S60
M104 S215
M105
M109 S215
M82 ;absolute extrusion mode
; Ender 3 Max Custom Start G-code
G92 E0 ; Reset Extruder
G28 ; Home all axes
G1 Z2.0 F3000 ; Move Z Axis up little to prevent scratching of Heat Bed
G1 X0.1 Y20 Z0.3 F5000.0 ; Move to start position
G1 X0.1 Y200.0 Z0.3 F1500.0 E15 ; Draw the first line
G1 X0.4 Y200.0 Z0.3 F5000.0 ; Move to side a little
G1 X0.4 Y20 Z0.3 F1500.0 E30 ; Draw the second line
G92 E0 ; Reset Extruder
G1 Z2.0 F3000 ; Move Z Axis up little to prevent scratching of Heat Bed
G1 X5 Y20 Z0.3 F5000.0 ; Move over to prevent blob squish
G92 E0
G92 E0
G1 F1500 E-6.5
;LAYER_COUNT:198
;LAYER:0
M107
G0 F6000 X89.189 Y114.573 Z0.2
;TYPE:SKIRT
G1 F1500 E0
G1 F1200 X90.116 Y113.878 E0.03854
G1 X90.913 Y113.312 E0.07105
G1 X91.7 Y112.803 E0.10222
G1 X92.528 Y112.361 E0.13344
G1 X93.39 Y111.993 E0.16461
G1 X94.281 Y111.698 E0.19583
G1 X95.193 Y111.481 E0.22701
G1 X96.286 Y111.326 E0.26373
G1 X99.436 Y111.04 E0.36893
G1 X100.729 Y110.903 E0.41217
G1 X101.677 Y110.844 E0.44376
G1 X102.714 Y110.827 E0.47826
G1 X104.31 Y110.832 E0.53134
G1 X105.329 Y110.883 E0.56528
G1 X106.339 Y110.98 E0.59903
G1 X108.965 Y111.196 E0.68666
G1 X111.498 Y111.333 E0.77103
G1 X113.98 Y111.397 E0.85361
G1 X116.503 Y111.39 E0.93753
G1 X119.083 Y111.31 E1.02338
G1 X120.6 Y111.233 E1.0739
G1 X121.032 Y111.22 E1.08827
G1 X121.688 Y111.213 E1.11009
G1 X127.168 Y111.217 E1.29236
G1 X128.46 Y111.235 E1.33534
G1 X129.964 Y111.278 E1.38538
G1 X132.472 Y111.28 E1.4688
G1 X135.294 Y111.2 E1.56269
G1 X136.375 Y111.223 E1.59866
G1 X137.315 Y111.289 E1.63
G1 X138.122 Y111.357 E1.65693
G1 X140.646 Y111.502 E1.74102
G1 X143.617 Y111.58 E1.83987
G1 X146.267 Y111.57 E1.92801
G1 X147.747 Y111.531 E1.97725
G1 X152.482 Y111.378 E2.13482
G1 X155.275 Y111.206 E2.22789
G1 X156.349 Y111.192 E2.26362
G1 X157.616 Y111.238 E2.30579
G1 X161.61 Y111.296 E2.43864
G1 X165.551 Y111.271 E2.56972
G1 X168.034 Y111.297 E2.65231
G1 X168.301 Y111.294 E2.66119
G1 X170.412 Y111.318 E2.73141
G1 X173.135 Y111.277 E2.82199
G1 X174.367 Y111.245 E2.86298
G1 X177.02 Y111.205 E2.95123
G1 X184.246 Y111.126 E3.19158
G1 X186.73 Y111.027 E3.27426
G1 X189.297 Y110.853 E3.35984
G1 X191.758 Y110.616 E3.44207
G1 X194.266 Y110.302 E3.52614
G1 X196.781 Y109.914 E3.61078
G1 X199.212 Y109.47 E3.69297
G1 X201.697 Y108.941 E3.77747
G1 X204.652 Y108.222 E3.87862
G1 X205.572 Y108.039 E3.90982
G1 X206.22 Y107.959 E3.93154
G1 X206.658 Y107.918 E3.94617
G1 X209.268 Y107.637 E4.03348
G1 X210.17 Y107.527 E4.0637
G1 X211.105 Y107.454 E4.0949
G1 X212.043 Y107.461 E4.12609
G1 X212.977 Y107.547 E4.15729
G1 X213.9 Y107.713 E4.18848
G1 X215.168 Y108.078 E4.23237
G1 X215.49 Y108.192 E4.24373
G1 X216.36 Y108.542 E4.27492
G1 X217.197 Y108.965 E4.30611
G1 X217.995 Y109.458 E4.33731
G1 X218.748 Y110.017 E4.3685
G1 X219.45 Y110.639 E4.3997
G1 X220.097 Y111.318 E4.43089
G1 X220.684 Y112.049 E4.46207
G1 X221.207 Y112.828 E4.49328
G1 X221.696 Y113.72 E4.52712
G1 X221.845 Y114.024 E4.53838
G1 X222.222 Y114.883 E4.56958
G1 X222.524 Y115.771 E4.60077
G1 X222.749 Y116.681 E4.63195
G1 X222.87 Y117.403 E4.6563
G1 X222.918 Y117.761 E4.66831
G1 X223.01 Y118.863 E4.70509
G1 X223.022 Y119.229 E4.71727
G1 X223.024 Y119.887 E4.73916
G1 X223.002 Y120.698 E4.76614
G1 X222.942 Y121.989 E4.80913
G1 X222.891 Y124.528 E4.89359
G1 X222.913 Y127.065 E4.97798
G1 X223.024 Y129.972 E5.07473
G1 X223.023 Y130.838 E5.10354
G1 X223.004 Y131.307 E5.11915
G1 X222.926 Y132.242 E5.15036
G1 X222.826 Y132.882 E5.1719
G1 X222.761 Y133.23 E5.18367
G1 X222.55 Y134.143 E5.21484
G1 X222.261 Y135.036 E5.24606
G1 X221.898 Y135.9 E5.27723
G1 X221.387 Y136.858 E5.31334
G1 X221.241 Y137.102 E5.3228
G1 X220.726 Y137.886 E5.354
G1 X220.146 Y138.622 E5.38517
G1 X219.505 Y139.307 E5.41637
G1 X218.808 Y139.935 E5.44757
G1 X218.06 Y140.501 E5.47877
G1 X217.084 Y141.103 E5.51691
G1 X216.852 Y141.23 E5.52571
G1 X216.011 Y141.645 E5.5569
G1 X215.137 Y141.986 E5.5881
G1 X214.238 Y142.253 E5.61929
G1 X213.319 Y142.441 E5.65049
G1 X212.388 Y142.551 E5.68167
G1 X211.45 Y142.58 E5.71289
G1 X210.533 Y142.532 E5.74343
G1 X209.372 Y142.421 E5.78222
G1 X208.23 Y142.294 E5.82044
G1 X206.289 Y142.126 E5.88524
G1 X205.359 Y142.005 E5.91643
G1 X204.526 Y141.827 E5.94476
G1 X203.829 Y141.65 E5.96868
G1 X201.301 Y141.046 E6.05513
G1 X198.798 Y140.523 E6.14017
G1 X196.342 Y140.081 E6.22317
G1 X193.853 Y139.706 E6.30689
G1 X191.355 Y139.401 E6.39059
G1 X188.873 Y139.169 E6.4735
G1 X186.342 Y139.004 E6.55786
G1 X183.839 Y138.913 E6.64117
G1 X182.281 Y138.905 E6.69299
G1 X180.557 Y138.881 E6.75034
G1 X178.709 Y138.798 E6.81186
G1 X176.167 Y138.734 E6.89644
G1 X173.185 Y138.75 E6.99562
G1 X170.83 Y138.786 E7.07396
G1 X169.98 Y138.819 E7.10225
G1 X168.052 Y138.853 E7.16638
G1 X165.933 Y138.851 E7.23686
G1 X165.235 Y138.84 E7.26008
G1 X161.982 Y138.739 E7.36833
G1 X159.491 Y138.737 E7.45118
G1 X157.681 Y138.794 E7.51141
G1 X156.098 Y138.824 E7.56407
G1 X155.388 Y138.818 E7.58769
G1 X152.832 Y138.768 E7.67272
G1 X150.823 Y138.747 E7.73954
G1 X148.607 Y138.759 E7.81324
G1 X146.758 Y138.789 E7.87475
G1 X144.835 Y138.831 E7.93872
G1 X140.792 Y138.815 E8.0732
G1 X137.032 Y138.836 E8.19826
G1 X134.095 Y138.817 E8.29594
G1 X130.691 Y138.852 E8.40917
G1 X130.233 Y138.844 E8.4244
G1 X127.628 Y138.746 E8.51111
G1 X125.132 Y138.723 E8.59413
G1 X122.592 Y138.77 E8.67862
G1 X122.065 Y138.793 E8.69617
G1 X120.767 Y138.828 E8.73935
G1 X117.912 Y138.854 E8.83432
G1 X115.067 Y138.955 E8.929
G1 X114.592 Y138.979 E8.94482
G1 X113.921 Y138.992 E8.96714
G1 X112.213 Y138.974 E9.02395
G1 X109.573 Y138.984 E9.11176
G1 X107.668 Y139.038 E9.17515
G1 X106.566 Y139.013 E9.21181
G1 X106.138 Y138.982 E9.22608
G1 X103.57 Y138.833 E9.31164
G1 X101.033 Y138.757 E9.39606
G1 X98.668 Y138.75 E9.47472
G1 X97.533 Y138.761 E9.51247
G1 X96.596 Y138.731 E9.54365
G1 X95.664 Y138.62 E9.57487
G1 X94.746 Y138.43 E9.60605
G1 X93.847 Y138.163 E9.63724
G1 X92.974 Y137.82 E9.66843
G1 X92.133 Y137.404 E9.69964
G1 X91.093 Y136.755 E9.74041
G1 X90.286 Y136.183 E9.77331
G1 X89.285 Y135.443 E9.81472
G1 X88.555 Y134.854 E9.84591
G1 X87.878 Y134.205 E9.87711
G1 X87.259 Y133.501 E9.90829
G1 X86.702 Y132.746 E9.93949
G1 X86.212 Y131.947 E9.97067
G1 X85.791 Y131.108 E10.00189
G1 X85.409 Y130.138 E10.03656
G1 X85.083 Y129.179 E10.07025
G1 X84.785 Y128.231 E10.1033
G1 X84.546 Y127.324 E10.1345
G1 X84.385 Y126.4 E10.16569
G1 X84.304 Y125.466 E10.19688
G1 X84.302 Y124.528 E10.22807
G1 X84.38 Y123.593 E10.25928
G1 X84.538 Y122.669 E10.29046
G1 X84.775 Y121.757 E10.3218
G1 X85.026 Y120.937 E10.35032
G1 X85.395 Y119.831 E10.3891
G1 X85.733 Y118.956 E10.4203
G1 X86.144 Y118.113 E10.45149
G1 X86.625 Y117.308 E10.48268
G1 X87.173 Y116.547 E10.51387
G1 X87.785 Y115.836 E10.54507
G1 X88.454 Y115.179 E10.57626
G1 X89.189 Y114.573 E10.60795
G0 F6000 X89.43 Y114.892
G1 F1200 X90.347 Y114.205 E10.64605
G1 X91.144 Y113.639 E10.67857
G1 X91.918 Y113.139 E10.70922
G1 X92.731 Y112.708 E10.73982
G1 X93.579 Y112.349 E10.77045
G1 X94.455 Y112.065 E10.80108
G1 X95.352 Y111.858 E10.8317
G1 X96.322 Y111.725 E10.86426
G1 X99.448 Y111.441 E10.96866
G1 X100.771 Y111.301 E11.01291
G1 X101.685 Y111.244 E11.04337
G1 X102.713 Y111.227 E11.07756
G1 X104.309 Y111.232 E11.13065
G1 X105.291 Y111.281 E11.16335
G1 X106.343 Y111.382 E11.1985
G1 X108.946 Y111.596 E11.28537
G1 X111.431 Y111.731 E11.36814
G1 X114.006 Y111.797 E11.45381
G1 X116.516 Y111.79 E11.5373
G1 X119.115 Y111.709 E11.62378
G1 X120.62 Y111.633 E11.6739
G1 X121.037 Y111.62 E11.68778
G1 X121.688 Y111.613 E11.70943
G1 X127.163 Y111.617 E11.89153
G1 X128.455 Y111.635 E11.93451
G1 X129.952 Y111.678 E11.98432
G1 X132.482 Y111.68 E12.06847
G1 X135.305 Y111.6 E12.1624
G1 X136.347 Y111.622 E12.19706
G1 X137.444 Y111.7 E12.23364
G1 X138.102 Y111.756 E12.25561
G1 X140.645 Y111.902 E12.34033
G1 X143.607 Y111.98 E12.43888
G1 X146.28 Y111.97 E12.52778
G1 X147.758 Y111.931 E12.57696
G1 X152.484 Y111.779 E12.73423
G1 X155.299 Y111.605 E12.82803
G1 X156.334 Y111.592 E12.86246
G1 X157.594 Y111.638 E12.90439
G1 X161.607 Y111.696 E13.03788
G1 X165.554 Y111.671 E13.16916
G1 X168.182 Y111.699 E13.25657
G1 X168.297 Y111.694 E13.2604
G1 X170.41 Y111.718 E13.33069
G1 X171.002 Y111.714 E13.35038
G1 X173.094 Y111.677 E13.41997
G1 X174.373 Y111.645 E13.46252
G1 X177.025 Y111.605 E13.55074
G1 X184.23 Y111.526 E13.79039
G1 X186.774 Y111.425 E13.87507
G1 X189.33 Y111.251 E13.96028
G1 X191.81 Y111.013 E14.04314
G1 X194.34 Y110.696 E14.12795
G1 X196.808 Y110.316 E14.211
G1 X199.33 Y109.854 E14.29628
G1 X201.778 Y109.334 E14.37952
G1 X204.747 Y108.611 E14.48115
G1 X205.65 Y108.432 E14.51177
G1 X206.258 Y108.357 E14.53215
G1 X206.736 Y108.312 E14.54812
G1 X209.283 Y108.038 E14.63332
G1 X210.218 Y107.924 E14.66465
G1 X211.136 Y107.853 E14.69527
G1 X212.057 Y107.862 E14.7259
G1 X212.973 Y107.95 E14.75651
G1 X213.878 Y108.118 E14.78713
G1 X215.035 Y108.455 E14.82721
G1 X215.357 Y108.569 E14.83857
G1 X216.21 Y108.913 E14.86916
G1 X217.031 Y109.331 E14.8998
G1 X217.812 Y109.818 E14.93041
G1 X218.548 Y110.371 E14.96103
G1 X219.234 Y110.986 E14.99168
G1 X219.863 Y111.658 E15.02229
G1 X220.432 Y112.382 E15.05292
G1 X220.935 Y113.152 E15.08351
G1 X221.337 Y113.896 E15.11163
G1 X221.486 Y114.2 E15.1229
G1 X221.855 Y115.043 E15.1535
G1 X222.149 Y115.916 E15.18414
G1 X222.367 Y116.81 E15.21475
G1 X222.474 Y117.456 E15.23653
G1 X222.522 Y117.814 E15.24854
G1 X222.61 Y118.876 E15.28398
G1 X222.622 Y119.242 E15.29616
G1 X222.624 Y119.876 E15.31725
G1 X222.594 Y120.906 E15.35152
G1 X222.542 Y121.989 E15.38758
G1 X222.491 Y124.532 E15.47218
G1 X222.513 Y127.083 E15.55703
G1 X222.624 Y129.987 E15.65369
G1 X222.623 Y130.822 E15.68146
G1 X222.604 Y131.291 E15.69707
G1 X222.527 Y132.208 E15.72768
G1 X222.433 Y132.808 E15.74788
G1 X222.368 Y133.156 E15.75965
G1 X222.16 Y134.053 E15.79028
G1 X221.874 Y134.928 E15.8209
G1 X221.514 Y135.776 E15.85154
G1 X221.044 Y136.653 E15.88463
G1 X220.898 Y136.897 E15.89409
G1 X220.391 Y137.665 E15.9247
G1 X219.82 Y138.387 E15.95531
G1 X219.188 Y139.057 E15.98595
G1 X218.501 Y139.669 E16.01655
G1 X217.762 Y140.219 E16.04719
G1 X216.892 Y140.752 E16.08112
G1 X216.66 Y140.879 E16.08992
G1 X215.834 Y141.286 E16.12055
G1 X214.976 Y141.619 E16.15116
G1 X214.092 Y141.877 E16.18179
G1 X213.189 Y142.057 E16.21241
G1 X212.274 Y142.158 E16.24303
G1 X211.353 Y142.179 E16.27367
G1 X210.571 Y142.134 E16.29972
G1 X209.589 Y142.041 E16.33253
G1 X208.31 Y141.9 E16.37533
G1 X206.324 Y141.728 E16.44163
G1 X205.411 Y141.608 E16.47226
G1 X204.625 Y141.44 E16.49899
G1 X203.891 Y141.253 E16.52418
G1 X201.378 Y140.653 E16.61011
G1 X198.878 Y140.131 E16.69506
G1 X196.401 Y139.685 E16.77877
G1 X193.919 Y139.311 E16.86225
G1 X191.408 Y139.005 E16.94639
G1 X188.9 Y138.77 E17.03017
G1 X186.347 Y138.604 E17.11526
G1 X183.856 Y138.513 E17.19817
G1 X180.877 Y138.489 E17.29725
G1 X179.333 Y138.431 E17.34864
G1 X178.705 Y138.397 E17.36956
G1 X176.175 Y138.334 E17.45373
G1 X173.177 Y138.35 E17.55345
G1 X170.808 Y138.386 E17.63225
G1 X169.964 Y138.419 E17.66034
G1 X168.053 Y138.453 E17.72391
G1 X165.939 Y138.451 E17.79423
G1 X165.241 Y138.44 E17.81745
G1 X161.994 Y138.339 E17.92549
G1 X159.479 Y138.337 E18.00914
G1 X157.564 Y138.397 E18.07287
G1 X156.403 Y138.422 E18.11149
G1 X155.396 Y138.418 E18.14498
G1 X152.84 Y138.368 E18.23001
G1 X150.825 Y138.347 E18.29704
G1 X148.599 Y138.359 E18.37107
G1 X146.74 Y138.389 E18.43291
G1 X144.837 Y138.431 E18.49622
G1 X140.792 Y138.415 E18.63076
G1 X137.034 Y138.436 E18.75575
G1 X134.093 Y138.417 E18.85357
G1 X130.689 Y138.452 E18.9668
G1 X130.248 Y138.445 E18.98147
G1 X127.647 Y138.348 E19.06804
G1 X125.093 Y138.323 E19.15299
G1 X122.567 Y138.371 E19.23702
G1 X121.876 Y138.399 E19.26002
G1 X120.763 Y138.428 E19.29705
G1 X117.898 Y138.455 E19.39235
G1 X114.572 Y138.579 E19.50305
G1 X113.925 Y138.592 E19.52457
G1 X112.215 Y138.574 E19.58145
G1 X109.56 Y138.584 E19.66975
G1 X107.657 Y138.638 E19.73307
G1 X106.595 Y138.614 E19.7684
G1 X103.569 Y138.432 E19.86923
G1 X101.046 Y138.357 E19.95318
G1 X98.746 Y138.35 E20.02968
G1 X97.529 Y138.362 E20.07016
G1 X96.609 Y138.33 E20.10078
G1 X95.695 Y138.22 E20.1314
G1 X94.794 Y138.03 E20.16202
G1 X93.913 Y137.763 E20.19264
G1 X93.059 Y137.42 E20.22325
G1 X92.237 Y137.005 E20.25388
G1 X91.323 Y136.428 E20.28983
G1 X90.524 Y135.862 E20.3224
G1 X89.523 Y135.122 E20.3638
G1 X88.807 Y134.543 E20.39443
G1 X88.144 Y133.904 E20.42505
G1 X87.539 Y133.21 E20.45567
G1 X86.996 Y132.466 E20.48631
G1 X86.521 Y131.678 E20.51691
G1 X86.115 Y130.852 E20.54752
G1 X85.788 Y130.01 E20.57757
G1 X85.372 Y128.775 E20.62091
G1 X85.167 Y128.113 E20.64396
G1 X84.933 Y127.222 E20.6746
G1 X84.778 Y126.315 E20.70521
G1 X84.701 Y125.397 E20.73585
G1 X84.705 Y124.477 E20.76644
G1 X84.788 Y123.56 E20.79707
G1 X84.951 Y122.654 E20.82769
G1 X85.157 Y121.874 E20.85452
G1 X85.408 Y121.054 E20.88304
G1 X85.774 Y119.959 E20.92144
G1 X86.106 Y119.1 E20.95207
G1 X86.512 Y118.274 E20.98268
G1 X86.987 Y117.486 E21.01329
G1 X87.53 Y116.742 E21.04392
G1 X88.135 Y116.048 E21.07454
G1 X88.797 Y115.409 E21.10515
G1 X89.43 Y114.892 E21.13233
G0 F6000 X89.671 Y115.211
G1 F1200 X90.579 Y114.531 E21.17006
G1 X91.376 Y113.965 E21.20257
G1 X92.135 Y113.475 E21.23262
G1 X92.934 Y113.054 E21.26266
G1 X93.767 Y112.706 E21.29269
G1 X94.628 Y112.432 E21.32274
G1 X95.509 Y112.236 E21.35276
G1 X96.359 Y112.123 E21.38128
G1 X99.453 Y111.842 E21.48461
G1 X100.813 Y111.698 E21.53009
G1 X101.693 Y111.644 E21.55942
G1 X102.712 Y111.627 E21.59331
G1 X104.308 Y111.632 E21.6464
G1 X105.252 Y111.679 E21.67783
G1 X106.263 Y111.776 E21.71161
G1 X108.928 Y111.996 E21.80055
G1 X111.435 Y112.131 E21.88406
G1 X113.997 Y112.197 E21.9693
G1 X116.53 Y112.19 E22.05355
G1 X119.095 Y112.111 E22.1389
G1 X120.64 Y112.032 E22.19035
G1 X121.688 Y112.013 E22.22522
G1 X127.157 Y112.017 E22.40712
G1 X128.606 Y112.038 E22.45531
G1 X129.975 Y112.078 E22.50087
G1 X132.493 Y112.08 E22.58462
G1 X135.316 Y112 E22.67855
G1 X136.319 Y112.021 E22.71191
G1 X137.259 Y112.087 E22.74326
G1 X138.081 Y112.156 E22.77069
G1 X140.612 Y112.301 E22.85501
G1 X143.598 Y112.38 E22.95436
G1 X146.291 Y112.37 E23.04393
G1 X147.711 Y112.332 E23.09118
G1 X152.522 Y112.177 E23.25127
G1 X155.324 Y112.004 E23.34465
G1 X156.32 Y111.992 E23.37778
G1 X157.575 Y112.037 E23.41954
G1 X161.603 Y112.096 E23.55353
G1 X165.557 Y112.071 E23.68504
G1 X168.133 Y112.098 E23.77073
G1 X168.292 Y112.094 E23.77602
G1 X170.407 Y112.118 E23.84637
G1 X171.012 Y112.114 E23.86649
G1 X173.104 Y112.077 E23.93608
G1 X174.379 Y112.045 E23.9785
G1 X177.029 Y112.005 E24.06665
G1 X184.251 Y111.926 E24.30687
G1 X186.816 Y111.824 E24.39225
G1 X189.323 Y111.653 E24.47583
G1 X191.865 Y111.409 E24.56076
G1 X194.379 Y111.094 E24.64503
G1 X196.904 Y110.705 E24.73
G1 X199.379 Y110.252 E24.81369
G1 X201.858 Y109.725 E24.89798
G1 X204.842 Y108.999 E25.00013
G1 X205.728 Y108.825 E25.03016
G1 X206.296 Y108.755 E25.04919
G1 X206.815 Y108.706 E25.06653
G1 X209.306 Y108.438 E25.14986
G1 X210.267 Y108.321 E25.18206
G1 X211.167 Y108.252 E25.21208
G1 X212.07 Y108.263 E25.24212
G1 X212.969 Y108.354 E25.27217
G1 X213.856 Y108.523 E25.30221
G1 X214.901 Y108.832 E25.33845
G1 X215.223 Y108.946 E25.34981
G1 X216.06 Y109.285 E25.37985
G1 X216.864 Y109.696 E25.40988
G1 X217.629 Y110.177 E25.43993
G1 X218.347 Y110.724 E25.46996
G1 X219.015 Y111.332 E25.5
G1 X219.626 Y111.997 E25.53004
G1 X220.176 Y112.713 E25.56006
