;FLAVOR:Marlin
;TIME:6684
;Filament used: 4.11949m
;Layer height: 0.2
;MINX:89.136
;MINY:84.574
;MINZ:0.32
;MAXX:210.851
;MAXY:215.433
;MAXZ:5.92
;Generated with Cura_SteamEngine 5.2.1
M140 S60
M105
M190 S60
M104 S200
M105
M109 S200
M82 ;absolute extrusion mode
; Ender 3 Max Custom Start G-code
G92 E0 ; Reset Extruder
G28 ; Home all axes
G1 Z2.0 F3000 ; Move Z Axis up little to prevent scratching of Heat Bed
G1 X0.1 Y20 Z0.3 F5000.0 ; Move to start position
G1 X0.1 Y200.0 Z0.3 F1500.0 E15 ; Draw the first line
G1 X0.4 Y200.0 Z0.3 F5000.0 ; Move to side a little
G1 X0.4 Y20 Z0.3 F1500.0 E30 ; Draw the second line
G92 E0 ; Reset Extruder
G1 Z2.0 F3000 ; Move Z Axis up little to prevent scratching of Heat Bed
G1 X5 Y20 Z0.3 F5000.0 ; Move over to prevent blob squish
G92 E0
G92 E0
G1 F1500 E-6.5
;LAYER_COUNT:29
;LAYER:0
M107
G0 F6000 X117.976 Y90.779 Z0.32
;TYPE:SKIRT
G1 F1500 E0
G1 F900 X118.506 Y90.126 E0.04923
G1 X118.802 Y89.789 E0.07549
G1 X119.587 Y88.978 E0.14156
G1 X120.357 Y88.313 E0.20112
G1 X120.631 Y88.096 E0.22158
G1 X121.532 Y87.455 E0.2863
G1 X121.798 Y87.286 E0.30475
G1 X122.598 Y86.825 E0.3588
G1 X123.229 Y86.523 E0.39975
G1 X123.705 Y86.314 E0.43018
G1 X124.566 Y85.98 E0.48424
G1 X125.452 Y85.722 E0.53826
G1 X126.358 Y85.541 E0.59235
G1 X126.987 Y85.462 E0.62946
G1 X127.569 Y85.413 E0.66364
G1 X140.359 Y84.614 E1.4138
G1 X141.051 Y84.581 E1.45436
G1 X142.257 Y84.592 E1.52496
G1 X143.248 Y84.658 E1.5831
G1 X144.238 Y84.736 E1.64123
G1 X146.755 Y84.863 E1.78876
G1 X149.268 Y84.92 E1.9359
G1 X151.806 Y84.905 E2.08447
G1 X154.317 Y84.819 E2.23155
G1 X157.744 Y84.592 E2.43259
G1 X158.76 Y84.574 E2.49208
G1 X159.349 Y84.597 E2.52658
G1 X172.151 Y85.395 E3.27744
G1 X172.892 Y85.453 E3.32095
G1 X173.808 Y85.564 E3.37496
G1 X174.712 Y85.755 E3.42905
G1 X175.595 Y86.023 E3.48306
G1 X176.452 Y86.367 E3.53712
G1 X176.9 Y86.582 E3.56621
G1 X177.471 Y86.873 E3.60373
G1 X178.275 Y87.328 E3.6578
G1 X178.837 Y87.704 E3.69739
G1 X179.08 Y87.878 E3.71488
G1 X179.774 Y88.419 E3.76639
G1 X180.059 Y88.661 E3.78828
G1 X180.736 Y89.289 E3.84233
G1 X181.11 Y89.687 E3.8743
G1 X181.377 Y89.986 E3.89777
G1 X181.962 Y90.7 E3.9518
G1 X182.459 Y91.411 E4.00258
G1 X183.131 Y92.542 E4.0796
G1 X183.258 Y92.789 E4.09585
G1 X183.616 Y93.559 E4.14556
G1 X183.772 Y93.933 E4.16928
G1 X184.091 Y94.8 E4.22336
G1 X184.26 Y95.39 E4.25929
G1 X184.341 Y95.706 E4.27838
G1 X184.523 Y96.558 E4.32938
G1 X184.992 Y99.306 E4.49257
G1 X185.492 Y101.82 E4.64262
G1 X186.038 Y104.222 E4.78681
G1 X186.685 Y106.721 E4.93792
G1 X187.377 Y109.118 E5.08397
G1 X188.148 Y111.53 E5.2322
G1 X188.988 Y113.924 E5.38071
G1 X189.889 Y116.277 E5.52821
G1 X190.867 Y118.629 E5.67732
G1 X191.893 Y120.91 E5.82373
G1 X192.999 Y123.197 E5.97244
G1 X194.171 Y125.452 E6.1212
G1 X195.376 Y127.621 E6.26645
G1 X196.688 Y129.832 E6.41695
G1 X198.036 Y131.963 E6.56455
G1 X199.431 Y134.038 E6.71092
G1 X200.915 Y136.116 E6.86039
G1 X202.432 Y138.116 E7.00734
G1 X204.008 Y140.078 E7.15465
G1 X205.702 Y142.067 E7.30759
G1 X206.084 Y142.497 E7.34126
G1 X206.634 Y143.169 E7.39209
G1 X207.022 Y143.685 E7.42989
G1 X207.601 Y144.508 E7.48879
G1 X208.114 Y145.326 E7.54531
G1 X208.588 Y146.181 E7.60254
G1 X208.914 Y146.814 E7.64422
G1 X209.279 Y147.601 E7.695
G1 X209.589 Y148.369 E7.74348
G1 X209.885 Y149.203 E7.79529
G1 X209.995 Y149.55 E7.8166
G1 X210.184 Y150.215 E7.85706
G1 X210.307 Y150.719 E7.88743
G1 X210.513 Y151.667 E7.94422
G1 X210.661 Y152.509 E7.99427
G1 X210.744 Y153.216 E8.03594
G1 X210.811 Y153.987 E8.08124
G1 X210.851 Y154.91 E8.13532
G1 X210.851 Y155.704 E8.1818
G1 X210.811 Y156.632 E8.23617
G1 X210.736 Y157.49 E8.28659
G1 X210.634 Y158.299 E8.33432
G1 X210.562 Y158.735 E8.36019
G1 X210.431 Y159.406 E8.40021
G1 X210.294 Y159.977 E8.43459
G1 X210.088 Y160.744 E8.48107
G1 X209.823 Y161.589 E8.53291
G1 X209.629 Y162.128 E8.56645
G1 X209.454 Y162.582 E8.59493
G1 X209.181 Y163.244 E8.63685
G1 X208.844 Y163.98 E8.68423
G1 X208.67 Y164.325 E8.70685
G1 X208.321 Y164.968 E8.74968
G1 X208.053 Y165.418 E8.78034
G1 X207.649 Y166.06 E8.82474
G1 X207.116 Y166.83 E8.87956
G1 X206.617 Y167.487 E8.92786
G1 X206.029 Y168.195 E8.98173
G1 X205.53 Y168.746 E9.02525
G1 X204.894 Y169.391 E9.07827
G1 X204.268 Y169.974 E9.12835
G1 X203.665 Y170.495 E9.17499
G1 X203.334 Y170.76 E9.19982
G1 X202.915 Y171.078 E9.23061
G1 X202.062 Y171.695 E9.29223
G1 X199.955 Y173.264 E9.44601
G1 X197.964 Y174.836 E9.59451
G1 X196.005 Y176.474 E9.74399
G1 X194.134 Y178.131 E9.89029
G1 X192.274 Y179.875 E10.03955
G1 X190.499 Y181.637 E10.18595
G1 X188.76 Y183.463 E10.33356
G1 X187.055 Y185.357 E10.48274
G1 X185.421 Y187.281 E10.6305
G1 X183.84 Y189.252 E10.77841
G1 X182.313 Y191.27 E10.92655
G1 X180.857 Y193.309 E11.07321
G1 X179.44 Y195.42 E11.22205
G1 X178.108 Y197.529 E11.36806
G1 X176.836 Y199.709 E11.51581
G1 X176.104 Y200.925 E11.5989
G1 X175.844 Y201.335 E11.62731
G1 X175.34 Y202.092 E11.68055
G1 X175.083 Y202.462 E11.70692
G1 X174.597 Y203.129 E11.75523
G1 X174.322 Y203.489 E11.78175
G1 X173.757 Y204.199 E11.83487
G1 X173.454 Y204.563 E11.86259
G1 X172.88 Y205.222 E11.91375
G1 X172.556 Y205.578 E11.94193
G1 X172.06 Y206.098 E11.98399
G1 X171.682 Y206.474 E12.0152
G1 X170.651 Y207.452 E12.09839
G1 X170.012 Y208.025 E12.14863
G1 X169.655 Y208.327 E12.176
G1 X169.113 Y208.765 E12.2168
G1 X168.69 Y209.09 E12.24802
G1 X167.526 Y209.938 E12.33233
G1 X166.972 Y210.321 E12.37175
G1 X166.496 Y210.625 E12.40481
G1 X165.256 Y211.372 E12.48955
G1 X164.552 Y211.771 E12.53692
G1 X164.125 Y211.996 E12.56518
G1 X163.317 Y212.399 E12.61803
G1 X162.888 Y212.601 E12.64579
G1 X162.114 Y212.945 E12.69537
G1 X161.719 Y213.112 E12.72047
G1 X160.913 Y213.432 E12.77124
G1 X160.45 Y213.603 E12.80013
G1 X159.605 Y213.894 E12.85245
G1 X159.176 Y214.032 E12.87883
G1 X158.36 Y214.275 E12.92867
G1 X157.915 Y214.397 E12.95568
G1 X157.047 Y214.615 E13.00807
G1 X156.598 Y214.717 E13.03502
G1 X155.937 Y214.853 E13.07452
G1 X155.401 Y214.949 E13.1064
G1 X153.956 Y215.17 E13.19197
G1 X153.225 Y215.261 E13.23509
G1 X152.716 Y215.307 E13.26501
G1 X151.314 Y215.398 E13.34725
G1 X150.453 Y215.429 E13.39768
G1 X149.997 Y215.433 E13.42438
G1 X149.265 Y215.423 E13.46723
G1 X148.724 Y215.402 E13.49893
G1 X147.362 Y215.314 E13.57882
G1 X146.432 Y215.226 E13.6335
G1 X145.98 Y215.169 E13.66017
G1 X145.304 Y215.07 E13.70017
G1 X144.789 Y214.982 E13.73075
G1 X143.362 Y214.701 E13.81589
G1 X142.585 Y214.527 E13.8625
G1 X142.113 Y214.405 E13.89104
G1 X141.393 Y214.202 E13.93483
G1 X140.872 Y214.04 E13.96676
G1 X139.479 Y213.569 E14.05284
G1 X138.782 Y213.314 E14.09629
G1 X138.331 Y213.134 E14.12471
G1 X137.492 Y212.775 E14.17813
G1 X137.067 Y212.581 E14.20548
G1 X136.287 Y212.206 E14.25614
G1 X135.865 Y211.992 E14.28384
G1 X135.116 Y211.59 E14.3336
G1 X134.724 Y211.369 E14.35995
G1 X133.966 Y210.92 E14.41152
G1 X133.561 Y210.667 E14.43947
G1 X132.927 Y210.252 E14.48383
G1 X132.485 Y209.947 E14.51526
G1 X131.341 Y209.113 E14.59814
G1 X130.669 Y208.594 E14.64784
G1 X130.294 Y208.286 E14.67625
G1 X129.643 Y207.726 E14.72652
G1 X129.311 Y207.429 E14.75259
G1 X128.657 Y206.817 E14.80502
G1 X128.311 Y206.478 E14.83338
G1 X127.708 Y205.86 E14.88392
G1 X127.404 Y205.534 E14.91002
G1 X126.836 Y204.901 E14.9598
G1 X126.528 Y204.542 E14.98749
G1 X126.072 Y203.986 E15.02958
G1 X125.743 Y203.564 E15.06091
G1 X124.872 Y202.386 E15.14667
G1 X124.398 Y201.707 E15.19514
G1 X124.133 Y201.302 E15.22347
G1 X123.675 Y200.565 E15.27427
G1 X122.21 Y198.061 E15.44409
G1 X120.86 Y195.889 E15.59379
G1 X119.453 Y193.763 E15.74303
G1 X118.03 Y191.739 E15.88786
G1 X116.505 Y189.696 E16.0371
G1 X114.928 Y187.704 E16.18582
G1 X113.299 Y185.76 E16.33429
G1 X111.647 Y183.899 E16.47996
G1 X109.897 Y182.036 E16.62959
G1 X108.113 Y180.244 E16.77761
G1 X106.298 Y178.517 E16.92426
G1 X104.396 Y176.811 E17.07383
G1 X102.488 Y175.193 E17.22027
G1 X100.528 Y173.624 E17.36724
G1 X97.693 Y171.505 E17.57443
G1 X96.895 Y170.93 E17.632
G1 X96.243 Y170.42 E17.68046
G1 X95.685 Y169.932 E17.72385
G1 X95.09 Y169.377 E17.77148
G1 X94.436 Y168.711 E17.82612
G1 X93.89 Y168.104 E17.87392
G1 X93.412 Y167.534 E17.91746
G1 X93.124 Y167.165 E17.94486
G1 X92.79 Y166.714 E17.97772
G1 X92.324 Y166.032 E18.02607
G1 X92.118 Y165.71 E18.04844
G1 X91.85 Y165.268 E18.0787
G1 X91.488 Y164.613 E18.12251
G1 X91.114 Y163.884 E18.17047
G1 X90.812 Y163.242 E18.21201
G1 X90.689 Y162.957 E18.23018
G1 X90.445 Y162.34 E18.26902
G1 X90.171 Y161.578 E18.31642
G1 X89.893 Y160.685 E18.37117
G1 X89.679 Y159.872 E18.42038
G1 X89.514 Y159.142 E18.46419
G1 X89.46 Y158.857 E18.48117
G1 X89.361 Y158.234 E18.5181
G1 X89.254 Y157.403 E18.56714
G1 X89.187 Y156.688 E18.60918
G1 X89.16 Y156.243 E18.63528
G1 X89.14 Y155.679 E18.66831
G1 X89.136 Y155.157 E18.69887
G1 X89.177 Y154.139 E18.75851
G1 X89.268 Y153.107 E18.81916
G1 X89.378 Y152.253 E18.86956
G1 X89.448 Y151.842 E18.89397
G1 X89.615 Y151.02 E18.94307
G1 X89.812 Y150.222 E18.99118
G1 X89.975 Y149.657 E19.02561
G1 X90.151 Y149.105 E19.05952
G1 X90.454 Y148.274 E19.1113
G1 X90.791 Y147.458 E19.16298
G1 X91.185 Y146.612 E19.21761
G1 X91.61 Y145.794 E19.27157
G1 X92.324 Y144.613 E19.35236
G1 X92.959 Y143.702 E19.41736
G1 X93.456 Y143.045 E19.46558
G1 X94.004 Y142.383 E19.51589
G1 X95.372 Y140.808 E19.63801
G1 X97.014 Y138.806 E19.78958
G1 X98.542 Y136.833 E19.93566
G1 X100.02 Y134.806 E20.08251
G1 X101.464 Y132.706 E20.2317
G1 X102.844 Y130.573 E20.38041
G1 X104.129 Y128.455 E20.52543
G1 X105.411 Y126.203 E20.67712
G1 X106.573 Y124.021 E20.82183
G1 X107.716 Y121.716 E20.97244
G1 X108.762 Y119.452 E21.11843
G1 X109.755 Y117.13 E21.26626
G1 X110.697 Y114.743 E21.41648
G1 X111.553 Y112.38 E21.5636
G1 X112.339 Y110.005 E21.71005
G1 X113.07 Y107.563 E21.85926
G1 X113.722 Y105.138 E22.00626
G1 X114.309 Y102.681 E22.15413
G1 X114.83 Y100.189 E22.30316
G1 X115.284 Y97.662 E22.45346
G1 X115.419 Y96.849 E22.5017
G1 X115.572 Y96.099 E22.54651
G1 X115.712 Y95.517 E22.58155
G1 X115.966 Y94.629 E22.63561
G1 X116.226 Y93.934 E22.67905
G1 X116.358 Y93.615 E22.69926
G1 X116.731 Y92.8 E22.75173
G1 X117.003 Y92.314 E22.78433
G0 F810 X117.242 Y91.887
G0 X117.456 Y91.542
G0 X117.976 Y90.779
G0 F6000 X118.34 Y91.027
G1 F900 X118.836 Y90.417 E22.83035
G1 X119.132 Y90.08 E22.85661
G1 X119.888 Y89.299 E22.92024
G1 X120.63 Y88.658 E22.97764
G1 X120.904 Y88.441 E22.9981
G1 X121.768 Y87.827 E23.06014
G1 X122.034 Y87.658 E23.07859
G1 X122.818 Y87.207 E23.13154
G1 X123.406 Y86.926 E23.16969
G1 X123.882 Y86.717 E23.20012
G1 X124.725 Y86.391 E23.25303
G1 X125.594 Y86.14 E23.30598
G1 X126.481 Y85.967 E23.35888
G1 X127.028 Y85.9 E23.39114
G1 X127.596 Y85.852 E23.4245
G1 X140.229 Y85.062 E24.16546
G1 X141.072 Y85.021 E24.21486
G1 X142.229 Y85.031 E24.28259
G1 X143.214 Y85.096 E24.34038
G1 X144.218 Y85.175 E24.39933
G1 X146.759 Y85.304 E24.54827
G1 X149.261 Y85.36 E24.69477
G1 X151.825 Y85.345 E24.84486
G1 X154.328 Y85.259 E24.99147
G1 X157.773 Y85.031 E25.19357
G1 X158.747 Y85.013 E25.2506
G1 X159.322 Y85.036 E25.28428
G1 X172.117 Y85.833 E26.03473
G1 X172.858 Y85.891 E26.07824
G1 X173.755 Y86.001 E26.13114
G1 X174.639 Y86.191 E26.18407
G1 X175.503 Y86.457 E26.23699
G1 X176.701 Y86.974 E26.31337
G1 X177.272 Y87.265 E26.35088
G1 X178.058 Y87.711 E26.40378
G1 X178.581 Y88.062 E26.44065
G1 X178.824 Y88.236 E26.45815
G1 X179.489 Y88.755 E26.50753
G1 X179.774 Y88.997 E26.52942
G1 X180.437 Y89.612 E26.58235
G1 X180.782 Y89.98 E26.61188
G1 X181.049 Y90.279 E26.63535
G1 X181.87 Y91.329 E26.71337
G1 X182.095 Y91.659 E26.73675
G1 X182.74 Y92.743 E26.81059
G1 X182.867 Y92.99 E26.82685
G1 X183.21 Y93.729 E26.87454
G1 X183.366 Y94.103 E26.89826
G1 X183.677 Y94.952 E26.95119
G1 X183.834 Y95.499 E26.9845
G1 X183.915 Y95.815 E27.0036
G1 X184.089 Y96.632 E27.0525
G1 X184.561 Y99.393 E27.21646
G1 X185.058 Y101.897 E27.3659
G1 X185.61 Y104.323 E27.51154
G1 X186.255 Y106.813 E27.66211
G1 X186.962 Y109.267 E27.81161
G1 X187.731 Y111.671 E27.95936
G1 X188.575 Y114.076 E28.10856
G1 X189.478 Y116.434 E28.25637
G1 X190.466 Y118.809 E28.40694
G1 X191.489 Y121.086 E28.55307
G1 X192.613 Y123.408 E28.70408
G1 X193.775 Y125.645 E28.85164
G1 X195.015 Y127.875 E29.00101
G1 X196.299 Y130.04 E29.14835
G1 X197.67 Y132.208 E29.29851
G1 X199.068 Y134.287 E29.44517
G1 X200.55 Y136.362 E29.59443
G1 X202.086 Y138.387 E29.74321
G1 X203.705 Y140.402 E29.89452
G1 X205.328 Y142.308 E30.04107
G1 X205.755 Y142.789 E30.07872
G1 X206.282 Y143.434 E30.12748
G1 X206.907 Y144.278 E30.18895
G1 X207.239 Y144.758 E30.22312
G1 X207.731 Y145.543 E30.27735
G1 X208.197 Y146.383 E30.33358
G1 X208.523 Y147.016 E30.37526
G1 X208.873 Y147.77 E30.42392
G1 X209.177 Y148.521 E30.47135
G1 X209.312 Y148.887 E30.49418
G1 X209.575 Y149.683 E30.54326
G1 X209.759 Y150.329 E30.58258
G1 X209.877 Y150.813 E30.61174
G1 X210.083 Y151.761 E30.66853
G1 X210.225 Y152.568 E30.71649
G1 X210.306 Y153.254 E30.75693
G1 X210.373 Y154.025 E30.80223
G1 X210.411 Y154.91 E30.85409
G1 X210.411 Y155.704 E30.90057
G1 X210.372 Y156.594 E30.95271
G1 X210.297 Y157.452 E31.00313
G1 X210.199 Y158.227 E31.04886
G1 X210.127 Y158.663 E31.07473
G1 X210 Y159.315 E31.11361
G1 X209.869 Y159.863 E31.14659
G1 X209.663 Y160.63 E31.19308
G1 X209.409 Y161.44 E31.24278
G1 X209.215 Y161.979 E31.27631
G1 X209.047 Y162.414 E31.30361
G1 X208.774 Y163.076 E31.34552
G1 X208.451 Y163.782 E31.39097
G1 X208.277 Y164.127 E31.41359
G1 X207.937 Y164.752 E31.45524
G1 X207.681 Y165.183 E31.48458
G1 X207.277 Y165.825 E31.52899
G1 X206.766 Y166.563 E31.58153
G1 X206.267 Y167.22 E31.62983
G1 X205.703 Y167.899 E31.6815
G1 X205.204 Y168.45 E31.72501
G1 X204.594 Y169.069 E31.77589
G1 X203.968 Y169.652 E31.82596
G1 X203.39 Y170.151 E31.87066
G1 X203.059 Y170.416 E31.89548
G1 X202.658 Y170.722 E31.92501
G1 X201.738 Y171.386 E31.99143
G1 X199.672 Y172.925 E32.14223
G1 X197.683 Y174.496 E32.2906
G1 X195.743 Y176.119 E32.43867
G1 X193.833 Y177.81 E32.588
G1 X191.974 Y179.553 E32.73717
G1 X190.182 Y181.332 E32.88498
G1 X188.425 Y183.176 E33.03408
G1 X186.737 Y185.052 E33.18181
G1 X185.072 Y187.012 E33.33235
G1 X183.502 Y188.969 E33.47922
G1 X181.952 Y191.018 E33.62962
G1 X180.488 Y193.068 E33.77708
G1 X179.079 Y195.167 E33.92507
G1 X177.739 Y197.291 E34.07208
G1 X176.531 Y199.361 E34.21237
G1 X175.727 Y200.698 E34.3037
G1 X175.478 Y201.091 E34.33093
G1 X174.974 Y201.848 E34.38417
G1 X174.727 Y202.202 E34.40944
G1 X174.241 Y202.869 E34.45775
G1 X173.978 Y203.215 E34.48319
G1 X173.413 Y203.925 E34.5363
G1 X173.123 Y204.274 E34.56287
G1 X172.549 Y204.933 E34.61403
G1 X172.237 Y205.274 E34.64108
G1 X171.741 Y205.794 E34.68315
G1 X171.38 Y206.155 E34.71303
G1 X170.349 Y207.133 E34.79622
G1 X169.721 Y207.696 E34.84559
G1 X169.379 Y207.985 E34.8718
G1 X168.837 Y208.423 E34.91259
G1 X168.431 Y208.734 E34.94253
G1 X167.267 Y209.582 E35.02683
G1 X166.725 Y209.956 E35.06538
G1 X166.269 Y210.248 E35.09708
G1 X165.029 Y210.995 E35.18182
G1 X164.338 Y211.387 E35.22833
G1 X163.928 Y211.603 E35.25545
G1 X163.12 Y212.006 E35.30831
G1 X162.71 Y212.199 E35.33484
G1 X161.936 Y212.543 E35.38442
G1 X161.556 Y212.703 E35.40855
G1 X160.75 Y213.023 E35.45932
G1 X160.307 Y213.187 E35.48697
G1 X159.462 Y213.478 E35.53928
G1 X159.051 Y213.61 E35.56455
G1 X158.235 Y213.853 E35.61439
G1 X157.807 Y213.97 E35.64037
G1 X156.939 Y214.188 E35.69276
G1 X156.51 Y214.286 E35.71852
G1 X155.849 Y214.422 E35.75802
G1 X155.334 Y214.515 E35.78865
G1 X153.889 Y214.736 E35.87422
G1 X153.176 Y214.824 E35.91628
G1 X152.688 Y214.868 E35.94496
G1 X151.286 Y214.959 E36.0272
G1 X150.44 Y214.99 E36.07676
G1 X150.003 Y214.993 E36.10234
G1 X149.271 Y214.983 E36.1452
