;FLAVOR:Marlin
;TIME:6696
;Filament used: 4.629m
;Layer height: 0.2
;MINX:82.98
;MINY:81.61
;MINZ:0.2
;MAXX:200.058
;MAXY:209.847
;MAXZ:6
;Generated with Cura_SteamEngine 5.2.1
M140 S60
M105
M190 S60
M104 S200
M105
M109 S200
M82 ;absolute extrusion mode
; Ender 3 Max Custom Start G-code
G92 E0 ; Reset Extruder
G28 ; Home all axes
G1 Z2.0 F3000 ; Move Z Axis up little to prevent scratching of Heat Bed
G1 X0.1 Y20 Z0.3 F5000.0 ; Move to start position
G1 X0.1 Y200.0 Z0.3 F1500.0 E15 ; Draw the first line
G1 X0.4 Y200.0 Z0.3 F5000.0 ; Move to side a little
G1 X0.4 Y20 Z0.3 F1500.0 E30 ; Draw the second line
G92 E0 ; Reset Extruder
G1 Z2.0 F3000 ; Move Z Axis up little to prevent scratching of Heat Bed
G1 X5 Y20 Z0.3 F5000.0 ; Move over to prevent blob squish
G92 E0
G92 E0
G1 F1500 E-6.5
;LAYER_COUNT:30
;LAYER:0
M107
G0 F6000 X87.615 Y113.026 Z0.2
;TYPE:SKIRT
G1 F1500 E0
G1 F1200 X88.402 Y112.515 E0.03121
G1 X89.435 Y111.977 E0.06995
G1 X90.062 Y111.692 E0.09286
G1 X92.407 Y110.589 E0.17905
G1 X94.661 Y109.452 E0.26301
G1 X96.859 Y108.262 E0.34615
G1 X99.041 Y107 E0.42998
G1 X101.209 Y105.663 E0.5147
G1 X103.276 Y104.306 E0.59694
G1 X105.37 Y102.844 E0.68188
G1 X107.374 Y101.361 E0.7648
G1 X109.357 Y99.804 E0.84866
G1 X111.287 Y98.197 E0.93219
G1 X113.19 Y96.52 E1.01655
G1 X115.03 Y94.805 E1.10021
G1 X116.801 Y93.058 E1.18295
G1 X118.545 Y91.236 E1.26684
G1 X120.978 Y88.52 E1.38812
G1 X121.459 Y88.016 E1.41129
G1 X121.809 Y87.672 E1.42761
G1 X122.506 Y87.044 E1.45882
G1 X123.126 Y86.563 E1.48492
G1 X123.9 Y86.033 E1.51612
G1 X124.716 Y85.571 E1.54731
G1 X125.428 Y85.24 E1.57342
G1 X126.28 Y84.879 E1.6042
G1 X126.966 Y84.611 E1.62869
G1 X127.59 Y84.397 E1.65063
G1 X128.231 Y84.205 E1.67289
G1 X129.293 Y83.914 E1.70951
G1 X129.736 Y83.802 E1.72471
G1 X131.172 Y83.472 E1.77372
G1 X132.255 Y83.252 E1.81048
G1 X133.46 Y83.028 E1.85124
G1 X135.104 Y82.745 E1.90672
G1 X136.553 Y82.531 E1.95544
G1 X138.463 Y82.282 E2.01951
G1 X139.697 Y82.138 E2.06083
G1 X141.512 Y81.955 E2.1215
G1 X142.696 Y81.856 E2.16102
G1 X144.642 Y81.731 E2.22587
G1 X145.932 Y81.67 E2.26883
G1 X147.424 Y81.621 E2.31848
G1 X148.67 Y81.61 E2.35992
G1 X149.908 Y81.616 E2.4011
G1 X151.256 Y81.645 E2.44594
G1 X152.472 Y81.702 E2.48643
G1 X154.358 Y81.82 E2.54928
G1 X154.927 Y81.871 E2.56829
G1 X156.08 Y81.996 E2.60686
G1 X157.513 Y82.181 E2.65492
G1 X157.894 Y82.238 E2.66773
G1 X159.152 Y82.45 E2.71016
G1 X160.173 Y82.645 E2.74473
G1 X161.343 Y82.899 E2.78455
G1 X161.973 Y83.059 E2.80617
G1 X163.261 Y83.416 E2.85063
G1 X164.181 Y83.695 E2.8826
G1 X164.677 Y83.859 E2.89998
G1 X165.235 Y84.064 E2.91975
G1 X166.431 Y84.542 E2.96259
G1 X166.961 Y84.774 E2.98183
G1 X167.803 Y85.187 E3.01302
G1 X168.623 Y85.679 E3.04483
G1 X169.351 Y86.161 E3.07387
G1 X170.11 Y86.712 E3.10506
G1 X170.819 Y87.325 E3.13624
G1 X171.275 Y87.78 E3.15766
G1 X171.547 Y88.068 E3.17084
G1 X172.161 Y88.777 E3.20203
G1 X172.669 Y89.47 E3.23061
G1 X173.843 Y91.21 E3.30043
G1 X175.307 Y93.266 E3.38437
G1 X176.856 Y95.313 E3.46975
G1 X178.426 Y97.272 E3.55325
G1 X180.02 Y99.151 E3.63521
G1 X181.738 Y101.06 E3.72063
G1 X183.455 Y102.865 E3.80348
G1 X185.237 Y104.635 E3.88702
G1 X187.074 Y106.361 E3.97086
G1 X188.979 Y108.05 E4.05554
G1 X190.887 Y109.646 E4.13827
G1 X192.864 Y111.208 E4.22207
G1 X195.492 Y113.165 E4.33106
G1 X196.22 Y113.757 E4.36226
G1 X196.895 Y114.408 E4.39345
G1 X197.511 Y115.115 E4.42464
G1 X198.066 Y115.871 E4.45584
G1 X198.554 Y116.672 E4.48703
G1 X198.972 Y117.512 E4.51824
G1 X199.316 Y118.384 E4.54942
G1 X199.586 Y119.282 E4.58061
G1 X199.778 Y120.2 E4.6118
G1 X199.891 Y121.131 E4.64299
G1 X199.919 Y121.65 E4.66028
G1 X199.934 Y122.313 E4.68234
G1 X199.934 Y139.274 E5.24646
G1 X199.926 Y141.365 E5.31601
G1 X199.934 Y142.43 E5.35143
G1 X199.933 Y150.965 E5.63531
G1 X199.923 Y151.676 E5.65896
G1 X199.906 Y152.144 E5.67453
G1 X199.752 Y154.851 E5.76471
G1 X199.681 Y157.344 E5.84766
G1 X199.681 Y159.869 E5.93165
G1 X199.752 Y162.393 E6.01563
G1 X199.896 Y164.954 E6.10094
G1 X200.015 Y166.464 E6.15132
G1 X200.044 Y167.011 E6.16954
G1 X200.058 Y167.64 E6.19047
G1 X200.057 Y198.262 E7.20896
G1 X200.047 Y198.989 E7.23314
G1 X199.994 Y199.926 E7.26435
G1 X199.862 Y200.854 E7.29553
G1 X199.651 Y201.768 E7.32673
G1 X199.362 Y202.66 E7.35792
G1 X198.999 Y203.525 E7.38912
G1 X198.564 Y204.356 E7.42031
G1 X198.059 Y205.146 E7.4515
G1 X197.489 Y205.891 E7.4827
G1 X196.858 Y206.585 E7.5139
G1 X196.169 Y207.222 E7.5451
G1 X195.429 Y207.798 E7.57629
G1 X194.643 Y208.309 E7.60748
G1 X193.816 Y208.751 E7.63866
G1 X192.954 Y209.121 E7.66986
G1 X192.064 Y209.416 E7.70105
G1 X191.152 Y209.635 E7.73224
G1 X190.225 Y209.775 E7.76343
G1 X189.357 Y209.834 E7.79236
G1 X188.728 Y209.847 E7.81329
G1 X94.669 Y209.845 E10.9417
G1 X93.971 Y209.836 E10.96492
G1 X93.035 Y209.784 E10.9961
G1 X92.106 Y209.652 E11.02731
G1 X91.192 Y209.442 E11.0585
G1 X90.299 Y209.155 E11.0897
G1 X89.434 Y208.792 E11.1209
G1 X88.603 Y208.358 E11.15208
G1 X87.812 Y207.854 E11.18328
G1 X87.067 Y207.284 E11.21448
G1 X86.373 Y206.653 E11.24567
G1 X85.736 Y205.966 E11.27683
G1 X85.159 Y205.226 E11.30804
G1 X84.647 Y204.44 E11.33924
G1 X84.204 Y203.613 E11.37045
G1 X83.833 Y202.752 E11.40163
G1 X83.537 Y201.862 E11.43283
G1 X83.318 Y200.95 E11.46402
G1 X83.177 Y200.023 E11.49521
G1 X83.117 Y199.134 E11.52484
G1 X83.104 Y198.504 E11.5458
G1 X83.104 Y188.16 E11.88984
G1 X83.112 Y186.069 E11.95939
G1 X83.104 Y185.004 E11.99481
G1 X83.105 Y167.85 E12.56536
G1 X83.116 Y167.129 E12.58934
G1 X83.133 Y166.671 E12.60459
G1 X83.286 Y163.992 E12.69384
G1 X83.357 Y161.506 E12.77655
G1 X83.357 Y158.983 E12.86047
G1 X83.286 Y156.459 E12.94445
G1 X83.143 Y153.905 E13.02953
G1 X83.023 Y152.393 E13.07998
G1 X82.993 Y151.837 E13.0985
G1 X82.98 Y151.208 E13.11942
G1 X82.981 Y122.522 E14.07352
G1 X82.991 Y121.831 E14.09651
G1 X83.045 Y120.894 E14.12772
G1 X83.178 Y119.966 E14.1589
G1 X83.389 Y119.052 E14.1901
G1 X83.678 Y118.16 E14.22129
G1 X84.042 Y117.296 E14.25247
G1 X84.478 Y116.465 E14.28369
G1 X84.983 Y115.675 E14.31487
G1 X85.554 Y114.931 E14.34606
G1 X86.186 Y114.238 E14.37726
G1 X86.875 Y113.601 E14.40847
G1 X87.615 Y113.026 E14.43964
G0 F6000 X87.999 Y113.245
G1 F1200 X88.781 Y112.758 E14.47028
G1 X89.6 Y112.342 E14.50083
G1 X90.184 Y112.076 E14.52218
G1 X92.593 Y110.944 E14.6107
G1 X94.838 Y109.81 E14.69436
G1 X97.059 Y108.609 E14.77834
G1 X99.257 Y107.338 E14.86279
G1 X101.408 Y106.011 E14.94685
G1 X103.503 Y104.636 E15.03019
G1 X105.591 Y103.178 E15.1149
G1 X107.613 Y101.681 E15.19857
G1 X109.636 Y100.093 E15.28411
G1 X111.541 Y98.506 E15.36658
G1 X113.464 Y96.812 E15.45182
G1 X115.301 Y95.1 E15.53534
G1 X117.088 Y93.336 E15.61885
G1 X118.834 Y91.512 E15.70283
G1 X121.276 Y88.787 E15.82453
G1 X121.74 Y88.301 E15.84688
G1 X122.09 Y87.957 E15.86321
G1 X122.774 Y87.341 E15.89382
G1 X123.366 Y86.883 E15.91872
G1 X124.126 Y86.364 E15.94933
G1 X124.928 Y85.912 E15.97994
G1 X125.584 Y85.608 E16.00399
G1 X126.436 Y85.247 E16.03477
G1 X127.107 Y84.985 E16.05873
G1 X127.708 Y84.779 E16.07986
G1 X128.337 Y84.591 E16.10169
G1 X129.399 Y84.3 E16.13832
G1 X129.826 Y84.192 E16.15297
G1 X131.262 Y83.862 E16.20197
G1 X132.328 Y83.645 E16.23816
G1 X133.399 Y83.445 E16.27439
G1 X134.909 Y83.182 E16.32537
G1 X136.418 Y82.954 E16.37613
G1 X138.509 Y82.679 E16.44628
G1 X139.743 Y82.535 E16.4876
G1 X141.546 Y82.354 E16.54787
G1 X142.934 Y82.24 E16.59419
G1 X144.661 Y82.13 E16.65175
G1 X145.946 Y82.069 E16.69453
G1 X147.427 Y82.021 E16.74382
G1 X148.673 Y82.01 E16.78526
G1 X149.906 Y82.016 E16.82627
G1 X150.943 Y82.035 E16.86077
G1 X152.606 Y82.11 E16.91614
G1 X154.073 Y82.2 E16.96502
G1 X154.641 Y82.245 E16.98397
G1 X156.036 Y82.394 E17.03063
G1 X157.462 Y82.578 E17.07845
G1 X157.829 Y82.632 E17.09079
G1 X159.077 Y82.843 E17.13289
G1 X160.098 Y83.038 E17.16746
G1 X161.247 Y83.288 E17.20657
G1 X161.868 Y83.445 E17.22788
G1 X163.145 Y83.799 E17.27195
G1 X164.065 Y84.078 E17.30393
G1 X164.543 Y84.235 E17.32066
G1 X165.089 Y84.436 E17.34001
G1 X165.898 Y84.754 E17.36892
G1 X166.801 Y85.141 E17.4016
G1 X167.627 Y85.546 E17.4322
G1 X168.402 Y86.013 E17.46229
G1 X169.13 Y86.495 E17.49133
G1 X169.875 Y87.036 E17.52195
G1 X170.57 Y87.639 E17.55256
G1 X170.984 Y88.055 E17.57208
G1 X171.256 Y88.343 E17.58525
G1 X171.859 Y89.039 E17.61588
G1 X172.338 Y89.693 E17.64285
G1 X173.537 Y91.471 E17.71417
G1 X174.99 Y93.511 E17.79747
G1 X176.527 Y95.542 E17.88219
G1 X178.11 Y97.517 E17.96637
G1 X179.748 Y99.448 E18.05059
G1 X181.416 Y101.302 E18.13354
G1 X183.166 Y103.141 E18.21797
G1 X184.982 Y104.945 E18.30311
G1 X186.818 Y106.669 E18.38688
G1 X188.683 Y108.323 E18.46979
G1 X190.649 Y109.968 E18.55505
G1 X192.622 Y111.528 E18.63871
G1 X195.253 Y113.486 E18.74779
G1 X195.967 Y114.067 E18.7784
G1 X196.628 Y114.708 E18.80903
G1 X197.231 Y115.404 E18.83966
G1 X197.771 Y116.15 E18.87029
G1 X198.244 Y116.94 E18.90091
G1 X198.647 Y117.767 E18.93151
G1 X198.977 Y118.627 E18.96215
G1 X199.231 Y119.512 E18.99277
G1 X199.407 Y120.416 E19.0234
G1 X199.519 Y121.662 E19.06501
G1 X199.534 Y122.313 E19.08667
G1 X199.534 Y139.272 E19.65073
G1 X199.526 Y141.368 E19.72044
G1 X199.534 Y142.433 E19.75587
G1 X199.533 Y150.959 E20.03944
G1 X199.523 Y151.67 E20.06309
G1 X199.507 Y152.121 E20.0781
G1 X199.354 Y154.816 E20.16788
G1 X199.281 Y157.368 E20.2528
G1 X199.281 Y159.88 E20.33635
G1 X199.352 Y162.428 E20.42113
G1 X199.495 Y164.961 E20.50551
G1 X199.616 Y166.495 E20.55669
G1 X199.645 Y167.022 E20.57424
G1 X199.658 Y167.64 E20.5948
G1 X199.657 Y198.257 E21.61313
G1 X199.647 Y198.984 E21.63731
G1 X199.594 Y199.903 E21.66793
G1 X199.462 Y200.814 E21.69854
G1 X199.251 Y201.71 E21.72916
G1 X198.964 Y202.585 E21.75979
G1 X198.601 Y203.431 E21.79041
G1 X198.167 Y204.243 E21.82103
G1 X197.663 Y205.014 E21.85166
G1 X197.095 Y205.738 E21.88227
G1 X196.466 Y206.41 E21.91289
G1 X195.781 Y207.025 E21.9435
G1 X195.045 Y207.578 E21.97412
G1 X194.264 Y208.066 E22.00475
G1 X193.444 Y208.484 E22.03537
G1 X192.59 Y208.829 E22.066
G1 X191.71 Y209.098 E22.09661
G1 X190.809 Y209.291 E22.12725
G1 X189.896 Y209.404 E22.15785
G1 X189.346 Y209.434 E22.17617
G1 X188.728 Y209.447 E22.19673
G1 X94.674 Y209.445 E25.32498
G1 X93.976 Y209.436 E25.3482
G1 X93.057 Y209.384 E25.37881
G1 X92.146 Y209.253 E25.40942
G1 X91.25 Y209.043 E25.44003
G1 X90.375 Y208.756 E25.47066
G1 X89.528 Y208.394 E25.5013
G1 X88.716 Y207.96 E25.53192
G1 X87.945 Y207.458 E25.56252
G1 X87.22 Y206.89 E25.59315
G1 X86.547 Y206.261 E25.62379
G1 X85.932 Y205.577 E25.65438
G1 X85.378 Y204.842 E25.685
G1 X84.89 Y204.061 E25.71563
G1 X84.471 Y203.241 E25.74625
G1 X84.125 Y202.388 E25.77687
G1 X83.855 Y201.508 E25.80749
G1 X83.662 Y200.607 E25.83813
G1 X83.548 Y199.694 E25.86874
G1 X83.517 Y199.123 E25.88776
G1 X83.504 Y198.504 E25.90835
G1 X83.504 Y188.162 E26.25232
G1 X83.512 Y186.066 E26.32204
G1 X83.504 Y185.001 E26.35746
G1 X83.505 Y167.856 E26.92771
G1 X83.516 Y167.135 E26.95169
G1 X83.532 Y166.693 E26.9664
G1 X83.684 Y164.024 E27.05532
G1 X83.757 Y161.483 E27.13986
G1 X83.757 Y158.972 E27.22338
G1 X83.686 Y156.424 E27.30816
G1 X83.543 Y153.895 E27.39241
G1 X83.422 Y152.361 E27.44359
G1 X83.393 Y151.826 E27.46141
G1 X83.38 Y151.208 E27.48197
G1 X83.381 Y122.528 E28.43587
G1 X83.391 Y121.837 E28.45885
G1 X83.444 Y120.918 E28.48947
G1 X83.577 Y120.006 E28.52013
G1 X83.789 Y119.11 E28.55075
G1 X84.077 Y118.236 E28.58136
G1 X84.44 Y117.39 E28.61197
G1 X84.875 Y116.579 E28.64258
G1 X85.379 Y115.808 E28.67322
G1 X85.948 Y115.084 E28.70385
G1 X86.578 Y114.413 E28.73446
G1 X87.263 Y113.798 E28.76508
G1 X87.999 Y113.245 E28.7957
G0 F6000 X88.383 Y113.47
G1 F1200 X89.158 Y113.007 E28.82572
G1 X89.766 Y112.706 E28.84829
G1 X90.373 Y112.43 E28.87047
G1 X92.751 Y111.312 E28.95786
G1 X95.045 Y110.154 E29.04333
G1 X97.256 Y108.958 E29.12694
G1 X99.435 Y107.697 E29.21068
G1 X101.616 Y106.352 E29.2959
G1 X103.745 Y104.954 E29.38061
G1 X105.836 Y103.495 E29.46542
G1 X107.852 Y102.002 E29.54885
G1 X109.872 Y100.417 E29.63425
G1 X111.798 Y98.813 E29.71762
G1 X113.737 Y97.104 E29.80358
G1 X115.589 Y95.378 E29.88779
G1 X117.358 Y93.632 E29.97045
G1 X119.126 Y91.785 E30.05549
G1 X121.573 Y89.054 E30.17746
G1 X122.02 Y88.586 E30.19898
G1 X122.37 Y88.242 E30.2153
G1 X123.042 Y87.639 E30.24533
G1 X123.606 Y87.203 E30.26904
G1 X124.352 Y86.694 E30.29908
G1 X125.14 Y86.254 E30.3291
G1 X125.74 Y85.976 E30.35109
G1 X126.592 Y85.615 E30.38187
G1 X127.248 Y85.359 E30.40529
G1 X127.826 Y85.162 E30.4256
G1 X128.442 Y84.977 E30.44699
G1 X129.504 Y84.686 E30.48362
G1 X129.916 Y84.582 E30.49775
G1 X131.63 Y84.192 E30.55622
G1 X132.402 Y84.038 E30.5824
G1 X133.473 Y83.838 E30.61864
G1 X135.222 Y83.536 E30.67767
G1 X136.477 Y83.349 E30.71987
G1 X138.415 Y83.094 E30.78488
G1 X139.79 Y82.933 E30.83093
G1 X141.579 Y82.752 E30.89074
G1 X142.763 Y82.653 E30.93025
G1 X144.516 Y82.539 E30.98868
G1 X145.96 Y82.469 E31.03677
G1 X147.431 Y82.421 E31.08572
G1 X148.677 Y82.41 E31.12716
G1 X149.904 Y82.416 E31.16797
G1 X151.219 Y82.444 E31.21172
G1 X152.582 Y82.509 E31.2571
G1 X154.049 Y82.599 E31.30599
G1 X154.84 Y82.666 E31.33239
G1 X156.218 Y82.818 E31.3785
G1 X157.41 Y82.974 E31.41849
G1 X157.763 Y83.027 E31.43036
G1 X159.002 Y83.236 E31.47215
G1 X160.023 Y83.431 E31.50672
G1 X161.151 Y83.676 E31.54511
G1 X161.762 Y83.83 E31.56607
G1 X162.768 Y84.106 E31.60077
G1 X163.949 Y84.461 E31.64178
G1 X164.409 Y84.612 E31.65789
G1 X164.942 Y84.808 E31.67678
G1 X165.751 Y85.126 E31.70569
G1 X166.64 Y85.507 E31.73786
G1 X167.451 Y85.905 E31.7679
G1 X168.181 Y86.346 E31.79627
G1 X168.909 Y86.828 E31.82531
G1 X169.639 Y87.36 E31.85535
G1 X170.32 Y87.953 E31.88539
G1 X170.694 Y88.329 E31.90303
G1 X170.966 Y88.617 E31.9162
G1 X171.556 Y89.301 E31.94624
G1 X172.006 Y89.917 E31.97162
G1 X173.2 Y91.687 E32.04263
G1 X174.646 Y93.718 E32.12555
G1 X176.212 Y95.788 E32.21188
G1 X177.809 Y97.781 E32.29683
G1 X179.43 Y99.691 E32.38015
G1 X181.129 Y101.58 E32.46465
G1 X182.895 Y103.436 E32.54986
G1 X184.692 Y105.221 E32.63411
G1 X186.543 Y106.959 E32.71856
G1 X188.444 Y108.645 E32.80307
G1 X190.368 Y110.255 E32.88651
G1 X192.402 Y111.863 E32.97275
G1 X195.014 Y113.807 E33.08104
G1 X195.714 Y114.378 E33.11109
G1 X196.361 Y115.008 E33.14112
G1 X196.949 Y115.693 E33.17115
G1 X197.475 Y116.428 E33.20121
G1 X197.933 Y117.206 E33.23124
G1 X198.321 Y118.022 E33.26129
G1 X198.635 Y118.868 E33.2913
G1 X198.873 Y119.74 E33.32137
G1 X199.033 Y120.628 E33.35138
G1 X199.119 Y121.674 E33.38629
G1 X199.134 Y122.313 E33.40755
G1 X199.134 Y139.271 E33.97157
G1 X199.126 Y141.371 E34.04142
G1 X199.134 Y142.436 E34.07684
G1 X199.133 Y150.953 E34.36012
G1 X199.123 Y151.664 E34.38377
G1 X199.108 Y152.099 E34.39824
G1 X198.954 Y154.819 E34.48886
G1 X198.881 Y157.356 E34.57327
G1 X198.881 Y159.891 E34.65759
G1 X198.952 Y162.425 E34.7419
G1 X199.098 Y165.018 E34.82828
G1 X199.217 Y166.527 E34.87863
G1 X199.245 Y167.034 E34.89552
G1 X199.258 Y167.64 E34.91568
G1 X199.257 Y198.251 E35.9338
G1 X199.247 Y198.978 E35.95798
G1 X199.195 Y199.88 E35.98803
G1 X199.063 Y200.773 E36.01806
G1 X198.852 Y201.652 E36.04812
G1 X198.565 Y202.508 E36.07815
G1 X198.203 Y203.335 E36.10818
G1 X197.769 Y204.127 E36.13822
G1 X197.267 Y204.878 E36.16826
G1 X196.701 Y205.581 E36.19828
G1 X196.074 Y206.232 E36.22834
G1 X195.393 Y206.824 E36.25835
G1 X194.662 Y207.354 E36.28838
G1 X193.886 Y207.817 E36.31844
G1 X193.073 Y208.21 E36.34847
G1 X192.228 Y208.53 E36.37853
G1 X191.359 Y208.773 E36.40854
G1 X190.471 Y208.938 E36.43858
G1 X189.335 Y209.034 E36.4765
G1 X188.728 Y209.047 E36.49669
G1 X94.679 Y209.045 E39.62477
