;FLAVOR:Marlin
;TIME:6817
;Filament used: 4.40267m
;Layer height: 0.2
;MINX:125.286
;MINY:112.157
;MINZ:0.2
;MAXX:176.11
;MAXY:219.499
;MAXZ:13.2
;Generated with Cura_SteamEngine 5.2.1
M140 S60
M105
M190 S60
M104 S210
M105
M109 S210
M82 ;absolute extrusion mode
; Ender 3 Max Custom Start G-code
G92 E0 ; Reset Extruder
G28 ; Home all axes
G1 Z2.0 F3000 ; Move Z Axis up little to prevent scratching of Heat Bed
G1 X0.1 Y20 Z0.3 F5000.0 ; Move to start position
G1 X0.1 Y200.0 Z0.3 F1500.0 E15 ; Draw the first line
G1 X0.4 Y200.0 Z0.3 F5000.0 ; Move to side a little
G1 X0.4 Y20 Z0.3 F1500.0 E30 ; Draw the second line
G92 E0 ; Reset Extruder
G1 Z2.0 F3000 ; Move Z Axis up little to prevent scratching of Heat Bed
G1 X5 Y20 Z0.3 F5000.0 ; Move over to prevent blob squish
G92 E0
G92 E0
G1 F1500 E-6.5
;LAYER_COUNT:66
;LAYER:0
M107
G0 F6000 X127.868 Y116.239 Z0.2
;TYPE:SKIRT
G1 F1500 E0
G1 F1200 X128.5 Y115.546 E0.03119
G1 X129.189 Y114.91 E0.06238
G1 X129.929 Y114.334 E0.09357
G1 X130.579 Y113.906 E0.11946
G1 X130.799 Y113.772 E0.12802
G1 X131.62 Y113.319 E0.15921
G1 X132.477 Y112.937 E0.19042
G1 X133.363 Y112.63 E0.22161
G1 X134.272 Y112.399 E0.2528
G1 X135.197 Y112.247 E0.28398
G1 X136.211 Y112.171 E0.3178
G1 X136.879 Y112.157 E0.34002
G1 X152.857 Y112.163 E0.87145
G1 X153.647 Y112.174 E0.89773
G1 X154.221 Y112.197 E0.91684
G1 X154.719 Y112.23 E0.93344
G1 X155.202 Y112.273 E0.94957
G1 X156.126 Y112.385 E0.98052
G1 X156.867 Y112.499 E1.00546
G1 X157.668 Y112.653 E1.03259
G1 X158.465 Y112.837 E1.05979
G1 X159.125 Y113.006 E1.08245
G1 X159.929 Y113.245 E1.11035
G1 X160.83 Y113.548 E1.14197
G1 X161.39 Y113.754 E1.16181
G1 X161.867 Y113.947 E1.17893
G1 X162.392 Y114.174 E1.19795
G1 X163.089 Y114.5 E1.22354
G1 X163.588 Y114.756 E1.2422
G1 X164.365 Y115.18 E1.27164
G1 X164.925 Y115.507 E1.29321
G1 X165.546 Y115.895 E1.31756
G1 X166.065 Y116.24 E1.33829
G1 X166.641 Y116.647 E1.36175
G1 X167.059 Y116.958 E1.37908
G1 X167.778 Y117.532 E1.40968
G1 X168.356 Y118.036 E1.43518
G1 X168.882 Y118.52 E1.45896
G1 X169.34 Y118.967 E1.48024
G1 X169.785 Y119.427 E1.50153
G1 X170.227 Y119.902 E1.52311
G1 X170.591 Y120.318 E1.5415
G1 X171.034 Y120.859 E1.56475
G1 X171.519 Y121.493 E1.5913
G1 X171.936 Y122.07 E1.61498
G1 X172.378 Y122.73 E1.6414
G1 X172.844 Y123.484 E1.67088
G1 X173.146 Y124 E1.69077
G1 X173.362 Y124.398 E1.70583
G1 X173.722 Y125.095 E1.73192
G1 X174.074 Y125.843 E1.75941
G1 X174.28 Y126.328 E1.77694
G1 X174.72 Y127.459 E1.8173
G1 X174.952 Y128.128 E1.84086
G1 X175.164 Y128.81 E1.86461
G1 X175.365 Y129.545 E1.88995
G1 X175.546 Y130.311 E1.91613
G1 X175.648 Y130.788 E1.93236
G1 X175.785 Y131.555 E1.95827
G1 X175.897 Y132.296 E1.9832
G1 X175.982 Y133.01 E2.00711
G1 X176.025 Y133.517 E2.02403
G1 X176.054 Y133.98 E2.03946
G1 X176.097 Y134.993 E2.07319
G1 X176.107 Y135.459 E2.08869
G1 X176.11 Y192.872 E3.99825
G1 X176.097 Y193.775 E4.02829
G1 X176.097 Y196.515 E4.11942
G1 X176.11 Y197.693 E4.15861
G1 X176.108 Y207.695 E4.49127
G1 X176.097 Y208.415 E4.51522
G1 X176.042 Y209.351 E4.54641
G1 X175.909 Y210.28 E4.57762
G1 X175.696 Y211.193 E4.60881
G1 X175.407 Y212.085 E4.63999
G1 X175.059 Y212.915 E4.66993
G1 X174.947 Y213.154 E4.6787
G1 X174.513 Y213.985 E4.70989
G1 X174.01 Y214.777 E4.74109
G1 X173.441 Y215.523 E4.7723
G1 X172.811 Y216.217 E4.80347
G1 X172.124 Y216.856 E4.83468
G1 X171.385 Y217.433 E4.86586
G1 X170.6 Y217.946 E4.89705
G1 X169.773 Y218.39 E4.92827
G1 X168.912 Y218.761 E4.95945
G1 X168.023 Y219.059 E4.99064
G1 X167.111 Y219.279 E5.02184
G1 X166.184 Y219.421 E5.05303
G1 X165.162 Y219.485 E5.08709
G1 X164.289 Y219.499 E5.11613
G1 X137.037 Y219.495 E6.02254
G1 X136.341 Y219.485 E6.04569
G1 X135.405 Y219.431 E6.07687
G1 X134.476 Y219.298 E6.10809
G1 X133.563 Y219.087 E6.13925
G1 X132.67 Y218.798 E6.17047
G1 X131.806 Y218.435 E6.20164
G1 X130.975 Y217.999 E6.23285
G1 X130.306 Y217.584 E6.25904
G1 X129.469 Y216.976 E6.29345
G1 X128.759 Y216.363 E6.32465
G1 X128.104 Y215.692 E6.35583
G1 X127.509 Y214.967 E6.38703
G1 X126.977 Y214.194 E6.41824
G1 X126.513 Y213.379 E6.44943
G1 X126.121 Y212.527 E6.48062
G1 X125.802 Y211.645 E6.51182
G1 X125.56 Y210.739 E6.54301
G1 X125.396 Y209.816 E6.57419
G1 X125.3 Y208.544 E6.61662
G1 X125.286 Y207.662 E6.64595
G1 X125.29 Y123.946 E9.43036
G1 X125.302 Y123.138 E9.45724
G1 X125.356 Y122.201 E9.48845
G1 X125.49 Y121.273 E9.51964
G1 X125.702 Y120.359 E9.55085
G1 X125.991 Y119.467 E9.58203
G1 X126.355 Y118.603 E9.61322
G1 X126.791 Y117.773 E9.6444
G1 X127.297 Y116.983 E9.6756
G1 X127.868 Y116.239 E9.70679
G0 F6000 X128.262 Y116.392
G1 F1200 X128.891 Y115.721 E9.73738
G1 X129.577 Y115.106 E9.76803
G1 X130.314 Y114.554 E9.79865
G1 X131.007 Y114.114 E9.82596
G1 X131.813 Y113.67 E9.85656
G1 X132.655 Y113.297 E9.88719
G1 X133.526 Y112.999 E9.91781
G1 X134.42 Y112.777 E9.94845
G1 X135.329 Y112.634 E9.97905
G1 X136.223 Y112.571 E10.00886
G1 X136.879 Y112.557 E10.03069
G1 X152.852 Y112.563 E10.56195
G1 X153.642 Y112.574 E10.58823
G1 X154.195 Y112.596 E10.60664
G1 X154.693 Y112.629 E10.62324
G1 X155.158 Y112.67 E10.63876
G1 X156.065 Y112.78 E10.66915
G1 X156.806 Y112.894 E10.69408
G1 X157.578 Y113.043 E10.72024
G1 X158.375 Y113.227 E10.74744
G1 X159.022 Y113.393 E10.76966
G1 X159.39 Y113.498 E10.78239
G1 X160.166 Y113.742 E10.80944
G1 X160.7 Y113.926 E10.82823
G1 X161.249 Y114.129 E10.8477
G1 X161.708 Y114.315 E10.86417
G1 X162.233 Y114.542 E10.88319
G1 X162.915 Y114.86 E10.90822
G1 X163.397 Y115.107 E10.92623
G1 X164.174 Y115.531 E10.95567
G1 X164.713 Y115.846 E10.97644
G1 X165.334 Y116.234 E11.00079
G1 X165.834 Y116.567 E11.02077
G1 X166.41 Y116.974 E11.04423
G1 X166.813 Y117.273 E11.06092
G1 X167.518 Y117.836 E11.09093
G1 X168.085 Y118.331 E11.11596
G1 X168.611 Y118.815 E11.13974
G1 X169.053 Y119.245 E11.16025
G1 X169.498 Y119.705 E11.18153
G1 X169.933 Y120.173 E11.20279
G1 X170.283 Y120.574 E11.22049
G1 X170.719 Y121.105 E11.24334
G1 X171.195 Y121.727 E11.26939
G1 X171.612 Y122.304 E11.29307
G1 X172.038 Y122.94 E11.31853
G1 X172.504 Y123.694 E11.34801
G1 X172.799 Y124.198 E11.36743
G1 X173.007 Y124.582 E11.38196
G1 X173.367 Y125.279 E11.40805
G1 X173.705 Y125.999 E11.43451
G1 X174.054 Y126.837 E11.4647
G1 X174.347 Y127.602 E11.49194
G1 X174.57 Y128.247 E11.51464
G1 X174.782 Y128.929 E11.5384
G1 X174.976 Y129.637 E11.56281
G1 X175.157 Y130.403 E11.58899
G1 X175.255 Y130.863 E11.60464
G1 X175.39 Y131.615 E11.63005
G1 X175.502 Y132.356 E11.65497
G1 X175.583 Y133.044 E11.67801
G1 X175.626 Y133.551 E11.69494
G1 X175.654 Y133.997 E11.7098
G1 X175.697 Y135.01 E11.74352
G1 X175.707 Y135.459 E11.75846
G1 X175.71 Y192.867 E13.66786
G1 X175.697 Y193.77 E13.6979
G1 X175.697 Y196.515 E13.78919
G1 X175.71 Y197.693 E13.82838
G1 X175.708 Y207.689 E14.16085
G1 X175.697 Y208.409 E14.1848
G1 X175.643 Y209.328 E14.21541
G1 X175.509 Y210.239 E14.24604
G1 X175.297 Y211.135 E14.27666
G1 X175.008 Y212.009 E14.30728
G1 X174.696 Y212.745 E14.33387
G1 X174.584 Y212.984 E14.34265
G1 X174.158 Y213.8 E14.37327
G1 X173.662 Y214.576 E14.4039
G1 X173.101 Y215.306 E14.43452
G1 X172.479 Y215.984 E14.46512
G1 X171.8 Y216.606 E14.49575
G1 X171.07 Y217.166 E14.52635
G1 X170.293 Y217.662 E14.55701
G1 X169.477 Y218.088 E14.58762
G1 X168.627 Y218.441 E14.61824
G1 X167.749 Y218.719 E14.64887
G1 X166.851 Y218.921 E14.67948
G1 X165.939 Y219.043 E14.71009
G1 X165.156 Y219.085 E14.73617
G1 X164.283 Y219.099 E14.76521
G1 X137.043 Y219.095 E15.67121
G1 X136.347 Y219.085 E15.69436
G1 X135.428 Y219.032 E15.72498
G1 X134.517 Y218.899 E15.7556
G1 X133.62 Y218.688 E15.78625
G1 X132.746 Y218.399 E15.81687
G1 X131.9 Y218.036 E15.84749
G1 X131.089 Y217.601 E15.8781
G1 X130.449 Y217.193 E15.90334
G1 X129.704 Y216.652 E15.93396
G1 X129.008 Y216.049 E15.96459
G1 X128.368 Y215.387 E15.99522
G1 X127.788 Y214.672 E16.02584
G1 X127.271 Y213.91 E16.05646
G1 X126.823 Y213.106 E16.08708
G1 X126.447 Y212.266 E16.11769
G1 X126.144 Y211.396 E16.14833
G1 X125.918 Y210.504 E16.17893
G1 X125.771 Y209.595 E16.20956
G1 X125.7 Y208.537 E16.24483
G1 X125.686 Y207.662 E16.27393
G1 X125.69 Y123.952 E19.05814
G1 X125.702 Y123.144 E19.08502
G1 X125.756 Y122.225 E19.11564
G1 X125.889 Y121.314 E19.14626
G1 X126.101 Y120.418 E19.17688
G1 X126.389 Y119.543 E19.20752
G1 X126.753 Y118.697 E19.23815
G1 X127.188 Y117.886 E19.26876
G1 X127.693 Y117.116 E19.29939
G1 X128.262 Y116.392 E19.33001
G0 F6000 X128.655 Y116.549
G1 F1200 X129.283 Y115.899 E19.36008
G1 X129.965 Y115.308 E19.39009
G1 X130.995 Y114.59 E19.43185
G1 X131.215 Y114.456 E19.44042
G1 X132.006 Y114.021 E19.47044
G1 X132.833 Y113.657 E19.5005
G1 X133.689 Y113.368 E19.53055
G1 X134.567 Y113.156 E19.56059
G1 X135.46 Y113.022 E19.59062
G1 X136.234 Y112.971 E19.61642
G1 X136.879 Y112.957 E19.63788
G1 X152.846 Y112.963 E20.16894
G1 X153.636 Y112.974 E20.19522
G1 X154.168 Y112.995 E20.21293
G1 X154.666 Y113.028 E20.22953
G1 X155.575 Y113.119 E20.25991
G1 X156.004 Y113.176 E20.27431
G1 X156.745 Y113.29 E20.29924
G1 X157.488 Y113.432 E20.3244
G1 X158.285 Y113.616 E20.35161
G1 X158.919 Y113.779 E20.37338
G1 X159.273 Y113.881 E20.38563
G1 X160.036 Y114.12 E20.41223
G1 X160.57 Y114.304 E20.43101
G1 X161.107 Y114.503 E20.45006
G1 X161.549 Y114.682 E20.46592
G1 X162.074 Y114.909 E20.48495
G1 X162.742 Y115.221 E20.50947
G1 X163.205 Y115.458 E20.52677
G1 X163.982 Y115.882 E20.55621
G1 X164.501 Y116.186 E20.57621
G1 X165.122 Y116.574 E20.60057
G1 X165.603 Y116.894 E20.61978
G1 X166.179 Y117.301 E20.64324
G1 X166.567 Y117.589 E20.65931
G1 X166.908 Y117.855 E20.6737
G1 X167.258 Y118.141 E20.68873
G1 X167.815 Y118.625 E20.71327
G1 X168.341 Y119.109 E20.73705
G1 X168.765 Y119.523 E20.75676
G1 X169.21 Y119.983 E20.77804
G1 X169.638 Y120.444 E20.79897
G1 X169.976 Y120.829 E20.81601
G1 X170.404 Y121.351 E20.83846
G1 X170.871 Y121.961 E20.86401
G1 X171.288 Y122.538 E20.88769
G1 X171.698 Y123.151 E20.91222
G1 X172.164 Y123.905 E20.9417
G1 X172.451 Y124.396 E20.96061
G1 X172.652 Y124.765 E20.97459
G1 X173.012 Y125.462 E21.00068
G1 X173.337 Y126.155 E21.02614
G1 X173.68 Y126.98 E21.05585
G1 X173.973 Y127.745 E21.0831
G1 X174.188 Y128.365 E21.10493
G1 X174.4 Y129.047 E21.12868
G1 X174.587 Y129.729 E21.1522
G1 X174.768 Y130.495 E21.17838
G1 X174.862 Y130.938 E21.19344
G1 X174.994 Y131.675 E21.21835
G1 X175.106 Y132.416 E21.24327
G1 X175.185 Y133.078 E21.26545
G1 X175.228 Y133.585 E21.28237
G1 X175.255 Y134.014 E21.29667
G1 X175.298 Y135.027 E21.33039
G1 X175.307 Y135.459 E21.34476
G1 X175.31 Y192.861 E23.25396
G1 X175.297 Y193.764 E23.284
G1 X175.297 Y196.515 E23.37549
G1 X175.31 Y197.693 E23.41468
G1 X175.308 Y207.683 E23.74695
G1 X175.297 Y208.403 E23.7709
G1 X175.243 Y209.304 E23.80092
G1 X175.11 Y210.198 E23.83098
G1 X174.898 Y211.075 E23.86099
G1 X174.609 Y211.931 E23.89104
G1 X174.334 Y212.575 E23.91433
G1 X174.222 Y212.814 E23.92311
G1 X173.803 Y213.614 E23.95314
G1 X173.315 Y214.374 E23.98318
G1 X172.761 Y215.088 E24.01324
G1 X172.147 Y215.75 E24.04327
G1 X171.477 Y216.355 E24.0733
G1 X170.755 Y216.898 E24.10335
G1 X169.988 Y217.375 E24.13339
G1 X169.183 Y217.783 E24.1634
G1 X168.344 Y218.117 E24.19344
G1 X167.479 Y218.377 E24.22348
G1 X166.594 Y218.558 E24.25352
G1 X165.697 Y218.661 E24.28356
G1 X165.15 Y218.685 E24.30177
G1 X164.111 Y218.7 E24.33633
G1 X137.048 Y218.695 E25.23645
G1 X136.352 Y218.685 E25.2596
G1 X135.451 Y218.632 E25.28962
G1 X134.558 Y218.5 E25.31964
G1 X133.679 Y218.289 E25.34971
G1 X132.823 Y218.001 E25.37975
G1 X131.996 Y217.638 E25.40978
G1 X130.784 Y216.943 E25.45625
G1 X129.939 Y216.328 E25.49101
G1 X129.259 Y215.734 E25.52104
G1 X128.633 Y215.083 E25.55108
G1 X128.068 Y214.379 E25.58111
G1 X127.567 Y213.627 E25.61116
G1 X127.135 Y212.834 E25.6412
G1 X126.775 Y212.006 E25.67123
G1 X126.489 Y211.149 E25.70128
G1 X126.28 Y210.271 E25.73129
G1 X126.15 Y209.377 E25.76134
G1 X126.1 Y208.53 E25.78956
G1 X126.086 Y207.662 E25.81843
G1 X126.09 Y123.958 E28.60244
G1 X126.102 Y123.15 E28.62932
G1 X126.155 Y122.248 E28.65937
G1 X126.288 Y121.355 E28.6894
G1 X126.5 Y120.477 E28.71944
G1 X126.788 Y119.621 E28.74948
G1 X127.151 Y118.794 E28.77952
G1 X127.585 Y118.002 E28.80956
G1 X128.088 Y117.252 E28.83959
G1 X128.655 Y116.549 E28.86963
G1 F1500 E22.36963
;MESH:Cubitos_Dice_Tray_Dice_Cap.STL
G0 F6000 X135.652 Y123.218
G0 X136.887 Y207.896
;TYPE:WALL-INNER
G1 F1500 E28.86963
G1 F1200 X164.509 Y207.899 E29.78834
G1 X164.509 Y197.433 E30.13644
G1 X161.075 Y196.508 E30.25473
G1 X160.671 Y196.262 E30.27046
G1 X160.356 Y195.83 E30.28824
G1 X160.247 Y195.404 E30.30287
G1 X160.247 Y193.315 E30.37235
G1 X160.48 Y192.809 E30.39088
G1 X160.936 Y192.414 E30.41094
G1 X161.45 Y192.264 E30.42875
G1 X161.85 Y192.308 E30.44214
G1 X164.511 Y193.019 E30.53375
G1 X164.501 Y134.846 E32.46859
G1 X164.469 Y134.34 E32.48545
G1 X164.44 Y134.042 E32.49541
G1 X164.383 Y133.6 E32.51023
G1 X164.301 Y133.125 E32.52627
G1 X164.218 Y132.731 E32.53966
G1 X164.128 Y132.372 E32.55197
G1 X164.004 Y131.928 E32.5673
G1 X163.914 Y131.647 E32.57711
G1 X163.742 Y131.168 E32.59404
G1 X163.592 Y130.797 E32.60735
G1 X163.385 Y130.337 E32.62413
G1 X163.155 Y129.882 E32.64109
G1 X163.013 Y129.621 E32.65097
G1 X162.818 Y129.292 E32.66369
G1 X162.498 Y128.796 E32.68332
G1 X162.243 Y128.436 E32.69799
G1 X161.833 Y127.914 E32.72007
G1 X161.612 Y127.658 E32.73132
G1 X161.126 Y127.139 E32.75497
G1 X160.61 Y126.656 E32.77848
G1 X160.083 Y126.218 E32.80127
G1 X159.528 Y125.807 E32.82424
G1 X159.196 Y125.586 E32.8375
G1 X158.819 Y125.353 E32.85224
G1 X158.561 Y125.205 E32.86214
G1 X158.017 Y124.923 E32.88252
G1 X157.662 Y124.757 E32.89555
G1 X157.095 Y124.521 E32.91598
G1 X156.719 Y124.384 E32.92929
G1 X156.323 Y124.256 E32.94313
G1 X155.948 Y124.15 E32.95609
G1 X155.555 Y124.051 E32.96957
G1 X155.064 Y123.949 E32.98625
G1 X154.362 Y123.841 E33.00987
G1 X153.758 Y123.783 E33.03005
G1 X153.365 Y123.763 E33.04314
G1 X136.89 Y123.759 E33.5911
G1 X136.887 Y207.896 E36.38951
G0 F6000 X136.506 Y208.263
;TYPE:WALL-OUTER
G1 F1200 X136.556 Y208.296 E36.3915
G1 X164.862 Y208.3 E37.33297
G1 X164.909 Y208.203 E37.33655
G1 X164.909 Y197.249 E37.70088
G1 X164.691 Y197.067 E37.71033
G1 X161.219 Y196.13 E37.82994
G1 X160.944 Y195.962 E37.84066
G1 X160.726 Y195.657 E37.85313
G1 X160.646 Y195.336 E37.86413
G1 X160.649 Y193.396 E37.92865
G1 X160.804 Y193.065 E37.94081
G1 X161.125 Y192.777 E37.95515
G1 X161.48 Y192.675 E37.96744
G1 X161.747 Y192.694 E37.97634
G1 X164.636 Y193.467 E38.07581
G1 X164.911 Y193.422 E38.08508
G1 X164.901 Y134.829 E40.03389
G1 X164.868 Y134.308 E40.05125
G1 X164.838 Y133.997 E40.06164
G1 X164.779 Y133.54 E40.07697
G1 X164.694 Y133.049 E40.09354
G1 X164.608 Y132.641 E40.10741
G1 X164.515 Y132.27 E40.12013
G1 X164.387 Y131.813 E40.13592
G1 X164.293 Y131.519 E40.14618
G1 X164.116 Y131.025 E40.16364
G1 X163.96 Y130.64 E40.17745
G1 X163.746 Y130.165 E40.19478
G1 X163.509 Y129.696 E40.21226
G1 X163.361 Y129.423 E40.22259
G1 X163.158 Y129.082 E40.23579
G1 X162.83 Y128.572 E40.25596
G1 X162.565 Y128.199 E40.27117
G1 X162.376 Y127.95 E40.28157
G1 X162.14 Y127.658 E40.29406
G1 X161.91 Y127.39 E40.30581
G1 X161.409 Y126.856 E40.33016
G1 X160.875 Y126.356 E40.35449
G1 X160.33 Y125.903 E40.37806
G1 X159.758 Y125.48 E40.40172
G1 X159.412 Y125.249 E40.41556
G1 X159.023 Y125.009 E40.43076
G1 X158.753 Y124.854 E40.44112
G1 X158.194 Y124.564 E40.46206
G1 X157.824 Y124.391 E40.47565
G1 X157.241 Y124.148 E40.49666
G1 X156.849 Y124.006 E40.51052
G1 X156.439 Y123.873 E40.52486
G1 X156.051 Y123.764 E40.53826
G1 X155.645 Y123.661 E40.55219
G1 X155.135 Y123.555 E40.56952
G1 X154.412 Y123.444 E40.59385
G1 X153.788 Y123.384 E40.6147
G1 X153.375 Y123.363 E40.62845
