;FLAVOR:Marlin
;TIME:3616
;Filament used: 1.92455m
;Layer height: 0.2
;MINX:108.006
;MINY:110.118
;MINZ:0.2
;MAXX:195.116
;MAXY:197.611
;MAXZ:5
;Generated with Cura_SteamEngine 5.2.1
M140 S60
M105
M190 S60
M104 S210
M105
M109 S210
M82 ;absolute extrusion mode
; Ender 3 Max Custom Start G-code
G92 E0 ; Reset Extruder
G28 ; Home all axes
G1 Z2.0 F3000 ; Move Z Axis up little to prevent scratching of Heat Bed
G1 X0.1 Y20 Z0.3 F5000.0 ; Move to start position
G1 X0.1 Y200.0 Z0.3 F1500.0 E15 ; Draw the first line
G1 X0.4 Y200.0 Z0.3 F5000.0 ; Move to side a little
G1 X0.4 Y20 Z0.3 F1500.0 E30 ; Draw the second line
G92 E0 ; Reset Extruder
G1 Z2.0 F3000 ; Move Z Axis up little to prevent scratching of Heat Bed
G1 X5 Y20 Z0.3 F5000.0 ; Move over to prevent blob squish
G92 E0
G92 E0
G1 F1500 E-6.5
;LAYER_COUNT:25
;LAYER:0
M107
G0 F6000 X115.562 Y116.316 Z0.2
;TYPE:SKIRT
G1 F1500 E0
G1 F1200 X116.256 Y115.64 E0.03222
G1 X117.065 Y114.921 E0.06822
G1 X117.793 Y114.303 E0.09998
G1 X118.533 Y113.727 E0.13117
G1 X119.32 Y113.216 E0.16238
G1 X120.225 Y112.738 E0.19642
G1 X121.511 Y112.137 E0.24364
G1 X122.141 Y111.862 E0.2665
G1 X122.865 Y111.576 E0.29239
G1 X125.16 Y110.762 E0.37338
G1 X126.056 Y110.486 E0.40456
G1 X126.973 Y110.288 E0.43577
G1 X127.903 Y110.169 E0.46695
G1 X128.661 Y110.13 E0.4922
G1 X129.347 Y110.119 E0.51501
G1 X166.888 Y110.118 E1.76363
G1 X167.679 Y110.128 E1.78994
G1 X170.298 Y110.129 E1.87705
G1 X171.182 Y110.118 E1.90646
G1 X173.478 Y110.119 E1.98282
G1 X174.187 Y110.13 E2.00641
G1 X175.469 Y110.225 E2.04916
G1 X176.557 Y110.37 E2.08567
G1 X177.489 Y110.515 E2.11704
G1 X178.408 Y110.702 E2.14823
G1 X179.307 Y110.967 E2.17941
G1 X180.224 Y111.326 E2.21216
G1 X181.449 Y111.874 E2.25679
G1 X182.924 Y112.573 E2.31108
G1 X185.3 Y113.659 E2.39797
G1 X187.113 Y114.422 E2.4634
G1 X187.778 Y114.71 E2.4875
G1 X188.622 Y115.119 E2.51869
G1 X189.428 Y115.599 E2.54989
G1 X189.996 Y115.996 E2.57294
G1 X190.27 Y116.201 E2.58433
G1 X190.996 Y116.795 E2.61552
G1 X191.669 Y117.448 E2.64671
G1 X192.284 Y118.156 E2.67791
G1 X192.837 Y118.914 E2.70911
G1 X193.323 Y119.716 E2.7403
G1 X193.739 Y120.556 E2.77148
G1 X194.192 Y121.77 E2.81458
G1 X194.404 Y122.458 E2.83852
G1 X194.59 Y123.117 E2.8613
G1 X194.742 Y123.739 E2.88259
G1 X194.812 Y124.069 E2.89381
G1 X194.981 Y125.111 E2.92892
G1 X195.027 Y125.516 E2.94248
G1 X195.095 Y126.548 E2.97688
G1 X195.114 Y127.645 E3.01337
G1 X195.116 Y132.39 E3.17119
G1 X195.106 Y133.091 E3.19451
G1 X195.053 Y134.027 E3.22569
G1 X194.863 Y135.238 E3.26646
G1 X194.648 Y136.238 E3.30048
G1 X194.422 Y137.225 E3.33416
G1 X193.933 Y139.672 E3.41715
G1 X193.508 Y142.168 E3.50137
G1 X193.159 Y144.64 E3.5844
G1 X192.873 Y147.173 E3.66918
G1 X192.665 Y149.654 E3.75199
G1 X192.525 Y152.17 E3.8358
G1 X192.456 Y154.695 E3.91982
G1 X192.458 Y157.22 E4.0038
G1 X192.531 Y159.704 E4.08645
G1 X192.677 Y162.236 E4.17081
G1 X192.895 Y164.772 E4.25547
G1 X193.178 Y167.244 E4.33822
G1 X193.536 Y169.737 E4.42199
G1 X193.812 Y171.388 E4.47766
G1 X194.041 Y172.692 E4.5217
G1 X194.164 Y173.622 E4.5529
G1 X194.207 Y174.559 E4.5841
G1 X194.17 Y175.496 E4.61529
G1 X194.054 Y176.426 E4.64646
G1 X193.858 Y177.344 E4.67768
G1 X193.73 Y177.799 E4.6934
G1 X193.498 Y178.542 E4.71929
G1 X193.29 Y179.151 E4.74069
G1 X192.781 Y180.528 E4.78952
G1 X192.546 Y181.132 E4.81108
G1 X191.706 Y183.49 E4.89433
G1 X190.949 Y185.809 E4.97547
G1 X190.62 Y186.688 E5.00669
G1 X190.218 Y187.535 E5.03787
G1 X189.839 Y188.195 E5.06318
G1 X189.239 Y189.155 E5.10084
G1 X188.723 Y189.938 E5.13202
G1 X188.174 Y190.698 E5.16321
G1 X187.562 Y191.409 E5.19441
G1 X186.867 Y192.088 E5.22673
G1 X186.266 Y192.625 E5.25353
G1 X185.334 Y193.421 E5.2943
G1 X184.595 Y193.997 E5.32546
G1 X183.808 Y194.509 E5.35669
G1 X182.902 Y194.989 E5.39079
G1 X181.967 Y195.43 E5.42517
G1 X181.013 Y195.854 E5.4599
G1 X180.256 Y196.154 E5.48698
G1 X177.959 Y196.968 E5.56803
G1 X177.063 Y197.244 E5.59922
G1 X176.146 Y197.441 E5.63041
G1 X175.216 Y197.561 E5.6616
G1 X174.461 Y197.599 E5.68674
G1 X173.774 Y197.61 E5.7096
G1 X136.077 Y197.61 E6.9634
G1 X135.444 Y197.601 E6.98446
G1 X132.824 Y197.6 E7.0716
G1 X131.94 Y197.611 E7.10101
G1 X129.658 Y197.61 E7.17691
G1 X128.954 Y197.6 E7.20032
G1 X127.642 Y197.503 E7.24408
G1 X126.543 Y197.355 E7.28096
G1 X125.618 Y197.21 E7.3121
G1 X124.699 Y197.021 E7.34331
G1 X123.8 Y196.756 E7.37448
G1 X122.911 Y196.407 E7.40625
G1 X121.732 Y195.881 E7.44919
G1 X120.132 Y195.124 E7.50806
G1 X117.713 Y194.021 E7.59648
G1 X115.424 Y193.052 E7.67916
G1 X114.577 Y192.65 E7.71034
G1 X113.767 Y192.177 E7.74154
G1 X113.064 Y191.692 E7.76994
G1 X112.258 Y191.04 E7.80442
G1 X111.581 Y190.391 E7.83562
G1 X110.962 Y189.686 E7.86682
G1 X110.34 Y188.841 E7.90172
G1 X109.791 Y187.945 E7.93667
G1 X109.37 Y187.107 E7.96786
G1 X108.902 Y185.872 E8.01179
G1 X108.744 Y185.365 E8.02945
G1 X108.499 Y184.491 E8.05964
G1 X108.251 Y183.344 E8.09867
G1 X108.176 Y182.877 E8.1144
G1 X108.051 Y181.689 E8.15413
G1 X108.021 Y181.096 E8.17388
G1 X108.007 Y180.544 E8.19225
G1 X108.006 Y175.327 E8.36577
G1 X108.017 Y174.621 E8.38925
G1 X108.072 Y173.684 E8.42047
G1 X108.26 Y172.487 E8.46077
G1 X108.482 Y171.451 E8.49601
G1 X108.677 Y170.596 E8.52518
G1 X109.173 Y168.106 E8.60962
G1 X109.596 Y165.622 E8.69343
G1 X109.944 Y163.153 E8.77636
G1 X110.228 Y160.638 E8.86054
G1 X110.439 Y158.114 E8.94478
G1 X110.578 Y155.62 E9.02786
G1 X110.647 Y153.098 E9.11178
G1 X110.643 Y150.574 E9.19572
G1 X110.57 Y148.086 E9.27851
G1 X110.423 Y145.532 E9.3636
G1 X110.208 Y143.038 E9.44686
G1 X109.922 Y140.548 E9.53022
G1 X109.566 Y138.066 E9.61362
G1 X109.096 Y135.357 E9.70506
G1 X108.933 Y134.497 E9.73418
G1 X108.798 Y133.569 E9.76537
G1 X108.743 Y132.633 E9.79655
G1 X108.767 Y131.695 E9.82776
G1 X108.871 Y130.763 E9.85895
G1 X109.054 Y129.843 E9.89015
G1 X109.224 Y129.225 E9.91147
G1 X109.369 Y128.752 E9.92792
G1 X109.563 Y128.167 E9.94842
G1 X109.923 Y127.245 E9.98134
G1 X110.549 Y125.833 E10.03271
G1 X111.581 Y123.383 E10.12114
G1 X112.379 Y121.338 E10.19415
G1 X112.757 Y120.48 E10.22533
G1 X113.278 Y119.54 E10.26108
G1 X113.884 Y118.571 E10.29909
G1 X114.401 Y117.787 E10.33032
G1 X114.95 Y117.027 E10.36151
G1 X115.562 Y116.316 E10.39271
G0 F6000 X115.877 Y116.565
G1 F1200 X116.522 Y115.938 E10.42263
G1 X117.324 Y115.226 E10.4583
G1 X118.052 Y114.608 E10.49006
G1 X118.779 Y114.043 E10.52068
G1 X119.552 Y113.544 E10.55128
G1 X120.395 Y113.099 E10.58299
G1 X121.395 Y112.628 E10.61975
G1 X122.301 Y112.228 E10.65269
G1 X122.999 Y111.953 E10.67765
G1 X125.294 Y111.139 E10.75864
G1 X126.174 Y110.869 E10.78925
G1 X127.074 Y110.677 E10.81986
G1 X127.988 Y110.563 E10.8505
G1 X128.667 Y110.53 E10.87311
G1 X129.353 Y110.519 E10.89593
G1 X166.888 Y110.518 E12.14435
G1 X167.673 Y110.528 E12.17046
G1 X170.303 Y110.529 E12.25793
G1 X171.182 Y110.518 E12.28717
G1 X173.471 Y110.519 E12.3633
G1 X174.18 Y110.53 E12.38689
G1 X175.416 Y110.622 E12.42811
G1 X176.774 Y110.806 E12.47369
G1 X177.426 Y110.91 E12.49565
G1 X178.328 Y111.095 E12.52627
G1 X179.21 Y111.357 E12.55688
G1 X180.061 Y111.692 E12.58729
G1 X181.278 Y112.236 E12.63163
G1 X182.763 Y112.94 E12.68629
G1 X185.132 Y114.023 E12.77293
G1 X186.954 Y114.789 E12.83867
G1 X187.619 Y115.077 E12.86277
G1 X188.447 Y115.479 E12.89338
G1 X189.237 Y115.952 E12.92401
G1 X189.756 Y116.317 E12.94511
G1 X190.03 Y116.522 E12.95649
G1 X190.743 Y117.105 E12.98713
G1 X191.402 Y117.747 E13.01773
G1 X192.003 Y118.445 E13.04836
G1 X192.541 Y119.192 E13.07898
G1 X193.012 Y119.982 E13.10957
G1 X193.413 Y120.811 E13.1402
G1 X193.81 Y121.888 E13.17838
G1 X194.022 Y122.576 E13.20232
G1 X194.205 Y123.222 E13.22465
G1 X194.35 Y123.822 E13.24518
G1 X194.42 Y124.152 E13.2564
G1 X194.583 Y125.156 E13.29024
G1 X194.629 Y125.561 E13.30379
G1 X194.695 Y126.556 E13.33696
G1 X194.714 Y127.645 E13.37318
G1 X194.716 Y132.384 E13.5308
G1 X194.706 Y133.085 E13.55412
G1 X194.653 Y134.004 E13.58474
G1 X194.472 Y135.154 E13.62346
G1 X194.258 Y136.148 E13.65728
G1 X194.035 Y137.122 E13.69051
G1 X193.54 Y139.598 E13.77449
G1 X193.111 Y142.117 E13.85948
G1 X192.759 Y144.611 E13.94325
G1 X192.479 Y147.093 E14.02633
G1 X192.266 Y149.634 E14.11114
G1 X192.125 Y152.172 E14.19568
G1 X192.056 Y154.685 E14.2793
G1 X192.058 Y157.232 E14.36401
G1 X192.132 Y159.739 E14.44743
G1 X192.277 Y162.257 E14.53132
G1 X192.494 Y164.785 E14.61571
G1 X192.783 Y167.31 E14.70024
G1 X193.143 Y169.815 E14.78441
G1 X193.405 Y171.384 E14.83732
G1 X193.647 Y172.761 E14.88382
G1 X193.767 Y173.674 E14.91445
G1 X193.807 Y174.594 E14.94508
G1 X193.767 Y175.514 E14.97571
G1 X193.648 Y176.426 E15.0063
G1 X193.348 Y177.682 E15.04925
G1 X193.119 Y178.413 E15.07472
G1 X192.816 Y179.288 E15.10552
G1 X192.408 Y180.383 E15.14439
G1 X192.172 Y180.989 E15.16602
G1 X191.332 Y183.347 E15.24927
G1 X190.569 Y185.685 E15.33107
G1 X190.245 Y186.547 E15.3617
G1 X189.848 Y187.378 E15.39233
G1 X189.499 Y187.984 E15.41559
G1 X188.905 Y188.935 E15.45288
G1 X188.389 Y189.718 E15.48407
G1 X187.849 Y190.464 E15.5147
G1 X187.247 Y191.16 E15.54531
G1 X186.601 Y191.789 E15.5753
G1 X186 Y192.326 E15.60211
G1 X185.075 Y193.116 E15.64256
G1 X184.349 Y193.682 E15.67318
G1 X183.576 Y194.182 E15.7038
G1 X182.732 Y194.627 E15.73554
G1 X181.545 Y195.183 E15.77913
G1 X180.852 Y195.488 E15.80432
G1 X180.123 Y195.777 E15.8304
G1 X177.826 Y196.591 E15.91145
G1 X176.945 Y196.861 E15.9421
G1 X176.045 Y197.053 E15.97271
G1 X175.131 Y197.166 E16.00334
G1 X174.455 Y197.199 E16.02585
G1 X173.768 Y197.21 E16.0487
G1 X136.083 Y197.21 E17.30211
G1 X135.45 Y197.201 E17.32317
G1 X132.819 Y197.2 E17.41067
G1 X131.94 Y197.211 E17.43991
G1 X129.663 Y197.21 E17.51564
G1 X128.959 Y197.2 E17.53906
G1 X127.695 Y197.106 E17.58122
G1 X126.329 Y196.919 E17.62708
G1 X125.682 Y196.815 E17.64887
G1 X124.78 Y196.629 E17.6795
G1 X123.898 Y196.366 E17.71011
G1 X123.073 Y196.041 E17.73961
G1 X121.903 Y195.52 E17.78221
G1 X120.288 Y194.755 E17.84164
G1 X117.872 Y193.654 E17.92995
G1 X115.58 Y192.684 E18.01273
G1 X114.749 Y192.289 E18.04333
G1 X113.955 Y191.822 E18.07397
G1 X113.3 Y191.369 E18.10046
G1 X112.509 Y190.729 E18.1343
G1 X111.847 Y190.09 E18.1649
G1 X111.242 Y189.395 E18.19555
G1 X110.67 Y188.614 E18.22774
G1 X110.132 Y187.736 E18.26199
G1 X109.721 Y186.912 E18.29262
G1 X109.284 Y185.753 E18.33382
G1 X109.126 Y185.246 E18.35148
G1 X108.885 Y184.386 E18.38119
G1 X108.646 Y183.281 E18.41879
G1 X108.571 Y182.814 E18.43452
G1 X108.451 Y181.669 E18.47281
G1 X108.421 Y181.076 E18.49256
G1 X108.407 Y180.544 E18.51026
G1 X108.406 Y175.333 E18.68358
G1 X108.417 Y174.627 E18.70706
G1 X108.472 Y173.708 E18.73768
G1 X108.651 Y172.571 E18.77597
G1 X108.873 Y171.535 E18.81121
G1 X109.075 Y170.651 E18.84137
G1 X109.559 Y168.221 E18.92378
G1 X109.993 Y165.674 E19.00971
G1 X110.344 Y163.182 E19.09341
G1 X110.626 Y160.683 E19.17706
G1 X110.837 Y158.169 E19.26097
G1 X110.978 Y155.617 E19.34598
G1 X111.047 Y153.109 E19.42942
G1 X111.043 Y150.561 E19.51417
G1 X110.969 Y148.051 E19.59769
G1 X110.825 Y145.546 E19.68114
G1 X110.605 Y142.995 E19.76631
G1 X110.315 Y140.467 E19.85094
G1 X109.962 Y138.012 E19.93343
G1 X109.486 Y135.268 E20.02606
G1 X109.326 Y134.422 E20.0547
G1 X109.194 Y133.511 E20.08531
G1 X109.142 Y132.592 E20.11593
G1 X109.17 Y131.672 E20.14654
G1 X109.277 Y130.758 E20.17715
G1 X109.463 Y129.856 E20.20778
G1 X109.607 Y129.342 E20.22554
G1 X109.848 Y128.569 E20.25247
G1 X109.941 Y128.295 E20.26209
G1 X110.288 Y127.407 E20.2938
G1 X110.943 Y125.928 E20.3476
G1 X111.946 Y123.548 E20.4335
G1 X112.752 Y121.483 E20.50723
G1 X113.123 Y120.641 E20.53783
G1 X113.618 Y119.751 E20.57171
G1 X114.059 Y119.04 E20.59953
G1 X114.735 Y118.008 E20.64057
G1 X115.275 Y117.262 E20.6712
G1 X115.877 Y116.565 E20.70183
G0 F6000 X116.192 Y116.815
G1 F1200 X116.789 Y116.236 E20.72949
G1 X117.583 Y115.531 E20.76481
G1 X118.311 Y114.913 E20.79657
G1 X119.025 Y114.36 E20.8266
G1 X119.784 Y113.871 E20.85663
G1 X120.566 Y113.461 E20.886
G1 X121.566 Y112.99 E20.92277
G1 X122.461 Y112.595 E20.9553
G1 X123.132 Y112.33 E20.9793
G1 X125.427 Y111.516 E21.06029
G1 X126.291 Y111.252 E21.09034
G1 X127.175 Y111.065 E21.12039
G1 X128.071 Y110.958 E21.1504
G1 X128.673 Y110.93 E21.17045
G1 X129.359 Y110.919 E21.19327
G1 X166.888 Y110.918 E22.44149
G1 X167.667 Y110.928 E22.4674
G1 X170.308 Y110.929 E22.55524
G1 X171.182 Y110.918 E22.58431
G1 X173.465 Y110.919 E22.66024
G1 X174.174 Y110.93 E22.68383
G1 X175.363 Y111.018 E22.72348
G1 X176.451 Y111.163 E22.75999
G1 X177.363 Y111.305 E22.79069
G1 X178.247 Y111.487 E22.82071
G1 X179.112 Y111.746 E22.85074
G1 X179.899 Y112.057 E22.87888
G1 X181.106 Y112.597 E22.92286
G1 X182.606 Y113.308 E22.97808
G1 X184.976 Y114.391 E23.06474
G1 X186.795 Y115.156 E23.13037
G1 X187.46 Y115.444 E23.15448
G1 X188.272 Y115.839 E23.18451
G1 X189.046 Y116.305 E23.21456
G1 X189.516 Y116.637 E23.2337
G1 X189.79 Y116.842 E23.24508
G1 X190.489 Y117.414 E23.27512
G1 X191.134 Y118.046 E23.30516
G1 X191.721 Y118.733 E23.33521
G1 X192.244 Y119.469 E23.36524
G1 X192.701 Y120.248 E23.39528
G1 X193.086 Y121.065 E23.42532
G1 X193.428 Y122.005 E23.45859
G1 X193.64 Y122.693 E23.48253
G1 X193.819 Y123.328 E23.50448
G1 X193.959 Y123.905 E23.52423
G1 X194.029 Y124.235 E23.53545
G1 X194.186 Y125.201 E23.568
G1 X194.232 Y125.606 E23.58155
G1 X194.295 Y126.563 E23.61345
G1 X194.314 Y127.645 E23.64944
G1 X194.317 Y132.226 E23.80181
G1 X194.306 Y133.079 E23.83018
G1 X194.253 Y133.981 E23.86024
G1 X194.081 Y135.07 E23.8969
G1 X193.868 Y136.059 E23.93055
G1 X193.639 Y137.06 E23.96471
G1 X193.146 Y139.524 E24.04828
G1 X192.719 Y142.031 E24.13287
G1 X192.365 Y144.543 E24.21724
G1 X192.078 Y147.089 E24.30246
G1 X191.866 Y149.612 E24.38667
G1 X191.725 Y152.139 E24.47085
G1 X191.656 Y154.675 E24.55523
G1 X191.658 Y157.209 E24.63951
G1 X191.733 Y159.773 E24.72483
G1 X191.878 Y162.281 E24.80838
G1 X192.096 Y164.825 E24.8933
G1 X192.389 Y167.375 E24.97868
G1 X192.744 Y169.85 E25.06184
G1 X193.026 Y171.538 E25.11876
G1 X193.253 Y172.83 E25.16239
G1 X193.37 Y173.726 E25.19244
G1 X193.407 Y174.628 E25.22247
G1 X193.364 Y175.53 E25.2525
G1 X193.242 Y176.425 E25.28255
G1 X192.965 Y177.566 E25.3216
G1 X192.741 Y178.284 E25.34661
G1 X192.533 Y178.893 E25.36802
G1 X192.091 Y180.091 E25.41049
G1 X191.814 Y180.805 E25.43596
G1 X190.947 Y183.238 E25.52187
G1 X190.189 Y185.561 E25.60314
G1 X189.871 Y186.406 E25.63317
G1 X189.479 Y187.22 E25.66322
G1 X189.159 Y187.773 E25.68447
G1 X188.571 Y188.715 E25.7214
G1 X188.055 Y189.498 E25.75259
G1 X187.525 Y190.229 E25.78262
G1 X186.933 Y190.911 E25.81266
G1 X186.334 Y191.491 E25.84039
G1 X185.543 Y192.194 E25.87559
G1 X184.816 Y192.812 E25.90733
G1 X184.103 Y193.365 E25.93734
G1 X183.344 Y193.854 E25.96737
G1 X182.561 Y194.265 E25.99678
G1 X181.384 Y194.817 E26.04002
G1 X180.691 Y195.122 E26.0652
G1 X179.989 Y195.4 E26.09032
G1 X177.692 Y196.214 E26.17137
G1 X176.828 Y196.478 E26.20142
G1 X175.945 Y196.664 E26.23143
G1 X175.048 Y196.771 E26.26148
G1 X174.448 Y196.799 E26.28145
G1 X173.761 Y196.81 E26.30431
G1 X136.089 Y196.81 E27.55728
G1 X135.456 Y196.801 E27.57834
G1 X132.814 Y196.8 E27.66621
G1 X131.94 Y196.811 E27.69528
G1 X129.669 Y196.81 E27.77082
G1 X128.965 Y196.8 E27.79423
G1 X127.749 Y196.71 E27.83479
G1 X126.392 Y196.524 E27.88035
G1 X125.745 Y196.42 E27.90214
G1 X124.861 Y196.237 E27.93217
G1 X123.996 Y195.977 E27.96221
G1 X123.234 Y195.676 E27.98946
G1 X122.308 Y195.266 E28.02314
G1 X120.475 Y194.401 E28.09055
G1 X118.045 Y193.294 E28.17937
G1 X115.736 Y192.316 E28.26277
G1 X114.921 Y191.927 E28.29281
G1 X114.143 Y191.468 E28.32285
G1 X113.463 Y190.987 E28.35055
