;FLAVOR:Marlin
;TIME:3369
;Filament used: 1.69534m
;Layer height: 0.2
;MINX:75.94
;MINY:106.187
;MINZ:0.2
;MAXX:198.916
;MAXY:172.391
;MAXZ:8.2
;Generated with Cura_SteamEngine 5.2.1
M140 S60
M105
M190 S60
M104 S215
M105
M109 S215
M82 ;absolute extrusion mode
; Ender 3 Max Custom Start G-code
G92 E0 ; Reset Extruder
G28 ; Home all axes
G1 Z2.0 F3000 ; Move Z Axis up little to prevent scratching of Heat Bed
G1 X0.1 Y20 Z0.3 F5000.0 ; Move to start position
G1 X0.1 Y200.0 Z0.3 F1500.0 E15 ; Draw the first line
G1 X0.4 Y200.0 Z0.3 F5000.0 ; Move to side a little
G1 X0.4 Y20 Z0.3 F1500.0 E30 ; Draw the second line
G92 E0 ; Reset Extruder
G1 Z2.0 F3000 ; Move Z Axis up little to prevent scratching of Heat Bed
G1 X5 Y20 Z0.3 F5000.0 ; Move over to prevent blob squish
G92 E0
G92 E0
G1 F1500 E-6.5
;LAYER_COUNT:41
;LAYER:0
M107
G0 F6000 X87.334 Y110.478 Z0.2
;TYPE:SKIRT
G1 F1500 E0
G1 F1200 X88.062 Y109.949 E0.02993
G1 X88.456 Y109.681 E0.04578
G1 X88.898 Y109.395 E0.06329
G1 X89.285 Y109.158 E0.07838
G1 X90.053 Y108.72 E0.10779
G1 X90.502 Y108.484 E0.12466
G1 X90.906 Y108.283 E0.13967
G1 X91.396 Y108.054 E0.15766
G1 X92.256 Y107.687 E0.18876
G1 X92.667 Y107.527 E0.20343
G1 X93.526 Y107.225 E0.23371
G1 X94.049 Y107.062 E0.25193
G1 X94.513 Y106.93 E0.26798
G1 X94.983 Y106.807 E0.28414
G1 X95.847 Y106.611 E0.3136
G1 X96.287 Y106.525 E0.32851
G1 X96.824 Y106.434 E0.34663
G1 X97.274 Y106.369 E0.36175
G1 X97.76 Y106.31 E0.37803
G1 X98.689 Y106.228 E0.40905
G1 X99.146 Y106.203 E0.42428
G1 X99.674 Y106.187 E0.44185
G1 X100.599 Y106.191 E0.47261
G1 X101.063 Y106.208 E0.48805
G1 X101.569 Y106.239 E0.50492
G1 X102.463 Y106.323 E0.53478
G1 X102.945 Y106.384 E0.55094
G1 X103.445 Y106.459 E0.56776
G1 X103.854 Y106.53 E0.58156
G1 X104.357 Y106.629 E0.59861
G1 X104.83 Y106.734 E0.61473
G1 X105.325 Y106.856 E0.63169
G1 X105.738 Y106.968 E0.64592
G1 X106.663 Y107.252 E0.6781
G1 X107.222 Y107.446 E0.69778
G1 X110.409 Y108.651 E0.81111
G1 X112.759 Y109.467 E0.89384
G1 X115.168 Y110.227 E0.97786
G1 X117.576 Y110.912 E1.06113
G1 X120.029 Y111.537 E1.14532
G1 X122.523 Y112.096 E1.23033
G1 X124.965 Y112.571 E1.31307
G1 X127.413 Y112.976 E1.3956
G1 X129.958 Y113.324 E1.48104
G1 X132.441 Y113.593 E1.56411
G1 X134.917 Y113.789 E1.64672
G1 X137.484 Y113.921 E1.73221
G1 X139.965 Y113.977 E1.81475
G1 X142.487 Y113.964 E1.89863
G1 X145.018 Y113.878 E1.98286
G1 X147.52 Y113.723 E2.06624
G1 X150.033 Y113.494 E2.15016
G1 X152.517 Y113.199 E2.23336
G1 X155.047 Y112.825 E2.31843
G1 X157.473 Y112.395 E2.40037
G1 X159.953 Y111.883 E2.4846
G1 X162.405 Y111.305 E2.56839
G1 X164.841 Y110.657 E2.65223
G1 X167.264 Y109.939 E2.73628
G1 X169.983 Y109.044 E2.83149
G1 X170.795 Y108.802 E2.85967
G1 X171.492 Y108.62 E2.88363
G1 X171.905 Y108.525 E2.89772
G1 X172.59 Y108.388 E2.92096
G1 X173.068 Y108.306 E2.93709
G1 X173.512 Y108.24 E2.95202
G1 X174.311 Y108.143 E2.97879
G1 X175.041 Y108.08 E3.00316
G1 X175.778 Y108.043 E3.0277
G1 X176.675 Y108.032 E3.05754
G1 X177.227 Y108.043 E3.0759
G1 X177.916 Y108.079 E3.09885
G1 X178.725 Y108.146 E3.12585
G1 X179.512 Y108.239 E3.15221
G1 X180.07 Y108.326 E3.17099
G1 X181.119 Y108.523 E3.20649
G1 X182.007 Y108.734 E3.23685
G1 X182.407 Y108.847 E3.25067
G1 X183.094 Y109.066 E3.27465
G1 X183.672 Y109.271 E3.29505
G1 X184.459 Y109.585 E3.32323
G1 X185.013 Y109.831 E3.34339
G1 X185.823 Y110.231 E3.37344
G1 X186.147 Y110.408 E3.38572
G1 X187 Y110.925 E3.4189
G1 X187.504 Y111.263 E3.43908
G1 X188.101 Y111.693 E3.46355
G1 X188.47 Y111.978 E3.47906
G1 X189.159 Y112.557 E3.50899
G1 X189.375 Y112.754 E3.51871
G1 X189.862 Y113.227 E3.54129
G1 X190.173 Y113.548 E3.55616
G1 X190.686 Y114.115 E3.58159
G1 X190.996 Y114.483 E3.5976
G1 X191.466 Y115.082 E3.62292
G1 X191.856 Y115.616 E3.64491
G1 X192.401 Y116.438 E3.67772
G1 X192.767 Y117.047 E3.70135
G1 X193.155 Y117.749 E3.72803
G1 X193.553 Y118.536 E3.75736
G1 X193.734 Y118.911 E3.77121
G1 X194.115 Y119.757 E3.80207
G1 X194.357 Y120.35 E3.82337
G1 X194.723 Y121.308 E3.85748
G1 X195.054 Y122.252 E3.89075
G1 X195.257 Y122.89 E3.91302
G1 X195.535 Y123.81 E3.94498
G1 X195.871 Y125.024 E3.98688
G1 X196.172 Y126.201 E4.02729
G1 X196.562 Y127.835 E4.08316
G1 X197.035 Y129.959 E4.15554
G1 X197.311 Y131.27 E4.2001
G1 X197.586 Y132.657 E4.24713
G1 X197.847 Y134.059 E4.29456
G1 X198.005 Y134.957 E4.32488
G1 X198.326 Y136.982 E4.39308
G1 X198.454 Y137.904 E4.42404
G1 X198.633 Y139.371 E4.47319
G1 X198.762 Y140.686 E4.51714
G1 X198.822 Y141.469 E4.54326
G1 X198.894 Y142.94 E4.59224
G1 X198.916 Y144.154 E4.63263
G1 X198.902 Y145.313 E4.67118
G1 X198.849 Y146.63 E4.71502
G1 X198.795 Y147.416 E4.74122
G1 X198.716 Y148.276 E4.76994
G1 X198.608 Y149.206 E4.80108
G1 X198.535 Y149.737 E4.81891
G1 X198.328 Y150.999 E4.86145
G1 X198.091 Y152.2 E4.90216
G1 X198.004 Y152.593 E4.91555
G1 X197.726 Y153.718 E4.95409
G1 X197.509 Y154.492 E4.98083
G1 X197.382 Y154.911 E4.99539
G1 X197.124 Y155.708 E5.02325
G1 X196.974 Y156.142 E5.03853
G1 X196.612 Y157.119 E5.07318
G1 X196.351 Y157.774 E5.09663
G1 X196.14 Y158.256 E5.11413
G1 X195.853 Y158.872 E5.13673
G1 X195.637 Y159.309 E5.15295
G1 X195.34 Y159.879 E5.17433
G1 X195.052 Y160.397 E5.19404
G1 X194.826 Y160.779 E5.2088
G1 X194.517 Y161.271 E5.22812
G1 X194.016 Y162.024 E5.25821
G1 X193.265 Y163.024 E5.2998
G1 X192.79 Y163.587 E5.3243
G1 X192.213 Y164.22 E5.35279
G1 X191.84 Y164.598 E5.37045
G1 X191.269 Y165.137 E5.39657
G1 X190.965 Y165.404 E5.41003
G1 X190.207 Y166.013 E5.44237
G1 X189.747 Y166.35 E5.46133
G1 X189.047 Y166.822 E5.48941
G1 X188.143 Y167.373 E5.52462
G1 X187.689 Y167.63 E5.54198
G1 X187.08 Y167.955 E5.56493
G1 X186.306 Y168.334 E5.5936
G1 X185.711 Y168.603 E5.61532
G1 X184.92 Y168.933 E5.64382
G1 X184.273 Y169.183 E5.66689
G1 X183.597 Y169.42 E5.69072
G1 X183.213 Y169.546 E5.70416
G1 X182.512 Y169.76 E5.72854
G1 X182.015 Y169.899 E5.7457
G1 X181.178 Y170.105 E5.77437
G1 X180.493 Y170.25 E5.79766
G1 X180.026 Y170.337 E5.81346
G1 X179.429 Y170.431 E5.83356
G1 X178.883 Y170.502 E5.85187
G1 X178.333 Y170.56 E5.87027
G1 X177.916 Y170.593 E5.88418
G1 X177.427 Y170.62 E5.90047
G1 X176.76 Y170.643 E5.92267
G1 X175.925 Y170.641 E5.95044
G1 X175.419 Y170.62 E5.96728
G1 X174.825 Y170.579 E5.98709
G1 X174.387 Y170.537 E6.00172
G1 X173.827 Y170.468 E6.02049
G1 X173.354 Y170.398 E6.03639
G1 X172.844 Y170.311 E6.0536
G1 X172.167 Y170.178 E6.07655
G1 X171.595 Y170.05 E6.09604
G1 X171.072 Y169.918 E6.11398
G1 X170.569 Y169.778 E6.13135
G1 X169.576 Y169.475 E6.16588
G1 X166.88 Y168.61 E6.26005
G1 X164.496 Y167.92 E6.3426
G1 X162.033 Y167.282 E6.42722
G1 X159.579 Y166.721 E6.51095
G1 X157.128 Y166.233 E6.59407
G1 X154.625 Y165.807 E6.67852
G1 X152.142 Y165.457 E6.76192
G1 X149.666 Y165.179 E6.84479
G1 X147.115 Y164.965 E6.92993
G1 X144.636 Y164.828 E7.01251
G1 X142.104 Y164.759 E7.09675
G1 X139.582 Y164.763 E7.18064
G1 X137.067 Y164.837 E7.26432
G1 X134.568 Y164.982 E7.34758
G1 X132.066 Y165.197 E7.4311
G1 X129.538 Y165.488 E7.51574
G1 X127.084 Y165.84 E7.5982
G1 X124.557 Y166.277 E7.68349
G1 X122.134 Y166.766 E7.76571
G1 X119.672 Y167.335 E7.84975
G1 X117.228 Y167.975 E7.93378
G1 X114.827 Y168.675 E8.01696
G1 X112.423 Y169.452 E8.10099
G1 X108.616 Y170.83 E8.23565
G1 X107.777 Y171.125 E8.26523
G1 X106.883 Y171.41 E8.29644
G1 X106.047 Y171.641 E8.32529
G1 X105.456 Y171.781 E8.34549
G1 X104.704 Y171.937 E8.37103
G1 X103.899 Y172.081 E8.39823
G1 X102.918 Y172.219 E8.43118
G1 X102.027 Y172.312 E8.46098
G1 X101.431 Y172.353 E8.48085
G1 X100.705 Y172.383 E8.50502
G1 X99.781 Y172.391 E8.53575
G1 X98.964 Y172.368 E8.56293
G1 X98.149 Y172.319 E8.59009
G1 X97.41 Y172.252 E8.61477
G1 X96.876 Y172.187 E8.63266
G1 X96.359 Y172.111 E8.65004
G1 X95.835 Y172.021 E8.66773
G1 X94.966 Y171.85 E8.69718
G1 X94.297 Y171.702 E8.71997
G1 X93.784 Y171.571 E8.73758
G1 X93.307 Y171.437 E8.75406
G1 X92.726 Y171.256 E8.7743
G1 X91.608 Y170.866 E8.81368
G1 X90.946 Y170.611 E8.83728
G1 X90.294 Y170.335 E8.86083
G1 X89.767 Y170.092 E8.88013
G1 X89.097 Y169.764 E8.90494
G1 X88.574 Y169.485 E8.92466
G1 X88.257 Y169.305 E8.93678
G1 X87.782 Y169.02 E8.9552
G1 X87.24 Y168.675 E8.97657
G1 X86.844 Y168.41 E8.99242
G1 X86.332 Y168.052 E9.0132
G1 X85.733 Y167.61 E9.03796
G1 X85.356 Y167.313 E9.05392
G1 X84.767 Y166.828 E9.0793
G1 X84.154 Y166.284 E9.10656
G1 X83.69 Y165.84 E9.12792
G1 X83.369 Y165.519 E9.14302
G1 X82.689 Y164.801 E9.17591
G1 X82.314 Y164.379 E9.19469
G1 X81.766 Y163.725 E9.22306
G1 X81.479 Y163.36 E9.23851
G1 X81.137 Y162.906 E9.25741
G1 X80.879 Y162.548 E9.27209
G1 X80.392 Y161.831 E9.30092
G1 X80.003 Y161.222 E9.32495
G1 X79.565 Y160.474 E9.35378
G1 X79.216 Y159.819 E9.37847
G1 X78.997 Y159.385 E9.39464
G1 X78.754 Y158.876 E9.4134
G1 X78.388 Y158.045 E9.4436
G1 X78.023 Y157.115 E9.47683
G1 X77.868 Y156.683 E9.49209
G1 X77.617 Y155.909 E9.51916
G1 X77.45 Y155.341 E9.53885
G1 X77.325 Y154.88 E9.55473
G1 X77.072 Y153.832 E9.59059
G1 X76.925 Y153.12 E9.61477
G1 X76.779 Y152.308 E9.64221
G1 X76.546 Y150.803 E9.69286
G1 X76.41 Y149.773 E9.72742
G1 X76.287 Y148.691 E9.76364
G1 X76.144 Y147.196 E9.81359
G1 X76.062 Y146.108 E9.84988
G1 X75.98 Y144.545 E9.90194
G1 X75.94 Y142.892 E9.95693
G1 X75.943 Y141.585 E10.0004
G1 X75.977 Y140.386 E10.0403
G1 X76.027 Y139.412 E10.07274
G1 X76.15 Y137.765 E10.12767
G1 X76.305 Y136.246 E10.17845
G1 X76.487 Y134.797 E10.22703
G1 X76.691 Y133.394 E10.27418
G1 X76.872 Y132.258 E10.31244
G1 X77.112 Y130.868 E10.35936
G1 X77.456 Y129.055 E10.42073
G1 X77.712 Y127.803 E10.46324
G1 X77.885 Y127.012 E10.49017
G1 X78.303 Y125.296 E10.54891
G1 X78.589 Y124.23 E10.58562
G1 X78.778 Y123.58 E10.60813
G1 X79.11 Y122.528 E10.64482
G1 X79.44 Y121.582 E10.67815
G1 X79.863 Y120.477 E10.7175
G1 X80.156 Y119.77 E10.74295
G1 X80.383 Y119.269 E10.76125
G1 X80.694 Y118.628 E10.78495
G1 X81.234 Y117.596 E10.82368
G1 X81.557 Y117.021 E10.84562
G1 X81.805 Y116.614 E10.86147
G1 X82.11 Y116.136 E10.88033
G1 X82.412 Y115.687 E10.89833
G1 X82.698 Y115.284 E10.91476
G1 X82.996 Y114.884 E10.93136
G1 X83.411 Y114.352 E10.9538
G1 X83.823 Y113.855 E10.97527
G1 X84.289 Y113.325 E10.99874
G1 X84.591 Y112.995 E11.01362
G1 X85.311 Y112.252 E11.04803
G1 X85.823 Y111.756 E11.07174
G1 X86.421 Y111.218 E11.09849
G1 X86.842 Y110.866 E11.11675
G1 X87.334 Y110.478 E11.13759
G0 F6000 X87.573 Y110.799
G1 F1200 X88.287 Y110.279 E11.16697
G1 X88.681 Y110.011 E11.18281
G1 X89.107 Y109.736 E11.19968
G1 X89.494 Y109.499 E11.21477
G1 X90.248 Y109.069 E11.24364
G1 X90.68 Y108.842 E11.25987
G1 X91.084 Y108.641 E11.27488
G1 X91.556 Y108.42 E11.29222
G1 X91.997 Y108.227 E11.30823
G1 X92.813 Y107.9 E11.33746
G1 X93.654 Y107.604 E11.36712
G1 X94.159 Y107.447 E11.38471
G1 X95.075 Y107.196 E11.4163
G1 X95.509 Y107.093 E11.43113
G1 X96.364 Y106.918 E11.46016
G1 X96.882 Y106.83 E11.47764
G1 X97.332 Y106.765 E11.49276
G1 X97.799 Y106.708 E11.50841
G1 X98.242 Y106.664 E11.52321
G1 X98.711 Y106.628 E11.53886
G1 X99.168 Y106.603 E11.55408
G1 X99.676 Y106.587 E11.57098
G1 X100.125 Y106.584 E11.58592
G1 X101.048 Y106.608 E11.61663
G1 X101.536 Y106.637 E11.63289
G1 X101.958 Y106.672 E11.64697
G1 X102.895 Y106.781 E11.67835
G1 X103.377 Y106.853 E11.69456
G1 X103.786 Y106.924 E11.70836
G1 X104.27 Y107.02 E11.72477
G1 X104.743 Y107.125 E11.74089
G1 X105.22 Y107.243 E11.75723
G1 X106.069 Y107.483 E11.78658
G1 X106.541 Y107.633 E11.80305
G1 X107.08 Y107.82 E11.82203
G1 X110.273 Y109.027 E11.93556
G1 X112.613 Y109.839 E12.01794
G1 X115.053 Y110.609 E12.10304
G1 X117.497 Y111.305 E12.18756
G1 X119.956 Y111.931 E12.27196
G1 X122.43 Y112.485 E12.35628
G1 X124.86 Y112.959 E12.43862
G1 X127.395 Y113.378 E12.52408
G1 X129.863 Y113.716 E12.60693
G1 X132.402 Y113.99 E12.69187
G1 X134.936 Y114.191 E12.77642
G1 X137.454 Y114.321 E12.86028
G1 X139.958 Y114.377 E12.94358
G1 X142.502 Y114.364 E13.0282
G1 X145.022 Y114.278 E13.11206
G1 X147.545 Y114.122 E13.19614
G1 X150.08 Y113.891 E13.2808
G1 X152.586 Y113.593 E13.36474
G1 X155.075 Y113.225 E13.44842
G1 X157.586 Y112.781 E13.53324
G1 X160.054 Y112.271 E13.61706
G1 X162.495 Y111.696 E13.70047
G1 X164.92 Y111.05 E13.78393
G1 X167.397 Y110.316 E13.86986
G1 X170.108 Y109.424 E13.96478
G1 X170.906 Y109.186 E13.99248
G1 X171.59 Y109.008 E14.01599
G1 X172.262 Y108.858 E14.03889
G1 X173.136 Y108.701 E14.06842
G1 X173.979 Y108.582 E14.09674
G1 X174.699 Y108.508 E14.12081
G1 X175.065 Y108.48 E14.13302
G1 X175.788 Y108.443 E14.1571
G1 X176.667 Y108.432 E14.18634
G1 X177.219 Y108.443 E14.2047
G1 X177.883 Y108.477 E14.22682
G1 X178.692 Y108.544 E14.25382
G1 X179.45 Y108.635 E14.27921
G1 X180.401 Y108.79 E14.31126
G1 X181.043 Y108.915 E14.33301
G1 X181.899 Y109.119 E14.36228
G1 X182.299 Y109.232 E14.3761
G1 X182.96 Y109.443 E14.39918
G1 X183.538 Y109.648 E14.41958
G1 X184.297 Y109.95 E14.44675
G1 X184.851 Y110.196 E14.46691
G1 X185.631 Y110.582 E14.49585
G1 X185.955 Y110.759 E14.50813
G1 X186.777 Y111.257 E14.5401
G1 X187.281 Y111.595 E14.56028
G1 X187.856 Y112.01 E14.58387
G1 X188.225 Y112.295 E14.59938
G1 X188.889 Y112.852 E14.6282
G1 X189.105 Y113.049 E14.63793
G1 X189.575 Y113.505 E14.65971
G1 X189.886 Y113.826 E14.67457
G1 X190.38 Y114.373 E14.69909
G1 X190.69 Y114.741 E14.71509
G1 X191.143 Y115.318 E14.73949
G1 X191.533 Y115.852 E14.76148
G1 X192.058 Y116.644 E14.79309
G1 X192.424 Y117.253 E14.81672
G1 X192.798 Y117.929 E14.84241
G1 X193.371 Y119.078 E14.88512
G1 X193.746 Y119.911 E14.9155
G1 X193.983 Y120.493 E14.9364
G1 X194.452 Y121.732 E14.98047
G1 X194.673 Y122.375 E15.00308
G1 X194.874 Y123.006 E15.02511
G1 X195.223 Y124.171 E15.06556
G1 X195.484 Y125.123 E15.09839
G1 X195.785 Y126.3 E15.13879
G1 X196.172 Y127.922 E15.19426
G1 X196.644 Y130.042 E15.26649
G1 X196.919 Y131.347 E15.31085
G1 X197.193 Y132.73 E15.35775
G1 X197.453 Y134.128 E15.40504
G1 X197.611 Y135.026 E15.43537
G1 X197.899 Y136.834 E15.49626
G1 X198.081 Y138.141 E15.54015
G1 X198.263 Y139.667 E15.59126
G1 X198.363 Y140.716 E15.62631
G1 X198.441 Y141.784 E15.66193
G1 X198.495 Y142.949 E15.70072
G1 X198.514 Y143.836 E15.73023
G1 X198.509 Y144.997 E15.76884
G1 X198.465 Y146.305 E15.81237
G1 X198.415 Y147.141 E15.84023
G1 X198.344 Y147.972 E15.86797
G1 X198.243 Y148.896 E15.89888
G1 X198.092 Y149.989 E15.93558
G1 X197.934 Y150.933 E15.96741
G1 X197.699 Y152.121 E16.00769
G1 X197.616 Y152.499 E16.02056
G1 X197.44 Y153.23 E16.04557
G1 X197.123 Y154.385 E16.08541
G1 X197.002 Y154.788 E16.0994
G1 X196.744 Y155.585 E16.12727
G1 X196.599 Y156.003 E16.14198
G1 X196.237 Y156.98 E16.17664
G1 X195.98 Y157.622 E16.19964
G1 X195.777 Y158.087 E16.21651
G1 X195.49 Y158.703 E16.23911
G1 X195.282 Y159.124 E16.25473
G1 X194.985 Y159.694 E16.27611
G1 X194.708 Y160.193 E16.29509
G1 X194.482 Y160.575 E16.30986
G1 X194.184 Y161.05 E16.32851
G1 X193.683 Y161.803 E16.35859
G1 X192.96 Y162.766 E16.39864
G1 X192.485 Y163.329 E16.42314
G1 X191.928 Y163.939 E16.45061
G1 X191.555 Y164.317 E16.46828
G1 X191.005 Y164.836 E16.49343
G1 X190.701 Y165.103 E16.50688
G1 X189.97 Y165.69 E16.53807
G1 X189.51 Y166.027 E16.55703
G1 X188.836 Y166.482 E16.58408
G1 X187.946 Y167.025 E16.61876
G1 X187.492 Y167.282 E16.63611
G1 X186.894 Y167.601 E16.65865
G1 X186.133 Y167.973 E16.68682
G1 X185.549 Y168.237 E16.70814
G1 X184.464 Y168.683 E16.74716
G1 X183.863 Y168.905 E16.76847
G1 X183.096 Y169.163 E16.79538
G1 X182.395 Y169.377 E16.81976
G1 X181.917 Y169.511 E16.83627
G1 X181.093 Y169.715 E16.8645
G1 X180.419 Y169.857 E16.88741
G1 X179.952 Y169.944 E16.90321
G1 X179.378 Y170.035 E16.92254
G1 X178.832 Y170.106 E16.94086
G1 X178.301 Y170.161 E16.95861
G1 X177.413 Y170.221 E16.98821
G1 X176.746 Y170.244 E17.01041
G1 X175.941 Y170.241 E17.03719
