;FLAVOR:Marlin
;TIME:7579
;Filament used: 3.94451m
;Layer height: 0.2
;MINX:111.604
;MINY:109.791
;MINZ:0.2
;MAXX:187.982
;MAXY:172.854
;MAXZ:19.2
;Generated with Cura_SteamEngine 5.2.1
M140 S60
M105
M190 S60
M104 S210
M105
M109 S210
M82 ;absolute extrusion mode
; Ender 3 Max Custom Start G-code
G92 E0 ; Reset Extruder
G28 ; Home all axes
G1 Z2.0 F3000 ; Move Z Axis up little to prevent scratching of Heat Bed
G1 X0.1 Y20 Z0.3 F5000.0 ; Move to start position
G1 X0.1 Y200.0 Z0.3 F1500.0 E15 ; Draw the first line
G1 X0.4 Y200.0 Z0.3 F5000.0 ; Move to side a little
G1 X0.4 Y20 Z0.3 F1500.0 E30 ; Draw the second line
G92 E0 ; Reset Extruder
G1 Z2.0 F3000 ; Move Z Axis up little to prevent scratching of Heat Bed
G1 X5 Y20 Z0.3 F5000.0 ; Move over to prevent blob squish
G92 E0
G92 E0
G1 F1500 E-6.5
;LAYER_COUNT:96
;LAYER:0
M107
G0 F6000 X121.015 Y115.388 Z0.2
;TYPE:SKIRT
G1 F1500 E0
G1 F1200 X121.21 Y115.19 E0.00924
G1 X121.991 Y114.47 E0.04457
G1 X122.479 Y114.062 E0.06573
G1 X123.224 Y113.492 E0.09693
G1 X123.729 Y113.158 E0.11707
G1 X124.186 Y112.874 E0.13496
G1 X124.855 Y112.488 E0.16065
G1 X125.522 Y112.148 E0.18555
G1 X125.952 Y111.947 E0.20134
G1 X126.973 Y111.531 E0.23801
G1 X127.541 Y111.332 E0.25803
G1 X128.276 Y111.098 E0.28368
G1 X129.075 Y110.881 E0.31122
G1 X129.962 Y110.704 E0.3413
G1 X130.666 Y110.59 E0.36502
G1 X131.364 Y110.5 E0.38843
G1 X132.583 Y110.382 E0.42916
G1 X133.912 Y110.273 E0.47352
G1 X136.655 Y110.078 E0.56498
G1 X138.374 Y109.984 E0.62224
G1 X142.493 Y109.829 E0.75933
G1 X144.666 Y109.791 E0.83162
G1 X148.477 Y109.796 E0.95837
G1 X150.464 Y109.836 E1.02447
G1 X154.45 Y109.994 E1.15715
G1 X156.737 Y110.134 E1.23336
G1 X161.007 Y110.48 E1.37585
G1 X163.001 Y110.681 E1.4425
G1 X167.026 Y111.172 E1.57737
G1 X169.113 Y111.469 E1.64748
G1 X172.83 Y112.07 E1.77272
G1 X174.733 Y112.41 E1.83701
G1 X175.663 Y112.593 E1.86854
G1 X178.738 Y113.154 E1.9725
G1 X179.652 Y113.361 E2.00367
G1 X180.546 Y113.646 E2.03488
G1 X181.412 Y114.006 E2.06607
G1 X182.244 Y114.438 E2.09725
G1 X183.037 Y114.94 E2.12847
G1 X183.784 Y115.507 E2.15966
G1 X184.479 Y116.136 E2.19084
G1 X185.119 Y116.821 E2.22202
G1 X185.698 Y117.559 E2.25322
G1 X186.212 Y118.344 E2.28442
G1 X186.727 Y119.314 E2.32095
G1 X186.894 Y119.671 E2.33406
G1 X187.255 Y120.537 E2.36527
G1 X187.54 Y121.43 E2.39644
G1 X187.8 Y122.613 E2.43673
G1 X187.928 Y123.652 E2.47155
G1 X187.961 Y124.32 E2.49379
G1 X187.982 Y125.62 E2.53704
G1 X187.974 Y126.538 E2.56757
G1 X187.925 Y127.474 E2.59874
G1 X187.798 Y128.404 E2.62996
G1 X187.485 Y129.687 E2.67389
G1 X187.276 Y130.364 E2.69745
G1 X186.645 Y132.307 E2.7654
G1 X185.931 Y134.732 E2.84948
G1 X185.291 Y137.159 E2.93296
G1 X184.717 Y139.614 E3.01682
G1 X184.211 Y142.099 E3.10116
G1 X183.78 Y144.567 E3.18449
G1 X183.416 Y147.064 E3.26842
G1 X183.124 Y149.553 E3.35177
G1 X182.903 Y152.059 E3.43545
G1 X182.753 Y154.553 E3.51855
G1 X182.663 Y157.594 E3.61974
G1 X182.605 Y158.44 E3.64794
G1 X182.543 Y159.018 E3.66727
G1 X182.404 Y159.946 E3.69848
G1 X182.231 Y160.692 E3.72395
G1 X182.149 Y160.998 E3.73449
G1 X181.747 Y162.212 E3.77703
G1 X181.519 Y162.786 E3.79757
G1 X181.136 Y163.642 E3.82876
G1 X180.803 Y164.257 E3.85202
G1 X180.565 Y164.666 E3.86776
G1 X180.06 Y165.456 E3.89894
G1 X179.536 Y166.143 E3.92768
G1 X179.097 Y166.674 E3.9506
G1 X178.469 Y167.371 E3.9818
G1 X177.673 Y168.106 E4.01784
G1 X177.113 Y168.574 E4.04211
G1 X176.368 Y169.144 E4.07331
G1 X175.879 Y169.467 E4.0928
G1 X175.292 Y169.833 E4.11581
G1 X174.101 Y170.478 E4.16086
G1 X173.603 Y170.709 E4.17912
G1 X172.969 Y170.979 E4.20204
G1 X172.656 Y171.101 E4.21321
G1 X171.892 Y171.367 E4.24012
G1 X171.342 Y171.536 E4.25925
G1 X170.295 Y171.802 E4.29518
G1 X169.401 Y171.975 E4.32547
G1 X168.921 Y172.053 E4.34164
G1 X168.23 Y172.143 E4.36482
G1 X167.006 Y172.263 E4.40573
G1 X165.697 Y172.37 E4.44941
G1 X162.926 Y172.567 E4.5418
G1 X161.208 Y172.661 E4.59903
G1 X157.088 Y172.816 E4.73616
G1 X154.915 Y172.854 E4.80845
G1 X151.106 Y172.849 E4.93513
G1 X149.117 Y172.809 E5.0013
G1 X145.129 Y172.651 E5.13405
G1 X143.07 Y172.527 E5.20265
G1 X138.575 Y172.165 E5.35264
G1 X136.58 Y171.964 E5.41933
G1 X132.555 Y171.473 E5.5542
G1 X130.686 Y171.209 E5.61698
G1 X126.78 Y170.58 E5.74856
G1 X124.619 Y170.191 E5.82159
G1 X123.984 Y170.065 E5.84313
G1 X120.796 Y169.479 E5.95094
G1 X119.882 Y169.27 E5.98212
G1 X118.989 Y168.984 E6.01331
G1 X118.123 Y168.623 E6.04451
G1 X117.291 Y168.19 E6.07571
G1 X116.499 Y167.687 E6.10691
G1 X115.753 Y167.119 E6.1381
G1 X115.058 Y166.489 E6.1693
G1 X114.419 Y165.803 E6.20048
G1 X113.841 Y165.064 E6.23169
G1 X113.328 Y164.279 E6.26288
G1 X112.884 Y163.453 E6.29407
G1 X112.52 Y162.613 E6.32451
G1 X112.349 Y162.169 E6.34034
G1 X112.05 Y161.281 E6.3715
G1 X111.827 Y160.37 E6.4027
G1 X111.683 Y159.443 E6.4339
G1 X111.616 Y158.404 E6.46853
G1 X111.604 Y157.645 E6.49378
G1 X111.604 Y156.693 E6.52544
G1 X111.613 Y156.042 E6.5471
G1 X111.666 Y155.106 E6.57828
G1 X111.798 Y154.177 E6.60949
G1 X112.105 Y152.939 E6.65191
G1 X112.464 Y151.786 E6.69207
G1 X112.827 Y150.685 E6.73063
G1 X113.539 Y148.299 E6.81345
G1 X114.203 Y145.827 E6.89858
G1 X114.787 Y143.369 E6.98261
G1 X115.296 Y140.923 E7.06571
G1 X115.74 Y138.441 E7.14957
G1 X116.113 Y135.956 E7.23315
G1 X116.416 Y133.451 E7.31707
G1 X116.647 Y130.954 E7.40048
G1 X116.807 Y128.456 E7.48373
G1 X116.892 Y126.185 E7.55932
G1 X116.921 Y125.132 E7.59435
G1 X116.965 Y124.336 E7.62087
G1 X117.142 Y122.951 E7.66731
G1 X117.195 Y122.677 E7.67659
G1 X117.425 Y121.72 E7.70933
G1 X117.578 Y121.189 E7.72771
G1 X118.024 Y119.933 E7.77204
G1 X118.123 Y119.7 E7.78046
G1 X118.645 Y118.634 E7.81994
G1 X118.877 Y118.219 E7.83575
G1 X119.491 Y117.236 E7.8743
G1 X120.145 Y116.374 E7.91029
G1 X120.39 Y116.079 E7.92304
G1 X121.015 Y115.388 E7.95403
G0 F6000 X121.3 Y115.669
G1 F1200 X121.495 Y115.471 E7.96327
G1 X122.248 Y114.777 E7.99733
G1 X122.736 Y114.369 E8.01849
G1 X123.467 Y113.809 E8.04912
G1 X123.94 Y113.498 E8.06794
G1 X124.397 Y113.214 E8.08584
G1 X125.049 Y112.838 E8.11087
G1 X125.691 Y112.51 E8.13485
G1 X126.121 Y112.309 E8.15064
G1 X127.105 Y111.908 E8.18598
G1 X127.673 Y111.709 E8.206
G1 X128.393 Y111.48 E8.23113
G1 X129.168 Y111.27 E8.25783
G1 X130.026 Y111.099 E8.28693
G1 X130.73 Y110.985 E8.31065
G1 X131.403 Y110.898 E8.33322
G1 X132.622 Y110.78 E8.37396
G1 X133.94 Y110.672 E8.41794
G1 X136.5 Y110.489 E8.5033
G1 X138.396 Y110.384 E8.56646
G1 X142.501 Y110.229 E8.70309
G1 X144.666 Y110.191 E8.77511
G1 X148.469 Y110.196 E8.9016
G1 X150.661 Y110.242 E8.97452
G1 X154.208 Y110.382 E9.09259
G1 X156.705 Y110.532 E9.17579
G1 X160.967 Y110.878 E9.31801
G1 X162.961 Y111.079 E9.38466
G1 X166.971 Y111.568 E9.51903
G1 X168.84 Y111.832 E9.58181
G1 X172.766 Y112.465 E9.71407
G1 X174.856 Y112.84 E9.78469
G1 X175.579 Y112.984 E9.80921
G1 X178.666 Y113.547 E9.91358
G1 X179.564 Y113.752 E9.94422
G1 X180.44 Y114.033 E9.97482
G1 X181.289 Y114.39 E10.00545
G1 X182.104 Y114.819 E10.03608
G1 X182.878 Y115.317 E10.06669
G1 X183.606 Y115.88 E10.0973
G1 X184.283 Y116.504 E10.12793
G1 X184.903 Y117.185 E10.15856
G1 X185.461 Y117.917 E10.18917
G1 X185.954 Y118.694 E10.21978
G1 X186.364 Y119.484 E10.24938
G1 X186.531 Y119.841 E10.26249
G1 X186.885 Y120.691 E10.29311
G1 X187.163 Y121.568 E10.32371
G1 X187.406 Y122.68 E10.36157
G1 X187.531 Y123.701 E10.39578
G1 X187.561 Y124.327 E10.41663
G1 X187.582 Y125.616 E10.45951
G1 X187.574 Y126.534 E10.49004
G1 X187.526 Y127.454 E10.52068
G1 X187.398 Y128.366 E10.55131
G1 X187.102 Y129.569 E10.59252
G1 X186.846 Y130.396 E10.62131
G1 X186.257 Y132.208 E10.68468
G1 X185.546 Y134.622 E10.76838
G1 X184.898 Y137.079 E10.8529
G1 X184.33 Y139.507 E10.93583
G1 X183.818 Y142.022 E11.0212
G1 X183.383 Y144.511 E11.10524
G1 X183.021 Y146.996 E11.18876
G1 X182.727 Y149.504 E11.27275
G1 X182.504 Y152.036 E11.35729
G1 X182.353 Y154.55 E11.44106
G1 X182.263 Y157.582 E11.54194
G1 X182.208 Y158.398 E11.56915
G1 X182.146 Y158.976 E11.58848
G1 X182.008 Y159.886 E11.61909
G1 X181.845 Y160.589 E11.6431
G1 X181.763 Y160.895 E11.65363
G1 X181.375 Y162.064 E11.6946
G1 X181.147 Y162.638 E11.71514
G1 X180.771 Y163.478 E11.74575
G1 X180.458 Y164.056 E11.76761
G1 X180.22 Y164.465 E11.78335
G1 X179.723 Y165.24 E11.81397
G1 X179.228 Y165.888 E11.8411
G1 X178.789 Y166.419 E11.86401
G1 X178.172 Y167.103 E11.89465
G1 X177.416 Y167.799 E11.92883
G1 X176.856 Y168.267 E11.9531
G1 X176.125 Y168.826 E11.98371
G1 X175.667 Y169.128 E12.00195
G1 X175.08 Y169.494 E12.02496
G1 X173.932 Y170.115 E12.06837
G1 X173.434 Y170.346 E12.08663
G1 X172.824 Y170.606 E12.10869
G1 X172.511 Y170.728 E12.11986
G1 X171.774 Y170.984 E12.14581
G1 X171.224 Y171.153 E12.16495
G1 X170.215 Y171.41 E12.19958
G1 X169.337 Y171.58 E12.22932
G1 X168.857 Y171.658 E12.2455
G1 X168.191 Y171.744 E12.26783
G1 X166.792 Y171.88 E12.31458
G1 X165.668 Y171.971 E12.35209
G1 X163.081 Y172.156 E12.43835
G1 X161.186 Y172.261 E12.50148
G1 X157.08 Y172.416 E12.63814
G1 X154.915 Y172.454 E12.71016
G1 X151.114 Y172.449 E12.83658
G1 X148.92 Y172.403 E12.90957
G1 X145.372 Y172.263 E13.02767
G1 X142.879 Y172.113 E13.11074
G1 X138.615 Y171.767 E13.25302
G1 X136.62 Y171.566 E13.31971
G1 X132.61 Y171.077 E13.45408
G1 X130.741 Y170.813 E13.51686
G1 X126.653 Y170.153 E13.65458
G1 X124.878 Y169.833 E13.71457
G1 X124.056 Y169.671 E13.74244
G1 X120.869 Y169.085 E13.85022
G1 X119.971 Y168.88 E13.88085
G1 X119.095 Y168.597 E13.91147
G1 X118.247 Y168.239 E13.94208
G1 X117.433 Y167.809 E13.9727
G1 X116.659 Y167.31 E14.00333
G1 X115.931 Y166.746 E14.03396
G1 X115.255 Y166.121 E14.06458
G1 X114.636 Y165.439 E14.09522
G1 X114.079 Y164.707 E14.12581
G1 X113.587 Y163.929 E14.15643
G1 X113.165 Y163.111 E14.18704
G1 X112.893 Y162.47 E14.2102
G1 X112.722 Y162.026 E14.22603
G1 X112.429 Y161.153 E14.25665
G1 X112.213 Y160.258 E14.28728
G1 X112.075 Y159.348 E14.31789
G1 X112.016 Y158.397 E14.34958
G1 X112.004 Y157.644 E14.37463
G1 X112.004 Y156.698 E14.40609
G1 X112.013 Y156.047 E14.42775
G1 X112.066 Y155.128 E14.45836
G1 X112.198 Y154.217 E14.48898
G1 X112.487 Y153.057 E14.52874
G1 X112.785 Y152.095 E14.56224
G1 X113.207 Y150.81 E14.60722
G1 X113.933 Y148.38 E14.69157
G1 X114.582 Y145.959 E14.77494
G1 X115.174 Y143.47 E14.86003
G1 X115.694 Y140.969 E14.945
G1 X116.13 Y138.534 E15.02727
G1 X116.511 Y135.992 E15.11276
G1 X116.813 Y133.502 E15.19619
G1 X117.046 Y130.977 E15.28053
G1 X117.207 Y128.462 E15.36435
G1 X117.292 Y126.201 E15.4396
G1 X117.321 Y125.143 E15.47481
G1 X117.364 Y124.362 E15.50082
G1 X117.535 Y123.027 E15.54559
G1 X117.588 Y122.753 E15.55487
G1 X117.809 Y121.831 E15.5864
G1 X117.962 Y121.3 E15.60478
G1 X118.392 Y120.09 E15.64749
G1 X118.491 Y119.857 E15.65591
G1 X118.995 Y118.83 E15.69396
G1 X119.227 Y118.415 E15.70978
G1 X119.819 Y117.464 E15.74703
G1 X120.453 Y116.63 E15.78188
G1 X120.698 Y116.335 E15.79463
G1 X121.3 Y115.669 E15.82449
G0 F6000 X121.585 Y115.95
G1 F1200 X121.78 Y115.752 E15.83374
G1 X122.505 Y115.084 E15.86652
G1 X122.993 Y114.676 E15.88768
G1 X123.71 Y114.128 E15.9177
G1 X124.151 Y113.838 E15.93525
G1 X124.608 Y113.554 E15.95315
G1 X125.243 Y113.188 E15.97752
G1 X125.861 Y112.873 E16.00059
G1 X126.291 Y112.672 E16.01638
G1 X127.237 Y112.286 E16.05036
G1 X127.805 Y112.087 E16.07038
G1 X128.51 Y111.863 E16.09499
G1 X129.26 Y111.66 E16.12083
G1 X130.09 Y111.494 E16.14898
G1 X130.794 Y111.38 E16.1727
G1 X131.441 Y111.296 E16.1944
G1 X132.66 Y111.178 E16.23513
G1 X133.969 Y111.071 E16.27882
G1 X136.699 Y110.877 E16.36985
G1 X138.589 Y110.775 E16.4328
G1 X142.309 Y110.634 E16.55662
G1 X144.666 Y110.591 E16.63502
G1 X148.461 Y110.596 E16.76125
G1 X150.448 Y110.636 E16.82735
G1 X154.402 Y110.792 E16.95896
G1 X156.464 Y110.916 E17.02767
G1 X160.927 Y111.276 E17.17659
G1 X162.921 Y111.477 E17.24324
G1 X166.915 Y111.964 E17.37707
G1 X168.784 Y112.228 E17.43985
G1 X172.876 Y112.889 E17.57771
G1 X174.592 Y113.197 E17.6357
G1 X175.495 Y113.375 E17.66631
G1 X178.594 Y113.941 E17.77109
G1 X179.474 Y114.142 E17.80111
G1 X180.334 Y114.42 E17.83117
G1 X181.165 Y114.774 E17.86122
G1 X181.961 Y115.199 E17.89123
G1 X182.717 Y115.693 E17.92127
G1 X183.426 Y116.252 E17.9513
G1 X184.083 Y116.872 E17.98134
G1 X184.683 Y117.547 E18.01138
G1 X185.22 Y118.273 E18.04141
G1 X185.692 Y119.044 E18.07148
G1 X186.002 Y119.653 E18.09421
G1 X186.169 Y120.01 E18.10732
G1 X186.515 Y120.844 E18.13735
G1 X186.786 Y121.706 E18.1674
G1 X187.011 Y122.75 E18.20292
G1 X187.133 Y123.75 E18.23643
G1 X187.161 Y124.335 E18.25591
G1 X187.182 Y125.613 E18.29842
G1 X187.174 Y126.531 E18.32896
G1 X187.126 Y127.433 E18.359
G1 X186.998 Y128.327 E18.38904
G1 X186.72 Y129.451 E18.42755
G1 X186.511 Y130.128 E18.45111
G1 X185.879 Y132.076 E18.51923
G1 X185.162 Y134.509 E18.60359
G1 X184.516 Y136.958 E18.68783
G1 X183.936 Y139.441 E18.77264
G1 X183.426 Y141.944 E18.8576
G1 X182.987 Y144.456 E18.94242
G1 X182.627 Y146.924 E19.02537
G1 X182.326 Y149.494 E19.11143
G1 X182.107 Y151.976 E19.19431
G1 X181.955 Y154.516 E19.27894
G1 X181.864 Y157.57 E19.38056
G1 X181.81 Y158.355 E19.40673
G1 X181.748 Y158.933 E19.42607
G1 X181.612 Y159.826 E19.45611
G1 X181.458 Y160.485 E19.47862
G1 X181.376 Y160.791 E19.48916
G1 X181.004 Y161.916 E19.52857
G1 X180.776 Y162.49 E19.54911
G1 X180.405 Y163.314 E19.57916
G1 X180.112 Y163.855 E19.59963
G1 X179.874 Y164.264 E19.61537
G1 X179.386 Y165.024 E19.64541
G1 X178.919 Y165.633 E19.67093
G1 X178.48 Y166.164 E19.69385
G1 X177.875 Y166.834 E19.72387
G1 X177.16 Y167.492 E19.75619
G1 X176.6 Y167.96 E19.78046
G1 X175.882 Y168.508 E19.81051
G1 X175.456 Y168.788 E19.82746
G1 X174.869 Y169.154 E19.85047
G1 X173.764 Y169.752 E19.89226
G1 X173.266 Y169.983 E19.91052
G1 X172.678 Y170.234 E19.93178
G1 X172.365 Y170.356 E19.94295
G1 X171.657 Y170.602 E19.96788
G1 X171.107 Y170.771 E19.98702
G1 X170.136 Y171.018 E20.02034
G1 X169.273 Y171.185 E20.04958
G1 X168.793 Y171.263 E20.06576
G1 X168.152 Y171.346 E20.08725
G1 X166.759 Y171.481 E20.1338
G1 X165.64 Y171.572 E20.17114
G1 X162.882 Y171.768 E20.2631
G1 X160.993 Y171.87 E20.32602
G1 X157.272 Y172.011 E20.44987
G1 X154.915 Y172.054 E20.52828
G1 X151.122 Y172.049 E20.65444
G1 X149.133 Y172.009 E20.72061
G1 X145.177 Y171.853 E20.85228
G1 X143.118 Y171.729 E20.92089
G1 X138.656 Y171.369 E21.06978
G1 X136.661 Y171.168 E21.13647
G1 X132.666 Y170.681 E21.27033
G1 X130.797 Y170.417 E21.33311
G1 X126.724 Y169.759 E21.47033
G1 X124.949 Y169.439 E21.53032
G1 X124.141 Y169.28 E21.55771
G1 X120.941 Y168.692 E21.66593
G1 X120.061 Y168.489 E21.69596
G1 X119.202 Y168.21 E21.726
G1 X118.371 Y167.856 E21.75605
G1 X117.575 Y167.429 E21.78609
G1 X116.82 Y166.934 E21.81612
G1 X116.111 Y166.374 E21.84617
G1 X115.455 Y165.753 E21.87621
G1 X114.857 Y165.077 E21.90623
G1 X114.32 Y164.351 E21.93626
G1 X113.85 Y163.58 E21.9663
G1 X113.45 Y162.77 E21.99634
G1 X113.267 Y162.326 E22.01232
G1 X113.096 Y161.882 E22.02814
G1 X112.809 Y161.026 E22.05817
G1 X112.599 Y160.147 E22.08823
G1 X112.467 Y159.254 E22.11825
G1 X112.415 Y158.39 E22.14704
G1 X112.405 Y157.805 E22.1665
G1 X112.403 Y156.858 E22.198
G1 X112.413 Y156.053 E22.22477
G1 X112.465 Y155.151 E22.25482
G1 X112.597 Y154.258 E22.28485
G1 X112.869 Y153.176 E22.32196
G1 X113.223 Y152.037 E22.36163
G1 X113.591 Y150.922 E22.40068
G1 X114.319 Y148.483 E22.48534
G1 X114.98 Y146.017 E22.57025
G1 X115.561 Y143.573 E22.65381
G1 X116.086 Y141.05 E22.73952
G1 X116.526 Y138.593 E22.82254
G1 X116.905 Y136.067 E22.90749
G1 X117.21 Y133.551 E22.99179
G1 X117.445 Y131.006 E23.0768
G1 X117.606 Y128.5 E23.16032
G1 X117.683 Y126.322 E23.2328
G1 X117.693 Y126.202 E23.23681
G1 X117.721 Y125.154 E23.27168
