;FLAVOR:Marlin
;TIME:7842
;Filament used: 5.25863m
;Layer height: 0.2
;MINX:69.93
;MINY:110.452
;MINZ:0.32
;MAXX:231.313
;MAXY:195.239
;MAXZ:9.12
;Generated with Cura_SteamEngine 5.2.1
M140 S60
M105
M190 S60
M104 S200
M105
M109 S200
M82 ;absolute extrusion mode
; Ender 3 Max Custom Start G-code
G92 E0 ; Reset Extruder
G28 ; Home all axes
G1 Z2.0 F3000 ; Move Z Axis up little to prevent scratching of Heat Bed
G1 X0.1 Y20 Z0.3 F5000.0 ; Move to start position
G1 X0.1 Y200.0 Z0.3 F1500.0 E15 ; Draw the first line
G1 X0.4 Y200.0 Z0.3 F5000.0 ; Move to side a little
G1 X0.4 Y20 Z0.3 F1500.0 E30 ; Draw the second line
G92 E0 ; Reset Extruder
G1 Z2.0 F3000 ; Move Z Axis up little to prevent scratching of Heat Bed
G1 X5 Y20 Z0.3 F5000.0 ; Move over to prevent blob squish
G92 E0
G92 E0
G1 F1500 E-6.5
;LAYER_COUNT:45
;LAYER:0
M107
G0 F6000 X75.285 Y113.443 Z0.32
;TYPE:SKIRT
G1 F1500 E0
G1 F900 X76.223 Y112.937 E0.06239
G1 X77.07 Y112.57 E0.11642
G1 X77.946 Y112.278 E0.17048
G1 X78.844 Y112.063 E0.22453
G1 X79.757 Y111.927 E0.27856
G1 X80.736 Y111.869 E0.33597
G1 X81.562 Y111.859 E0.38433
G1 X134.203 Y111.856 E3.46582
G1 X136.827 Y111.819 E3.61944
G1 X139.33 Y111.713 E3.76609
G1 X141.828 Y111.536 E3.91268
G1 X144.38 Y111.282 E4.06281
G1 X146.874 Y110.963 E4.20999
G1 X148.869 Y110.648 E4.32822
G1 X149.43 Y110.567 E4.3614
G1 X150.629 Y110.465 E4.43184
G1 X151.249 Y110.452 E4.46815
G1 X219.87 Y110.453 E8.48507
G1 X220.677 Y110.465 E8.53232
G1 X221.599 Y110.519 E8.58638
G1 X222.513 Y110.652 E8.64045
G1 X223.411 Y110.864 E8.69446
G1 X224.288 Y111.153 E8.74851
G1 X225.137 Y111.516 E8.80256
G1 X225.951 Y111.952 E8.85662
G1 X226.724 Y112.456 E8.91064
G1 X227.451 Y113.026 E8.96471
G1 X228.126 Y113.656 E9.01876
G1 X228.743 Y114.342 E9.07277
G1 X229.299 Y115.079 E9.12682
G1 X229.882 Y116.015 E9.19137
G1 X230.353 Y116.95 E9.25265
G1 X230.696 Y117.807 E9.30669
G1 X230.963 Y118.691 E9.36074
G1 X231.153 Y119.595 E9.41482
G1 X231.264 Y120.511 E9.46883
G1 X231.294 Y121.133 E9.50528
G1 X231.313 Y122.237 E9.56992
G1 X231.312 Y183.77 E13.17193
G1 X231.302 Y184.471 E13.21297
G1 X231.249 Y185.393 E13.26703
G1 X231.116 Y186.306 E13.32104
G1 X230.905 Y187.205 E13.37509
G1 X230.617 Y188.082 E13.42913
G1 X230.146 Y189.148 E13.49735
G1 X230.021 Y189.394 E13.5135
G1 X229.568 Y190.198 E13.56752
G1 X229.047 Y190.96 E13.62156
G1 X228.461 Y191.674 E13.67563
G1 X227.816 Y192.335 E13.72969
G1 X227.117 Y192.937 E13.78369
G1 X226.367 Y193.477 E13.83779
G1 X225.574 Y193.949 E13.89181
G1 X224.743 Y194.352 E13.94588
G1 X223.881 Y194.681 E13.99989
G1 X222.993 Y194.934 E14.05394
G1 X222.086 Y195.109 E14.10801
G1 X220.865 Y195.219 E14.17977
G1 X220.088 Y195.239 E14.22527
G1 X151.476 Y195.238 E18.24167
G1 X150.771 Y195.228 E18.28294
G1 X149.849 Y195.175 E18.337
G1 X149.266 Y195.1 E18.37141
G1 X148.132 Y194.922 E18.43861
G1 X145.613 Y194.563 E18.58755
G1 X143.094 Y194.275 E18.73597
G1 X140.592 Y194.061 E18.88297
G1 X138.068 Y193.918 E19.03095
G1 X135.489 Y193.844 E19.18199
G1 X134.152 Y193.834 E19.26025
G1 X81.427 Y193.834 E22.34666
G1 X80.723 Y193.824 E22.38788
G1 X79.801 Y193.771 E22.44194
G1 X78.887 Y193.638 E22.496
G1 X77.988 Y193.427 E22.55006
G1 X77.111 Y193.139 E22.60409
G1 X76.262 Y192.776 E22.65814
G1 X75.448 Y192.341 E22.71217
G1 X74.811 Y191.933 E22.75645
G1 X74.542 Y191.747 E22.7756
G1 X73.806 Y191.19 E22.82963
G1 X73.121 Y190.571 E22.88367
G1 X72.493 Y189.895 E22.93769
G1 X71.925 Y189.167 E22.99174
G1 X71.422 Y188.392 E23.04582
G1 X70.988 Y187.577 E23.09987
G1 X70.626 Y186.728 E23.1539
G1 X70.339 Y185.851 E23.20792
G1 X70.129 Y184.951 E23.26202
G1 X69.998 Y184.038 E23.31601
G1 X69.947 Y183.185 E23.36603
G1 X69.934 Y182.41 E23.4114
G1 X69.93 Y123.33 E26.86982
G1 X69.94 Y122.664 E26.90881
G1 X69.994 Y121.742 E26.96288
G1 X70.127 Y120.829 E27.01688
G1 X70.339 Y119.93 E27.07095
G1 X70.744 Y118.748 E27.14409
G1 X71.17 Y117.813 E27.20424
G1 X71.625 Y117.009 E27.25832
G1 X72.147 Y116.247 E27.31239
G1 X72.733 Y115.534 E27.36641
G1 X73.378 Y114.874 E27.42043
G1 X73.81 Y114.503 E27.45377
G0 F810 X74.079 Y114.272
G0 X75.285 Y113.443
G0 F6000 X75.516 Y113.817
G1 F900 X76.432 Y113.325 E27.51463
G1 X77.262 Y112.968 E27.56752
G1 X78.121 Y112.686 E27.62045
G1 X79.002 Y112.481 E27.6734
G1 X79.897 Y112.355 E27.7263
G1 X80.741 Y112.309 E27.77578
G1 X81.562 Y112.299 E27.82385
G1 X134.209 Y112.296 E30.90569
G1 X136.816 Y112.259 E31.05831
G1 X139.383 Y112.15 E31.20871
G1 X141.867 Y111.974 E31.35449
G1 X144.438 Y111.718 E31.50573
G1 X146.93 Y111.399 E31.6528
G1 X148.937 Y111.083 E31.77173
G1 X149.492 Y111.003 E31.80456
G1 X150.642 Y110.905 E31.87212
G1 X151.249 Y110.892 E31.90766
G1 X219.864 Y110.893 E35.92423
G1 X220.671 Y110.905 E35.97148
G1 X221.573 Y110.959 E36.02437
G1 X222.468 Y111.091 E36.07733
G1 X223.346 Y111.303 E36.1302
G1 X224.203 Y111.591 E36.18313
G1 X225.031 Y111.954 E36.23605
G1 X225.824 Y112.389 E36.289
G1 X226.575 Y112.892 E36.34191
G1 X227.279 Y113.459 E36.39482
G1 X227.93 Y114.086 E36.44773
G1 X228.523 Y114.769 E36.50068
G1 X229.053 Y115.501 E36.55358
G1 X229.505 Y116.244 E36.60449
G1 X229.96 Y117.148 E36.66373
G1 X230.293 Y117.989 E36.71668
G1 X230.551 Y118.855 E36.76958
G1 X230.731 Y119.741 E36.8225
G1 X230.832 Y120.639 E36.8754
G1 X230.854 Y121.141 E36.90482
G1 X230.873 Y122.237 E36.96898
G1 X230.872 Y183.764 E40.57064
G1 X230.862 Y184.465 E40.61168
G1 X230.809 Y185.367 E40.66457
G1 X230.677 Y186.261 E40.71747
G1 X230.466 Y187.141 E40.77045
G1 X230.178 Y187.997 E40.82331
G1 X229.754 Y188.949 E40.88432
G1 X229.629 Y189.195 E40.90047
G1 X229.184 Y189.982 E40.9534
G1 X228.672 Y190.726 E41.00626
G1 X228.096 Y191.423 E41.05919
G1 X227.46 Y192.066 E41.11214
G1 X226.77 Y192.65 E41.16505
G1 X226.031 Y193.17 E41.21795
G1 X225.249 Y193.624 E41.27088
G1 X224.43 Y194.007 E41.32381
G1 X223.58 Y194.315 E41.37673
G1 X222.707 Y194.548 E41.42962
G1 X221.816 Y194.702 E41.48255
G1 X220.851 Y194.78 E41.53923
G1 X220.088 Y194.799 E41.5839
G1 X151.482 Y194.798 E45.59995
G1 X150.777 Y194.788 E45.64122
G1 X149.875 Y194.735 E45.69412
G1 X149.334 Y194.665 E45.72605
G1 X148.258 Y194.496 E45.78981
G1 X145.657 Y194.125 E45.94361
G1 X143.143 Y193.838 E46.09173
G1 X140.617 Y193.622 E46.24013
G1 X138.071 Y193.478 E46.38941
G1 X135.504 Y193.404 E46.53974
G1 X134.156 Y193.394 E46.61865
G1 X81.433 Y193.394 E49.70494
G1 X80.729 Y193.384 E49.74615
G1 X79.826 Y193.331 E49.7991
G1 X78.932 Y193.199 E49.852
G1 X78.053 Y192.988 E49.90492
G1 X77.196 Y192.7 E49.95784
G1 X76.368 Y192.338 E50.01074
G1 X75.575 Y191.904 E50.06366
G1 X75.062 Y191.571 E50.09946
G1 X74.793 Y191.385 E50.11861
G1 X74.072 Y190.839 E50.17155
G1 X73.403 Y190.231 E50.22447
G1 X72.791 Y189.566 E50.27737
G1 X72.239 Y188.85 E50.3303
G1 X71.753 Y188.087 E50.38325
G1 X71.337 Y187.285 E50.43614
G1 X70.992 Y186.449 E50.48908
G1 X70.723 Y185.586 E50.54199
G1 X70.531 Y184.703 E50.59489
G1 X70.419 Y183.806 E50.64781
G1 X70.387 Y183.176 E50.68473
G1 X70.374 Y182.41 E50.72958
G1 X70.37 Y123.337 E54.18759
G1 X70.38 Y122.671 E54.22658
G1 X70.434 Y121.768 E54.27953
G1 X70.567 Y120.874 E54.33244
G1 X70.778 Y119.995 E54.38536
G1 X71.153 Y118.91 E54.45256
G1 X71.571 Y117.995 E54.51144
G1 X72.018 Y117.21 E54.56432
G1 X72.533 Y116.467 E54.61724
G1 X73.111 Y115.772 E54.67016
G1 X73.748 Y115.131 E54.72306
G1 X74.045 Y114.881 E54.74578
G0 F810 X74.44 Y114.549
G0 X75.516 Y113.817
G1 F1500 E48.24578
;MESH:GameBoy_game_case11.stl
G0 F6000 X159.648 Y136.267
G0 X159.493 Y136.778
;TYPE:WALL-OUTER
G1 F1500 E54.74578
G1 F704.6 X162.061 Y135.674 E54.95478
G1 F792 X162.552 Y135.528 E54.98885
G1 F793.6 X162.858 Y135.389 E55.01117
G1 F708.4 X164.639 Y135.769 E55.1466
G1 F705.9 X164.639 Y135.422 E55.1725
G1 X164.639 Y135.194 E55.18952
G1 F708.4 X162.973 Y134.843 E55.31614
G1 F793.6 X162.715 Y134.709 E55.33544
G1 F826.7 X162.091 Y134.313 E55.38253
G1 F752.9 X161.572 Y133.958 E55.42654
G1 F736.1 X159.484 Y132.486 E55.60939
G1 F729.3 X159.484 Y133.155 E55.65772
G1 F734.7 X160.52 Y133.87 E55.74799
G1 F740.2 X161.276 Y134.403 E55.81382
G1 F752.9 X161.793 Y134.734 E55.85678
G1 F826.7 X161.86 Y134.984 E55.87328
G1 F792 X161.797 Y135.181 E55.88703
G1 F704.6 X160.929 Y135.545 E55.95741
G1 F703.4 X159.493 Y136.165 E56.07457
G1 X159.493 Y136.63 E56.1094
G0 F810 X159.493 Y136.778
G0 F6000 X159.686 Y136.484
G0 X162.081 Y135.277
G0 X162.388 Y135.008
;TYPE:WALL-INNER
G1 F704.6 X162.32 Y135.008 E56.11448
G1 X162.284 Y135.068 E56.11971
G1 X162.319 Y135.128 E56.1249
G1 X162.388 Y135.128 E56.13006
G1 X162.39 Y135.125 E56.13033
G0 F810 X162.424 Y135.068
G1 F1500 E49.63033
G0 F6000 X159.642 Y136.551
G0 X160.58 Y138.601
G0 X161.675 Y142.456
;TYPE:WALL-OUTER
G1 F1500 E56.13033
G1 F713.5 X161.351 Y142.347 E56.15557
G1 F714.8 X161.012 Y142.192 E56.18305
G1 F720 X160.721 Y142.021 E56.20775
G1 F730.6 X160.484 Y141.847 E56.22895
G1 F750 X160.278 Y141.652 E56.24887
G1 F773.4 X159.983 Y141.278 E56.28132
G1 F792 X159.801 Y140.708 E56.32112
G1 F796.8 X159.802 Y140.127 E56.35954
G1 F775 X159.865 Y139.86 E56.37819
G1 F743 X160.074 Y139.48 E56.40894
G1 F723.9 X160.397 Y139.166 E56.44172
G1 F709.7 X160.846 Y138.949 E56.47874
G1 F697.2 X161.182 Y138.883 E56.50462
G1 F691.1 X161.513 Y138.862 E56.5299
G1 X161.835 Y138.879 E56.55448
G1 F696 X162.197 Y138.937 E56.58224
G1 F698.4 X162.56 Y139.038 E56.61066
G1 F702.1 X162.914 Y139.17 E56.63901
G1 F712.2 X163.254 Y139.345 E56.66729
G1 F727.9 X163.545 Y139.538 E56.69257
G1 F745.8 X163.784 Y139.748 E56.71504
G1 F764.5 X163.998 Y140.005 E56.73809
G1 F787.3 X164.175 Y140.304 E56.76134
G1 F798.4 X164.28 Y140.62 E56.78331
G1 F809.8 X164.326 Y140.786 E56.79452
G1 F811.5 X164.336 Y141.313 E56.82874
G1 F764.5 X164.174 Y141.824 E56.86568
G1 F718.7 X163.873 Y142.182 E56.89997
G1 F702.1 X163.498 Y142.425 E56.9335
G1 F699.6 X163.112 Y142.567 E56.96447
G1 X162.693 Y142.597 E56.9961
G1 X162.358 Y142.583 E57.02135
G1 F702.1 X162.093 Y142.55 E57.04139
G1 F708.4 X161.675 Y142.456 E57.07325
G0 F6000 X161.681 Y143.034
G1 F705.9 X162.039 Y143.111 E57.10058
G1 F700.9 X162.377 Y143.154 E57.12619
G1 F697.2 X162.685 Y143.167 E57.14949
G1 F699.6 X163.134 Y143.13 E57.18341
G1 F702.1 X163.41 Y143.062 E57.20474
G1 F697.2 X163.682 Y142.968 E57.22649
G1 F696 X164.077 Y142.755 E57.26046
G1 F702.1 X164.338 Y142.501 E57.28779
G1 F711 X164.55 Y142.235 E57.31299
G1 F733.3 X164.678 Y141.973 E57.33394
G1 F754.3 X164.761 Y141.716 E57.35281
G1 F771.9 X164.815 Y141.452 E57.3712
G1 F793.6 X164.832 Y141.177 E57.38949
G1 F808.2 X164.816 Y140.792 E57.41461
G1 X164.756 Y140.484 E57.43507
G1 F795.2 X164.66 Y140.178 E57.45631
G1 F787.3 X164.544 Y139.926 E57.47488
G1 F778 X164.404 Y139.692 E57.49334
G1 F763 X164.158 Y139.381 E57.52072
G1 F745.8 X163.957 Y139.183 E57.54065
G1 F730.6 X163.729 Y139 E57.56174
G1 F718.7 X163.451 Y138.822 E57.58593
G1 F709.7 X163.155 Y138.666 E57.61077
G1 F700.9 X162.837 Y138.533 E57.63668
G1 F694.7 X162.517 Y138.43 E57.66218
G1 F691.1 X162.152 Y138.346 E57.69073
G1 F689.9 X161.825 Y138.302 E57.71592
G1 F691.1 X161.464 Y138.29 E57.74346
G1 F689.9 X161.076 Y138.317 E57.77316
G1 X160.798 Y138.371 E57.79479
G1 F687.5 X160.522 Y138.462 E57.81706
G1 X160.166 Y138.635 E57.84739
G1 F697.2 X159.92 Y138.841 E57.87164
G1 F726.6 X159.576 Y139.225 E57.90902
G1 F766 X159.364 Y139.77 E57.94924
G1 F787.3 X159.313 Y140.038 E57.9675
G1 F796.8 X159.298 Y140.333 E57.98703
G1 F806.5 X159.323 Y140.75 E58.01431
G1 X159.382 Y141.027 E58.03281
G1 F798.4 X159.475 Y141.327 E58.05354
G1 F796.8 X159.606 Y141.599 E58.0735
G1 F779.5 X159.806 Y141.895 E58.09765
G1 F755.7 X160.007 Y142.128 E58.1191
G1 F740.2 X160.202 Y142.311 E58.13813
G1 F726.6 X160.432 Y142.486 E58.15909
G1 F718.7 X160.706 Y142.655 E58.18269
G1 F712.2 X160.996 Y142.8 E58.20667
G1 F709.7 X161.311 Y142.925 E58.23183
G1 F708.4 X161.681 Y143.034 E58.26051
G1 F1500 E51.76051
G0 F6000 X161.74 Y142.804
G0 X162.051 Y142.954
G0 X161.013 Y144.829
G0 X161.486 Y147.964
G1 F1500 E58.26051
G1 F691.1 X160.005 Y147.652 E58.37589
G1 F737.4 X159.946 Y147.444 E58.39134
G1 F806.5 X159.95 Y146.205 E58.47227
G1 F795.2 X159.976 Y145.808 E58.49863
G1 F761.5 X160.095 Y145.468 E58.52355
G1 F716.1 X160.335 Y145.231 E58.54837
G1 F698.4 X160.731 Y145.148 E58.57889
G1 F730.6 X161.108 Y145.252 E58.60709
G1 F862.7 X161.372 Y145.5 E58.62921
G1 F1036.6 X161.44 Y145.619 E58.63618
G1 F1012.8 X161.597 Y145.845 E58.65049
G1 F808.2 X161.703 Y145.961 E58.66073
G1 F736.1 X161.729 Y146.275 E58.68329
G1 F792 X161.741 Y146.803 E58.71842
G1 F778 X161.739 Y147.756 E58.78295
G1 F725.3 X161.486 Y147.964 E58.80674
G0 F6000 X161.435 Y148.2
G0 X164.051 Y148.742
G0 X164.109 Y148.465
G1 F656.7 X163.933 Y148.471 E58.82087
G1 F705.9 X162.415 Y148.157 E58.93657
G1 F793.6 X162.282 Y147.995 E58.95048
G1 F853.4 X162.228 Y147.865 E58.95917
G1 F800 X162.228 Y146.329 E59.06032
G1 F743 X162.255 Y145.985 E59.08479
G1 F744.4 X162.308 Y145.939 E59.08976
G1 F828.5 X162.514 Y145.64 E59.11285
G1 F818.2 X162.738 Y145.411 E59.13348
G1 F725.3 X163.104 Y145.314 E59.16098
G1 F689.9 X163.529 Y145.407 E59.1942
G1 F705.9 X163.865 Y145.654 E59.22533
G1 F744.4 X164.083 Y146.032 E59.25621
G1 F793.6 X164.159 Y146.371 E59.27928
G1 F808.2 X164.185 Y146.958 E59.31758
G1 F806.5 X164.185 Y148.232 E59.4008
G1 F697.2 X164.109 Y148.465 E59.41932
G0 F6000 X164.598 Y149.135
G1 F614.9 X164.598 Y148.74 E59.45317
G1 F697.2 X164.674 Y148.274 E59.48885
G1 F806.5 X164.675 Y146.896 E59.57886
G1 X164.66 Y146.48 E59.60605
G1 F800 X164.618 Y146.126 E59.62953
G1 F785.7 X164.556 Y145.847 E59.64869
G1 F758.6 X164.467 Y145.611 E59.66621
G1 F725.3 X164.269 Y145.268 E59.69498
G1 F703.4 X163.884 Y144.96 E59.73191
G1 F685.1 X163.473 Y144.786 E59.76623
G1 F674.6 X163.064 Y144.731 E59.79846
G1 F671.2 X162.797 Y144.774 E59.81968
G1 F685.1 X162.527 Y144.904 E59.84273
G1 F758.6 X162.339 Y145.08 E59.86061
G1 F864.6 X162.093 Y145.487 E59.88959
G1 F792 X161.951 Y145.633 E59.90314
G1 F848 X161.776 Y145.469 E59.91804
G1 F1002.5 X161.623 Y145.174 E59.9355
G1 F910.3 X161.428 Y144.899 E59.95501
G1 F796.8 X161.087 Y144.677 E59.98192
G1 F717.4 X160.769 Y144.586 E60.00621
G1 F688.7 X160.401 Y144.599 E60.03438
G1 F673.5 X160.075 Y144.705 E60.06119
G1 X159.941 Y144.791 E60.07365
G1 F681.6 X159.729 Y145.024 E60.098
G1 F717.4 X159.559 Y145.386 E60.12737
G1 F763 X159.486 Y145.69 E60.14896
G1 F795.2 X159.458 Y146.298 E60.18928
G1 F806.5 X159.458 Y147.486 E60.26688
G1 F725.3 X159.513 Y147.868 E60.29492
G1 F670.1 X159.512 Y148.096 E60.31285
G1 F689.9 X160.013 Y148.232 E60.35249
G1 F700.9 X161.421 Y148.523 E60.46056
G1 F788.8 X161.803 Y148.663 E60.48773
G1 F793.6 X162.301 Y148.705 E60.52091
G1 F705.9 X163.869 Y149.027 E60.64038
G1 F656.7 X164.211 Y149.055 E60.66791
G1 F614.9 X164.598 Y149.135 E60.70177
G0 F6000 X164.436 Y148.939
G0 X161.977 Y148.279
G0 X161.951 Y148.222
;TYPE:WALL-INNER
G1 F860.9 X161.922 Y148.271 E60.70526
G1 X161.866 Y148.271 E60.70868
G1 X161.837 Y148.222 E60.71217
G1 X161.866 Y148.173 E60.71565
G1 X161.868 Y148.173 E60.71577
G0 F810 X161.922 Y148.173
G1 F1500 E54.21577
G0 F6000 X162.015 Y148.173
G0 X164.487 Y149.001
G0 X164.373 Y151.715
G0 X164.602 Y155.371
;TYPE:WALL-OUTER
G1 F1500 E60.71577
G1 F623.6 X164.602 Y154.982 E60.74864
G1 F703.4 X164.673 Y154.533 E60.78269
G1 F808.2 X164.675 Y151.784 E60.96189
G1 F809.8 X164.675 Y151.584 E60.9749
G1 X164.185 Y151.485 E61.00743
G1 F808.2 X164.184 Y154.491 E61.20339
G1 F703.4 X164.113 Y154.715 E61.22099
G1 F668.9 X163.932 Y154.722 E61.23525
G1 F708.4 X162.406 Y154.373 E61.35167
G1 F752.9 X162.227 Y154.08 E61.3757
G1 F814.8 X162.229 Y151.394 E61.54937
G1 F809.8 X161.739 Y151.297 E61.58187
G1 F775 X161.738 Y153.972 E61.76372
G1 F714.8 X161.486 Y154.185 E61.78804
G1 F681.6 X160.007 Y153.884 E61.90471
