;FLAVOR:Marlin
;TIME:7636
;Filament used: 1.16957m
;Layer height: 0.12
;MINX:123.371
;MINY:131.639
;MINZ:0.12
;MAXX:167.588
;MAXY:172.231
;MAXZ:75.96
;Generated with Cura_SteamEngine 5.2.1
M140 S60
M105
M190 S60
M104 S220
M105
M109 S220
M82 ;absolute extrusion mode
; Ender 3 Max Custom Start G-code
G92 E0 ; Reset Extruder
G28 ; Home all axes
G1 Z2.0 F3000 ; Move Z Axis up little to prevent scratching of Heat Bed
G1 X0.1 Y20 Z0.3 F5000.0 ; Move to start position
G1 X0.1 Y200.0 Z0.3 F1500.0 E15 ; Draw the first line
G1 X0.4 Y200.0 Z0.3 F5000.0 ; Move to side a little
G1 X0.4 Y20 Z0.3 F1500.0 E30 ; Draw the second line
G92 E0 ; Reset Extruder
G1 Z2.0 F3000 ; Move Z Axis up little to prevent scratching of Heat Bed
G1 X5 Y20 Z0.3 F5000.0 ; Move over to prevent blob squish
G92 E0
G92 E0
G1 F1500 E-6.5
;LAYER_COUNT:633
;LAYER:0
M107
G0 F6000 X128.417 Y141.749 Z0.12
;TYPE:SKIRT
G1 F1500 E0
G1 F1200 X129.142 Y141.153 E0.01873
G1 X129.941 Y140.553 E0.03867
G1 X132.394 Y138.767 E0.09922
G1 X133.058 Y138.296 E0.11547
G1 X133.846 Y137.787 E0.13419
G1 X134.372 Y137.497 E0.14618
G1 X134.905 Y137.222 E0.15814
G1 X137.191 Y136.01 E0.20978
G1 X139.406 Y134.754 E0.26059
G1 X141.88 Y133.252 E0.31835
G1 X142.702 Y132.8 E0.33707
G1 X143.559 Y132.419 E0.35579
G1 X144.446 Y132.113 E0.37451
G1 X145.355 Y131.884 E0.39322
G1 X146.281 Y131.733 E0.41194
G1 X147.395 Y131.657 E0.43423
G1 X148.501 Y131.639 E0.4563
G1 X151.303 Y131.64 E0.51222
G1 X151.996 Y131.65 E0.52605
G1 X152.932 Y131.704 E0.54476
G1 X153.86 Y131.837 E0.56347
G1 X154.774 Y132.048 E0.58219
G1 X155.666 Y132.337 E0.6009
G1 X156.531 Y132.701 E0.61963
G1 X157.361 Y133.137 E0.63834
G1 X158.154 Y133.644 E0.65712
G1 X158.911 Y134.175 E0.67557
G1 X161.302 Y135.914 E0.73457
G1 X161.863 Y136.333 E0.74855
G1 X162.59 Y136.926 E0.76727
G1 X163.264 Y137.578 E0.78598
G1 X163.88 Y138.286 E0.80471
G1 X164.433 Y139.043 E0.82342
G1 X164.919 Y139.845 E0.84213
G1 X165.336 Y140.685 E0.86085
G1 X165.688 Y141.583 E0.8801
G1 X166.019 Y142.554 E0.90057
G1 X166.848 Y145.101 E0.95402
G1 X167.102 Y145.916 E0.97106
G1 X167.342 Y146.822 E0.98976
G1 X167.503 Y147.746 E1.00848
G1 X167.586 Y148.68 E1.02719
G1 X167.588 Y149.618 E1.04591
G1 X167.511 Y150.553 E1.06463
G1 X167.354 Y151.478 E1.08335
G1 X167.118 Y152.388 E1.10212
G1 X166.786 Y153.47 E1.1247
G1 X165.925 Y156.112 E1.18015
G1 X165.701 Y156.769 E1.19401
G1 X165.36 Y157.643 E1.21273
G1 X164.947 Y158.485 E1.23144
G1 X164.463 Y159.288 E1.25015
G1 X163.913 Y160.048 E1.26888
G1 X163.3 Y160.757 E1.28758
G1 X162.629 Y161.412 E1.30629
G1 X161.905 Y162.007 E1.32499
G1 X161.071 Y162.633 E1.3458
G1 X158.91 Y164.206 E1.39914
G1 X157.926 Y164.898 E1.42315
G1 X157.226 Y165.363 E1.43992
G1 X156.262 Y165.986 E1.46283
G1 X153.067 Y168.211 E1.54052
G1 X150.98 Y169.73 E1.59204
G1 X150.318 Y170.199 E1.60823
G1 X149.53 Y170.707 E1.62694
G1 X148.701 Y171.146 E1.64566
G1 X147.838 Y171.513 E1.66437
G1 X146.947 Y171.805 E1.68308
G1 X146.034 Y172.02 E1.7018
G1 X145.106 Y172.156 E1.72052
G1 X144.165 Y172.213 E1.73933
G1 X143.066 Y172.231 E1.76127
G1 X139.974 Y172.23 E1.82297
G1 X139.279 Y172.22 E1.83684
G1 X138.342 Y172.166 E1.85557
G1 X137.414 Y172.033 E1.87428
G1 X136.5 Y171.822 E1.893
G1 X135.608 Y171.533 E1.91171
G1 X134.743 Y171.169 E1.93044
G1 X133.913 Y170.733 E1.94915
G1 X133.113 Y170.221 E1.9681
G1 X132.21 Y169.585 E1.99014
G1 X129.842 Y167.86 E2.04861
G1 X129.167 Y167.355 E2.06543
G1 X128.441 Y166.761 E2.08415
G1 X127.768 Y166.107 E2.10288
G1 X127.154 Y165.399 E2.12158
G1 X126.602 Y164.64 E2.14031
G1 X126.117 Y163.838 E2.15901
G1 X125.702 Y162.997 E2.17773
G1 X125.362 Y162.131 E2.19629
G1 X125.047 Y161.21 E2.21572
G1 X124.05 Y158.145 E2.28004
G1 X123.848 Y157.489 E2.29374
G1 X123.611 Y156.582 E2.31245
G1 X123.451 Y155.658 E2.33116
G1 X123.371 Y154.723 E2.34989
G1 X123.371 Y153.785 E2.36861
G1 X123.451 Y152.851 E2.38731
G1 X123.61 Y151.927 E2.40602
G1 X123.841 Y151.039 E2.42433
G1 X124.165 Y149.983 E2.44638
G1 X125.135 Y147.009 E2.5088
G1 X125.345 Y146.393 E2.52179
G1 X125.686 Y145.519 E2.54051
G1 X126.099 Y144.677 E2.55923
G1 X126.583 Y143.873 E2.57796
G1 X127.133 Y143.114 E2.59666
G1 X127.746 Y142.404 E2.61538
G1 X128.417 Y141.749 E2.63409
G0 F6000 X128.76 Y141.98
G1 F1200 X129.383 Y141.473 E2.65012
G1 X130.177 Y140.877 E2.66993
G1 X132.741 Y139.011 E2.73322
G1 X133.29 Y138.622 E2.74665
G1 X134.063 Y138.123 E2.76501
G1 X134.556 Y137.852 E2.77623
G1 X135.097 Y137.573 E2.78838
G1 X137.382 Y136.361 E2.84
G1 X139.62 Y135.092 E2.89134
G1 X142.088 Y133.594 E2.94895
G1 X142.895 Y133.151 E2.96733
G1 X143.737 Y132.779 E2.9857
G1 X144.609 Y132.482 E3.00408
G1 X145.503 Y132.262 E3.02245
G1 X146.412 Y132.12 E3.04081
G1 X147.402 Y132.057 E3.06061
G1 X148.501 Y132.039 E3.08254
G1 X151.144 Y132.039 E3.13529
G1 X151.99 Y132.05 E3.15217
G1 X152.909 Y132.103 E3.17054
G1 X153.82 Y132.236 E3.18891
G1 X154.716 Y132.448 E3.20729
G1 X155.59 Y132.736 E3.22565
G1 X156.437 Y133.099 E3.24404
G1 X157.248 Y133.534 E3.26241
G1 X157.924 Y133.971 E3.27847
G1 X158.831 Y134.609 E3.3006
G1 X161.063 Y136.234 E3.3557
G1 X161.624 Y136.653 E3.36967
G1 X162.337 Y137.236 E3.38805
G1 X162.997 Y137.878 E3.40642
G1 X163.598 Y138.575 E3.42479
G1 X164.137 Y139.321 E3.44316
G1 X164.609 Y140.112 E3.46154
G1 X165.011 Y140.94 E3.47991
G1 X165.31 Y141.713 E3.49645
G1 X165.639 Y142.677 E3.51677
G1 X166.468 Y145.224 E3.57023
G1 X166.72 Y146.034 E3.58716
G1 X166.955 Y146.925 E3.60554
G1 X167.111 Y147.832 E3.62391
G1 X167.188 Y148.749 E3.64227
G1 X167.186 Y149.67 E3.66065
G1 X167.103 Y150.587 E3.67903
G1 X166.941 Y151.493 E3.6974
G1 X166.736 Y152.271 E3.71345
G1 X166.406 Y153.346 E3.73589
G1 X165.546 Y155.983 E3.79124
G1 X165.322 Y156.64 E3.8051
G1 X164.987 Y157.497 E3.82346
G1 X164.579 Y158.323 E3.84184
G1 X164.102 Y159.11 E3.86021
G1 X163.557 Y159.852 E3.87858
G1 X162.95 Y160.545 E3.89697
G1 X162.286 Y161.182 E3.91533
G1 X161.665 Y161.687 E3.9313
G1 X160.835 Y162.31 E3.95201
G1 X158.555 Y163.969 E4.00828
G1 X157.958 Y164.391 E4.02287
G1 X156.891 Y165.103 E4.04847
G1 X156.032 Y165.658 E4.06888
G1 X152.867 Y167.862 E4.14585
G1 X150.745 Y169.407 E4.19823
G1 X150.088 Y169.872 E4.21429
G1 X149.313 Y170.37 E4.23267
G1 X148.499 Y170.799 E4.25104
G1 X147.65 Y171.156 E4.26942
G1 X146.774 Y171.438 E4.28778
G1 X145.876 Y171.642 E4.30616
G1 X144.964 Y171.768 E4.32453
G1 X144.158 Y171.813 E4.34064
G1 X143.066 Y171.831 E4.36244
G1 X139.979 Y171.83 E4.42404
G1 X139.284 Y171.82 E4.43791
G1 X138.365 Y171.767 E4.45628
G1 X137.454 Y171.634 E4.47465
G1 X136.558 Y171.423 E4.49302
G1 X135.684 Y171.134 E4.51139
G1 X134.838 Y170.771 E4.52977
G1 X134.027 Y170.336 E4.54813
G1 X133.343 Y169.894 E4.56438
G1 X132.446 Y169.262 E4.58628
G1 X129.961 Y167.451 E4.64764
G1 X129.406 Y167.035 E4.66148
G1 X128.694 Y166.451 E4.67986
G1 X128.036 Y165.808 E4.69822
G1 X127.435 Y165.11 E4.7166
G1 X126.898 Y164.363 E4.73496
G1 X126.427 Y163.571 E4.75335
G1 X126.027 Y162.742 E4.77172
G1 X125.74 Y162.001 E4.78758
G1 X125.427 Y161.086 E4.80688
G1 X124.432 Y158.027 E4.87107
G1 X124.23 Y157.371 E4.88477
G1 X123.998 Y156.481 E4.90312
G1 X123.844 Y155.573 E4.9215
G1 X123.769 Y154.655 E4.93988
G1 X123.774 Y153.735 E4.95824
G1 X123.858 Y152.818 E4.97662
G1 X124.022 Y151.912 E4.99499
G1 X124.223 Y151.155 E5.01062
G1 X124.545 Y150.107 E5.0325
G1 X125.468 Y147.274 E5.09196
G1 X125.724 Y146.522 E5.10781
G1 X126.059 Y145.664 E5.1262
G1 X126.466 Y144.839 E5.14455
G1 X126.944 Y144.052 E5.16293
G1 X127.489 Y143.309 E5.18132
G1 X128.095 Y142.617 E5.19967
G1 X128.76 Y141.98 E5.21805
G0 F6000 X129.102 Y142.212
G1 F1200 X129.623 Y141.792 E5.23141
G1 X130.412 Y141.2 E5.25109
G1 X132.972 Y139.337 E5.31427
G1 X133.521 Y138.948 E5.3277
G1 X134.28 Y138.459 E5.34572
G1 X134.739 Y138.207 E5.35617
G1 X135.289 Y137.923 E5.36852
G1 X137.603 Y136.696 E5.42079
G1 X139.805 Y135.448 E5.4713
G1 X142.295 Y133.936 E5.52943
G1 X143.087 Y133.502 E5.54746
G1 X143.915 Y133.139 E5.5655
G1 X144.771 Y132.852 E5.58352
G1 X145.649 Y132.641 E5.60154
G1 X146.542 Y132.509 E5.61955
G1 X147.409 Y132.457 E5.63688
G1 X148.501 Y132.439 E5.65868
G1 X151.144 Y132.439 E5.71142
G1 X151.984 Y132.45 E5.72819
G1 X152.886 Y132.503 E5.74622
G1 X153.779 Y132.636 E5.76424
G1 X154.657 Y132.847 E5.78226
G1 X155.513 Y133.134 E5.80027
G1 X156.34 Y133.497 E5.8183
G1 X157.132 Y133.931 E5.83632
G1 X157.694 Y134.299 E5.84973
G1 X158.595 Y134.932 E5.8717
G1 X160.824 Y136.555 E5.92672
G1 X161.385 Y136.974 E5.9407
G1 X162.084 Y137.546 E5.95872
G1 X162.729 Y138.177 E5.97673
G1 X163.316 Y138.863 E5.99475
G1 X163.841 Y139.599 E6.01279
G1 X164.298 Y140.378 E6.03081
G1 X164.684 Y141.194 E6.04883
G1 X164.931 Y141.842 E6.06266
G1 X165.258 Y142.801 E6.08288
G1 X166.129 Y145.48 E6.1391
G1 X166.338 Y146.153 E6.15316
G1 X166.567 Y147.026 E6.17118
G1 X166.719 Y147.917 E6.18921
G1 X166.791 Y148.817 E6.20723
G1 X166.783 Y149.72 E6.22525
G1 X166.695 Y150.619 E6.24328
G1 X166.528 Y151.506 E6.26129
G1 X166.353 Y152.154 E6.27469
G1 X166.025 Y153.222 E6.29698
G1 X165.167 Y155.854 E6.35223
G1 X164.943 Y156.511 E6.36608
G1 X164.614 Y157.352 E6.3841
G1 X164.212 Y158.16 E6.40211
G1 X163.74 Y158.93 E6.42013
G1 X163.202 Y159.655 E6.43815
G1 X162.602 Y160.33 E6.45617
G1 X161.944 Y160.949 E6.4742
G1 X161.424 Y161.368 E6.48753
G1 X160.6 Y161.987 E6.50809
G1 X158.439 Y163.56 E6.56143
G1 X157.727 Y164.064 E6.57884
G1 X156.783 Y164.696 E6.60151
G1 X155.808 Y165.327 E6.62469
G1 X152.604 Y167.558 E6.7026
G1 X150.392 Y169.167 E6.75719
G1 X149.857 Y169.545 E6.77026
G1 X149.097 Y170.033 E6.78828
G1 X148.297 Y170.452 E6.80631
G1 X147.463 Y170.799 E6.82433
G1 X146.601 Y171.07 E6.84237
G1 X145.719 Y171.264 E6.86039
G1 X144.824 Y171.379 E6.87839
G1 X144.151 Y171.413 E6.89184
G1 X143.066 Y171.431 E6.9135
G1 X139.985 Y171.43 E6.97498
G1 X139.29 Y171.42 E6.98885
G1 X138.389 Y171.367 E7.00687
G1 X137.495 Y171.234 E7.0249
G1 X136.617 Y171.024 E7.04292
G1 X135.761 Y170.736 E7.06094
G1 X134.934 Y170.373 E7.07896
G1 X134.142 Y169.939 E7.09699
G1 X133.573 Y169.567 E7.11055
G1 X132.823 Y169.04 E7.12885
G1 X130.201 Y167.131 E7.19357
G1 X129.646 Y166.715 E7.20741
G1 X128.948 Y166.142 E7.22543
G1 X128.304 Y165.509 E7.24345
G1 X127.718 Y164.822 E7.26147
G1 X127.195 Y164.086 E7.27949
G1 X126.739 Y163.306 E7.29752
G1 X126.354 Y162.489 E7.31555
G1 X126.119 Y161.871 E7.32874
G1 X125.808 Y160.962 E7.34791
G1 X124.815 Y157.91 E7.41196
G1 X124.613 Y157.254 E7.42566
G1 X124.385 Y156.38 E7.44369
G1 X124.236 Y155.489 E7.46171
G1 X124.167 Y154.589 E7.47973
G1 X124.177 Y153.686 E7.49775
G1 X124.267 Y152.787 E7.51578
G1 X124.436 Y151.9 E7.5338
G1 X124.606 Y151.272 E7.54678
G1 X124.926 Y150.231 E7.56851
G1 X125.849 Y147.398 E7.62797
G1 X126.103 Y146.651 E7.64372
G1 X126.432 Y145.81 E7.66174
G1 X126.834 Y145.001 E7.67977
G1 X127.306 Y144.231 E7.69779
G1 X127.844 Y143.506 E7.71581
G1 X128.444 Y142.831 E7.73383
G1 X129.102 Y142.212 E7.75186
G1 F1500 E1.25186
G0 F6000 X138.709 Y151.902
G0 X138.983 Y152.278
G1 F1500 E7.75186
G1 F1200 X140.662 Y151.055 E7.79331
G1 X143.465 Y151.055 E7.84925
G1 X144.015 Y151.015 E7.86026
G1 X144.553 Y150.896 E7.87125
G1 X145.068 Y150.7 E7.88225
G1 X145.64 Y150.381 E7.89532
G1 X145.829 Y150.688 E7.90251
G1 X146.223 Y151.151 E7.91464
G1 X146.771 Y151.699 E7.93011
G1 X147.305 Y152.16 E7.94419
G1 X146.953 Y152.294 E7.9517
G1 X146.472 Y152.562 E7.96269
G1 X146.034 Y152.896 E7.97368
G1 X145.65 Y153.291 E7.98468
G1 X145.326 Y153.737 E7.99568
G1 X145.071 Y154.225 E8.00667
G1 X144.943 Y154.563 E8.01388
G1 X144.407 Y156.208 E8.04841
G1 X142.728 Y157.431 E8.08986
G1 X140.662 Y157.431 E8.13109
G1 X138.983 Y156.208 E8.17254
G1 X138.343 Y154.243 E8.21378
G1 X138.983 Y152.278 E8.25502
G0 F6000 X138.643 Y152.03
G1 F1200 X140.532 Y150.655 E8.30165
G1 X143.465 Y150.655 E8.36018
G1 X143.985 Y150.615 E8.37059
G1 X144.492 Y150.496 E8.38098
G1 X144.975 Y150.301 E8.39138
G1 X145.423 Y150.035 E8.40177
G1 X145.77 Y149.748 E8.41076
G1 X145.934 Y150.109 E8.41867
G1 X146.221 Y150.544 E8.42907
G1 X146.506 Y150.868 E8.43768
G1 X147.054 Y151.416 E8.45315
G1 X147.45 Y151.755 E8.46355
G1 X147.892 Y152.03 E8.47394
G1 X148.372 Y152.234 E8.48435
G1 X148.732 Y152.325 E8.49176
G1 X148.036 Y152.379 E8.50569
G1 X147.529 Y152.498 E8.51608
G1 X147.046 Y152.693 E8.52648
G1 X146.598 Y152.959 E8.53688
G1 X146.196 Y153.291 E8.54728
G1 X145.85 Y153.681 E8.55768
G1 X145.567 Y154.119 E8.56809
G1 X145.323 Y154.687 E8.58043
G1 X144.747 Y156.456 E8.61755
G1 X142.858 Y157.831 E8.66418
G1 X140.532 Y157.831 E8.7106
G1 X138.643 Y156.455 E8.75724
G1 X137.922 Y154.243 E8.80366
G1 X138.643 Y152.03 E8.85011
G0 F6000 X138.303 Y151.782
G1 F1200 X140.401 Y150.255 E8.9019
G1 X143.465 Y150.255 E8.96304
G1 X143.953 Y150.215 E8.97281
G1 X144.428 Y150.096 E8.98258
G1 X144.877 Y149.902 E8.99235
G1 X145.289 Y149.637 E9.00212
G1 X145.652 Y149.309 E9.01188
G1 X145.936 Y148.952 E9.02099
G1 X146.114 Y149.552 E9.03348
G1 X146.329 Y149.993 E9.04327
G1 X146.612 Y150.392 E9.05303
G1 X146.789 Y150.585 E9.05826
G1 X147.337 Y151.133 E9.07372
G1 X147.71 Y151.45 E9.08349
G1 X148.13 Y151.702 E9.09327
G1 X148.585 Y151.882 E9.10303
G1 X149.063 Y151.986 E9.11279
G1 X149.502 Y152.012 E9.12157
G1 X150.602 Y151.996 E9.14352
G1 X151.089 Y151.949 E9.15329
G1 X151.562 Y151.823 E9.16305
G1 X152.008 Y151.622 E9.17282
G1 X152.416 Y151.351 E9.18259
G1 X152.647 Y151.149 E9.18872
G1 X152.896 Y150.907 E9.19564
G1 X152.743 Y151.379 E9.20555
G1 X150.875 Y152.739 E9.25166
G1 X148.556 Y152.739 E9.29794
G1 X148.068 Y152.779 E9.30771
G1 X147.593 Y152.898 E9.31748
G1 X147.144 Y153.092 E9.32724
G1 X146.732 Y153.357 E9.33702
G1 X146.369 Y153.685 E9.34678
G1 X146.064 Y154.068 E9.35655
G1 X145.826 Y154.496 E9.36632
G1 X145.703 Y154.81 E9.37305
G1 X145.087 Y156.704 E9.4128
G1 X142.989 Y158.231 E9.46458
G1 X140.401 Y158.231 E9.51623
G1 X138.303 Y156.704 E9.56801
G1 X137.502 Y154.243 E9.61966
G1 X138.303 Y151.782 E9.67131
G0 F6000 X137.962 Y151.536
G1 F1200 X140.271 Y149.855 E9.7283
G1 X143.465 Y149.855 E9.79204
G1 X143.919 Y149.815 E9.80114
G1 X144.359 Y149.697 E9.81023
G1 X144.771 Y149.503 E9.81932
G1 X145.144 Y149.24 E9.82842
G1 X145.465 Y148.917 E9.83751
G1 X145.724 Y148.542 E9.84661
G1 X145.937 Y148.059 E9.85714
G1 X146.362 Y146.752 E9.88457
G1 X146.498 Y146.653 E9.88793
G1 X146.352 Y147.078 E9.89689
G1 X146.282 Y147.528 E9.90598
G1 X146.279 Y147.818 E9.91177
G1 X146.313 Y148.58 E9.92699
G1 X146.373 Y149.032 E9.93609
G1 X146.511 Y149.466 E9.94518
G1 X146.722 Y149.869 E9.95426
G1 X147.072 Y150.302 E9.96537
G1 X147.62 Y150.85 E9.98083
G1 X147.969 Y151.143 E9.98993
G1 X148.364 Y151.37 E9.99902
G1 X148.792 Y151.525 E10.0081
G1 X149.241 Y151.603 E10.0172
G1 X149.496 Y151.612 E10.02229
G1 X150.596 Y151.596 E10.04424
G1 X151.049 Y151.549 E10.05333
G1 X151.487 Y151.424 E10.06242
G1 X151.897 Y151.225 E10.07152
G1 X152.368 Y150.862 E10.08338
G1 X152.872 Y150.373 E10.0974
G1 X153.17 Y150.028 E10.10649
G1 X153.404 Y149.637 E10.11559
G1 X153.565 Y149.211 E10.12468
G1 X153.683 Y148.592 E10.13725
G1 X153.877 Y149.189 E10.14978
G1 X153.084 Y151.626 E10.20092
G1 X151.005 Y153.139 E10.25223
G1 X148.556 Y153.139 E10.30111
G1 X148.102 Y153.179 E10.3102
G1 X147.662 Y153.297 E10.31929
G1 X147.25 Y153.491 E10.32838
G1 X146.877 Y153.754 E10.33749
G1 X146.556 Y154.077 E10.34658
G1 X146.297 Y154.452 E10.35567
G1 X146.084 Y154.934 E10.36619
G1 X145.428 Y156.95 E10.40849
G1 X143.119 Y158.631 E10.46549
G1 X140.271 Y158.631 E10.52233
G1 X137.962 Y156.95 E10.57932
G1 X137.081 Y154.243 E10.63613
G1 X137.962 Y151.536 E10.69294
G0 F6000 X137.622 Y151.29
G1 F1200 X140.142 Y149.455 E10.75515
G1 X143.465 Y149.455 E10.82147
G1 X143.882 Y149.415 E10.82982
