;FLAVOR:Marlin
;TIME:7885
;Filament used: 5.58785m
;Layer height: 0.2
;MINX:96.187
;MINY:108.849
;MINZ:0.2
;MAXX:203.813
;MAXY:191.151
;MAXZ:11.4
;Generated with Cura_SteamEngine 5.2.1
M140 S60
M105
M190 S60
M104 S200
M105
M109 S200
M82 ;absolute extrusion mode
; Ender 3 Max Custom Start G-code
G92 E0 ; Reset Extruder
G28 ; Home all axes
G1 Z2.0 F3000 ; Move Z Axis up little to prevent scratching of Heat Bed
G1 X0.1 Y20 Z0.3 F5000.0 ; Move to start position
G1 X0.1 Y200.0 Z0.3 F1500.0 E15 ; Draw the first line
G1 X0.4 Y200.0 Z0.3 F5000.0 ; Move to side a little
G1 X0.4 Y20 Z0.3 F1500.0 E30 ; Draw the second line
G92 E0 ; Reset Extruder
G1 Z2.0 F3000 ; Move Z Axis up little to prevent scratching of Heat Bed
G1 X5 Y20 Z0.3 F5000.0 ; Move over to prevent blob squish
G92 E0
G92 E0
G1 F1500 E-6.5
;LAYER_COUNT:58
;LAYER:0
M107
G0 F6000 X100.759 Y112.629 Z0.2
;TYPE:SKIRT
G1 F1500 E0
G1 F1200 X101.486 Y112.006 E0.03184
G1 X101.876 Y111.7 E0.04833
G1 X102.638 Y111.153 E0.07953
G1 X103.316 Y110.743 E0.10588
G1 X103.74 Y110.507 E0.12202
G1 X104.578 Y110.086 E0.15321
G1 X105.386 Y109.76 E0.18219
G1 X105.839 Y109.598 E0.19819
G1 X106.735 Y109.321 E0.22939
G1 X107.546 Y109.139 E0.25703
G1 X107.898 Y109.074 E0.26894
G1 X109.076 Y108.922 E0.30844
G1 X109.545 Y108.887 E0.32409
G1 X110.217 Y108.857 E0.34646
G1 X110.889 Y108.849 E0.36881
G1 X189.175 Y108.852 E2.97261
G1 X189.878 Y108.863 E2.996
G1 X190.879 Y108.925 E3.02936
G1 X191.607 Y109.013 E3.05375
G1 X192.131 Y109.092 E3.07137
G1 X193.051 Y109.271 E3.10254
G1 X194.21 Y109.617 E3.14277
G1 X194.686 Y109.788 E3.1596
G1 X195.554 Y110.142 E3.19077
G1 X196.77 Y110.795 E3.23668
G1 X197.266 Y111.103 E3.2561
G1 X198.041 Y111.631 E3.28729
G1 X198.689 Y112.154 E3.31499
G1 X199.054 Y112.472 E3.33109
G1 X199.734 Y113.118 E3.36228
G1 X200.163 Y113.588 E3.38345
G1 X200.436 Y113.905 E3.39736
G1 X201.017 Y114.641 E3.42855
G1 X201.389 Y115.19 E3.45061
G1 X201.665 Y115.625 E3.46774
G1 X202.133 Y116.437 E3.49891
G1 X202.569 Y117.381 E3.5335
G1 X202.817 Y117.992 E3.55543
G1 X203.218 Y119.138 E3.59581
G1 X203.541 Y120.541 E3.6437
G1 X203.628 Y121.061 E3.66123
G1 X203.743 Y121.992 E3.69243
G1 X203.777 Y122.66 E3.71468
G1 X203.796 Y123.716 E3.74981
G1 X203.813 Y131.297 E4.00195
G1 X203.812 Y176.046 E5.49031
G1 X203.793 Y177.163 E5.52747
G1 X203.754 Y177.909 E5.55232
G1 X203.72 Y178.301 E5.5654
G1 X203.599 Y179.231 E5.59659
G1 X203.485 Y179.797 E5.6158
G1 X203.383 Y180.244 E5.63105
G1 X203 Y181.548 E5.67625
G1 X202.86 Y181.934 E5.68991
G1 X202.312 Y183.192 E5.73555
G1 X202.112 Y183.583 E5.75015
G1 X201.467 Y184.683 E5.79257
G1 X201.26 Y184.993 E5.80496
G1 X200.642 Y185.829 E5.83954
G1 X200.401 Y186.125 E5.85224
G1 X199.779 Y186.827 E5.88343
G1 X199.097 Y187.474 E5.9147
G1 X198.561 Y187.941 E5.93834
G1 X197.828 Y188.526 E5.96954
G1 X197.048 Y189.047 E6.00073
G1 X196.621 Y189.293 E6.01712
G1 X196.194 Y189.527 E6.03332
G1 X194.947 Y190.113 E6.07915
G1 X194.24 Y190.377 E6.10425
G1 X193.95 Y190.475 E6.11443
G1 X193.049 Y190.737 E6.14564
G1 X192.274 Y190.898 E6.17196
G1 X191.857 Y190.969 E6.18603
G1 X190.927 Y191.087 E6.21721
G1 X190.341 Y191.12 E6.23673
G1 X189.658 Y191.136 E6.25946
G1 X177.266 Y191.151 E6.67162
G1 X110.817 Y191.15 E8.88172
G1 X110.119 Y191.14 E8.90494
G1 X109.325 Y191.1 E8.93138
G1 X108.83 Y191.057 E8.94791
G1 X107.9 Y190.936 E8.9791
G1 X106.815 Y190.69 E9.0161
G1 X106.333 Y190.555 E9.03275
G1 X105.442 Y190.264 E9.06392
G1 X104.645 Y189.937 E9.09258
G1 X103.798 Y189.534 E9.12377
G1 X103.093 Y189.126 E9.15087
G1 X102.751 Y188.911 E9.1643
G1 X101.979 Y188.378 E9.1955
G1 X101.508 Y188.002 E9.21555
G1 X101.058 Y187.622 E9.23514
G1 X100.368 Y186.987 E9.26633
G1 X99.82 Y186.396 E9.29313
G1 X99.578 Y186.115 E9.30547
G1 X98.997 Y185.379 E9.33666
G1 X98.659 Y184.884 E9.35659
G1 X98.427 Y184.523 E9.37087
G1 X97.954 Y183.713 E9.40206
G1 X97.726 Y183.256 E9.41905
G1 X97.474 Y182.72 E9.43875
G1 X97.112 Y181.855 E9.46994
G1 X96.871 Y181.125 E9.49551
G1 X96.71 Y180.574 E9.5146
G1 X96.485 Y179.664 E9.54578
G1 X96.366 Y178.956 E9.56965
G1 X96.322 Y178.629 E9.58063
G1 X96.228 Y177.447 E9.62007
G1 X96.193 Y176.019 E9.66758
G1 X96.187 Y174.774 E9.70899
G1 X96.189 Y123.763 E11.40562
G1 X96.198 Y123.143 E11.42624
G1 X96.232 Y122.427 E11.45008
G1 X96.284 Y121.776 E11.4718
G1 X96.468 Y120.468 E11.51574
G1 X96.564 Y119.994 E11.53182
G1 X96.789 Y119.084 E11.563
G1 X97.091 Y118.196 E11.5942
G1 X97.308 Y117.677 E11.61291
G1 X97.632 Y116.964 E11.63896
G1 X97.834 Y116.544 E11.65446
G1 X98.276 Y115.717 E11.68564
G1 X98.838 Y114.86 E11.71973
G1 X99.077 Y114.53 E11.73328
G1 X99.812 Y113.621 E11.77216
G1 X100.102 Y113.299 E11.78658
G1 X100.759 Y112.629 E11.81779
G0 F6000 X101.045 Y112.91
G1 F1200 X101.733 Y112.321 E11.84791
G1 X102.123 Y112.015 E11.8644
G1 X102.871 Y111.478 E11.89502
G1 X103.511 Y111.092 E11.91988
G1 X103.935 Y110.856 E11.93602
G1 X104.758 Y110.444 E11.96663
G1 X105.521 Y110.137 E11.99399
G1 X105.974 Y109.975 E12.00999
G1 X106.853 Y109.703 E12.04059
G1 X107.618 Y109.532 E12.06666
G1 X107.97 Y109.467 E12.07857
G1 X109.106 Y109.32 E12.11667
G1 X109.575 Y109.285 E12.13231
G1 X110.223 Y109.257 E12.15388
G1 X110.889 Y109.249 E12.17604
G1 X189.169 Y109.252 E14.77964
G1 X189.872 Y109.263 E14.80302
G1 X190.837 Y109.322 E14.83518
G1 X191.547 Y109.408 E14.85897
G1 X192.071 Y109.487 E14.87659
G1 X192.975 Y109.664 E14.90723
G1 X194.075 Y109.993 E14.94542
G1 X194.551 Y110.164 E14.96224
G1 X195.403 Y110.513 E14.99286
G1 X196.559 Y111.135 E15.03652
G1 X197.055 Y111.443 E15.05594
G1 X197.815 Y111.962 E15.08655
G1 X198.426 Y112.456 E15.11269
G1 X198.791 Y112.774 E15.12879
G1 X199.458 Y113.408 E15.15939
G1 X199.86 Y113.849 E15.17924
G1 X200.133 Y114.166 E15.19316
G1 X200.703 Y114.889 E15.22378
G1 X201.051 Y115.404 E15.24445
G1 X201.327 Y115.839 E15.26159
G1 X201.786 Y116.637 E15.2922
G1 X202.199 Y117.531 E15.32496
G1 X202.447 Y118.142 E15.34689
G1 X202.834 Y119.252 E15.38599
G1 X203.147 Y120.607 E15.43224
G1 X203.234 Y121.127 E15.44978
G1 X203.346 Y122.041 E15.48041
G1 X203.377 Y122.668 E15.50129
G1 X203.396 Y123.717 E15.53618
G1 X203.413 Y131.297 E15.78829
G1 X203.412 Y176.046 E17.27665
G1 X203.393 Y177.156 E17.31358
G1 X203.355 Y177.874 E17.33749
G1 X203.321 Y178.266 E17.35058
G1 X203.202 Y179.179 E17.3812
G1 X203.095 Y179.708 E17.39915
G1 X202.993 Y180.155 E17.4144
G1 X202.624 Y181.411 E17.45794
G1 X202.484 Y181.797 E17.4716
G1 X201.956 Y183.01 E17.5156
G1 X201.756 Y183.401 E17.53021
G1 X201.134 Y184.46 E17.57105
G1 X200.927 Y184.77 E17.58345
G1 X200.332 Y185.577 E17.6168
G1 X200.091 Y185.873 E17.6295
G1 X199.479 Y186.561 E17.66012
G1 X198.834 Y187.172 E17.68967
G1 X198.298 Y187.639 E17.71332
G1 X197.578 Y188.213 E17.74394
G1 X196.429 Y188.943 E17.78922
G1 X196.002 Y189.177 E17.80541
G1 X194.8 Y189.741 E17.84957
G1 X194.112 Y189.998 E17.874
G1 X193.822 Y190.096 E17.88418
G1 X192.937 Y190.353 E17.91483
G1 X192.207 Y190.504 E17.93963
G1 X191.79 Y190.575 E17.9537
G1 X190.877 Y190.69 E17.9843
G1 X190.329 Y190.72 E18.00256
G1 X189.658 Y190.736 E18.02488
G1 X177.266 Y190.751 E18.43704
G1 X110.823 Y190.75 E20.64694
G1 X110.125 Y190.74 E20.67016
G1 X109.36 Y190.701 E20.69564
G1 X108.865 Y190.658 E20.71217
G1 X107.952 Y190.539 E20.74279
G1 X106.923 Y190.305 E20.77789
G1 X106.441 Y190.17 E20.79454
G1 X105.154 Y189.719 E20.83989
G1 X104.801 Y189.569 E20.85265
G1 X103.971 Y189.172 E20.88325
G1 X103.305 Y188.787 E20.90884
G1 X102.963 Y188.572 E20.92227
G1 X102.206 Y188.049 E20.95288
G1 X101.766 Y187.697 E20.97162
G1 X101.316 Y187.317 E20.99121
G1 X100.639 Y186.693 E21.02183
G1 X100.123 Y186.135 E21.04711
G1 X99.881 Y185.854 E21.05944
G1 X99.311 Y185.131 E21.09006
G1 X98.996 Y184.668 E21.10869
G1 X98.764 Y184.307 E21.12296
G1 X98.3 Y183.511 E21.15361
G1 X98.088 Y183.086 E21.1694
G1 X97.836 Y182.55 E21.1891
G1 X97.481 Y181.701 E21.21971
G1 X97.254 Y181.013 E21.24381
G1 X97.093 Y180.462 E21.2629
G1 X96.874 Y179.568 E21.29351
G1 X96.763 Y178.903 E21.31594
G1 X96.719 Y178.576 E21.32691
G1 X96.628 Y177.436 E21.36495
G1 X96.593 Y176.017 E21.41216
G1 X96.587 Y174.774 E21.4535
G1 X96.589 Y123.769 E23.14993
G1 X96.598 Y123.149 E23.17056
G1 X96.631 Y122.459 E23.19353
G1 X96.683 Y121.808 E23.21525
G1 X96.86 Y120.548 E23.25757
G1 X96.956 Y120.074 E23.27366
G1 X97.178 Y119.18 E23.3043
G1 X97.476 Y118.309 E23.33492
G1 X97.673 Y117.841 E23.3518
G1 X97.992 Y117.138 E23.37748
G1 X98.194 Y116.718 E23.39298
G1 X98.629 Y115.906 E23.42362
G1 X99.162 Y115.094 E23.45593
G1 X99.401 Y114.764 E23.46948
G1 X100.11 Y113.888 E23.50696
G1 X100.4 Y113.566 E23.52137
G1 X101.045 Y112.91 E23.55197
G0 F6000 X101.33 Y113.19
G1 F1200 X101.98 Y112.635 E23.5804
G1 X102.37 Y112.329 E23.59689
G1 X103.104 Y111.804 E23.6269
G1 X103.705 Y111.442 E23.65024
G1 X104.129 Y111.206 E23.66638
G1 X104.937 Y110.802 E23.69642
G1 X105.655 Y110.514 E23.72215
G1 X106.108 Y110.352 E23.73816
G1 X106.971 Y110.086 E23.76819
G1 X107.691 Y109.926 E23.79272
G1 X108.043 Y109.861 E23.80463
G1 X109.136 Y109.719 E23.84129
G1 X109.605 Y109.684 E23.85693
G1 X110.228 Y109.657 E23.87767
G1 X110.889 Y109.649 E23.89966
G1 X189.163 Y109.652 E26.50306
G1 X189.866 Y109.663 E26.52645
G1 X190.794 Y109.72 E26.55737
G1 X191.488 Y109.804 E26.58062
G1 X192.012 Y109.883 E26.59825
G1 X192.898 Y110.057 E26.62828
G1 X193.94 Y110.37 E26.66446
G1 X194.416 Y110.541 E26.68129
G1 X195.251 Y110.883 E26.7113
G1 X196.348 Y111.475 E26.75276
G1 X196.844 Y111.783 E26.77218
G1 X197.589 Y112.293 E26.80221
G1 X198.163 Y112.757 E26.82675
G1 X198.528 Y113.075 E26.84286
G1 X199.182 Y113.698 E26.8729
G1 X199.557 Y114.11 E26.89143
G1 X199.83 Y114.427 E26.90534
G1 X200.388 Y115.137 E26.93538
G1 X200.714 Y115.618 E26.9547
G1 X200.99 Y116.053 E26.97184
G1 X201.439 Y116.837 E27.00189
G1 X201.828 Y117.682 E27.03283
G1 X202.076 Y118.293 E27.05476
G1 X202.451 Y119.365 E27.09253
G1 X202.752 Y120.673 E27.13717
G1 X202.839 Y121.193 E27.15471
G1 X202.949 Y122.089 E27.18473
G1 X202.977 Y122.676 E27.20428
G1 X202.996 Y123.718 E27.23894
G1 X203.013 Y131.297 E27.49102
G1 X203.012 Y176.046 E28.97938
G1 X202.993 Y177.148 E29.01604
G1 X202.957 Y177.839 E29.03905
G1 X202.923 Y178.231 E29.05214
G1 X202.805 Y179.127 E29.0822
G1 X202.705 Y179.619 E29.0989
G1 X202.603 Y180.066 E29.11414
G1 X202.248 Y181.275 E29.15605
G1 X202.108 Y181.661 E29.16971
G1 X201.6 Y182.828 E29.21204
G1 X201.4 Y183.219 E29.22665
G1 X200.802 Y184.238 E29.26595
G1 X200.595 Y184.548 E29.27835
G1 X200.022 Y185.324 E29.31043
G1 X199.781 Y185.62 E29.32312
G1 X199.18 Y186.294 E29.35316
G1 X198.571 Y186.87 E29.38104
G1 X198.035 Y187.337 E29.40469
G1 X197.329 Y187.9 E29.43472
G1 X196.237 Y188.592 E29.47772
G1 X195.81 Y188.826 E29.49391
G1 X194.653 Y189.369 E29.53642
G1 X193.983 Y189.619 E29.56021
G1 X193.693 Y189.717 E29.57039
G1 X192.826 Y189.968 E29.60041
G1 X192.14 Y190.109 E29.6237
G1 X191.723 Y190.18 E29.63777
G1 X190.827 Y190.292 E29.6678
G1 X190.317 Y190.32 E29.68479
G1 X189.657 Y190.336 E29.70675
G1 X177.265 Y190.351 E30.11891
G1 X110.829 Y190.35 E32.32858
G1 X110.131 Y190.34 E32.3518
G1 X109.394 Y190.303 E32.37634
G1 X108.899 Y190.26 E32.39287
G1 X108.004 Y190.142 E32.42289
G1 X107.031 Y189.92 E32.45609
G1 X106.549 Y189.785 E32.47274
G1 X105.311 Y189.351 E32.51637
G1 X104.958 Y189.201 E32.52913
G1 X104.143 Y188.811 E32.55918
G1 X103.518 Y188.448 E32.58322
G1 X103.176 Y188.233 E32.59665
G1 X102.434 Y187.719 E32.62667
G1 X102.024 Y187.391 E32.64414
G1 X101.574 Y187.011 E32.66373
G1 X100.911 Y186.398 E32.69376
G1 X100.426 Y185.874 E32.71751
G1 X100.184 Y185.593 E32.72984
G1 X99.626 Y184.883 E32.75988
G1 X99.332 Y184.452 E32.77723
G1 X99.1 Y184.091 E32.7915
G1 X98.45 Y182.916 E32.83616
G1 X98.198 Y182.38 E32.85586
G1 X97.851 Y181.546 E32.88591
G1 X97.638 Y180.901 E32.9085
G1 X97.477 Y180.35 E32.92759
G1 X97.263 Y179.473 E32.95762
G1 X97.159 Y178.849 E32.97866
G1 X97.115 Y178.522 E32.98963
G1 X97.027 Y177.426 E33.0262
G1 X96.996 Y176.228 E33.06606
G1 X96.987 Y174.774 E33.11442
G1 X96.989 Y123.775 E34.81066
G1 X96.998 Y123.155 E34.83128
G1 X97.029 Y122.491 E34.85339
G1 X97.081 Y121.84 E34.87511
G1 X97.252 Y120.627 E34.91585
G1 X97.348 Y120.153 E34.93194
G1 X97.566 Y119.277 E34.96196
G1 X97.861 Y118.423 E34.99201
G1 X98.038 Y118.004 E35.00714
G1 X98.238 Y117.558 E35.0234
G1 X98.555 Y116.891 E35.04796
G1 X98.982 Y116.095 E35.07801
G1 X99.486 Y115.329 E35.1085
G1 X99.725 Y114.999 E35.12206
G1 X100.407 Y114.156 E35.15812
G1 X100.697 Y113.834 E35.17253
G1 X101.33 Y113.19 E35.20257
G1 F1500 E28.70257
;MESH:Patrick_Tray.stl
G0 F6000 X106.528 Y123.135
G0 X109.9 Y179.516
;TYPE:WALL-INNER
G1 F1500 E35.20257
G1 F1200 X110.293 Y179.55 E35.21569
G1 X189.947 Y179.535 E37.86499
G1 X190.324 Y179.465 E37.87774
G1 X190.649 Y179.348 E37.88923
G1 X191.022 Y179.138 E37.90347
G1 X191.409 Y178.811 E37.92032
G1 X191.633 Y178.538 E37.93207
G1 X191.795 Y178.301 E37.94161
G1 X191.959 Y177.99 E37.95331
G1 X192.102 Y177.579 E37.96778
G1 X192.179 Y177.215 E37.98016
G1 X192.212 Y176.762 E37.99526
G1 X192.195 Y123.153 E39.77831
G1 X192.194 Y122.951 E39.78502
G1 X192.12 Y122.465 E39.80138
G1 X191.888 Y121.851 E39.82321
G1 X191.586 Y121.387 E39.84162
G1 X191.41 Y121.184 E39.85056
G1 X191.108 Y120.922 E39.86385
G1 X190.714 Y120.677 E39.87929
G1 X190.312 Y120.539 E39.89342
G1 X189.666 Y120.451 E39.91511
G1 X110.133 Y120.45 E42.56038
G1 X109.694 Y120.529 E42.57522
G1 X109.34 Y120.655 E42.58772
G1 X108.998 Y120.847 E42.60076
G1 X108.65 Y121.126 E42.6156
G1 X108.456 Y121.338 E42.62516
G1 X108.264 Y121.602 E42.63601
G1 X107.909 Y122.367 E42.66406
G1 X107.838 Y122.705 E42.67555
G1 X107.789 Y123.246 E42.69362
G1 X107.798 Y176.995 E44.48132
G1 X107.849 Y177.372 E44.49397
G1 X107.96 Y177.779 E44.508
G1 X108.152 Y178.213 E44.52379
G1 X108.391 Y178.588 E44.53858
G1 X108.575 Y178.801 E44.54794
G1 X108.95 Y179.116 E44.56423
G1 X109.226 Y179.29 E44.57508
G1 X109.509 Y179.408 E44.58528
G1 X109.9 Y179.516 E44.59877
G0 F6000 X109.829 Y179.912
;TYPE:WALL-OUTER
G1 F1200 X110.276 Y179.95 E44.61369
G1 X189.985 Y179.935 E47.26482
G1 X190.429 Y179.852 E47.27984
G1 X190.816 Y179.713 E47.29352
G1 X191.251 Y179.468 E47.31013
G1 X191.695 Y179.093 E47.32946
G1 X191.953 Y178.778 E47.343
G1 X192.139 Y178.508 E47.3539
G1 X192.327 Y178.15 E47.36735
G1 X192.488 Y177.687 E47.38366
G1 X192.576 Y177.271 E47.3978
G1 X192.612 Y176.776 E47.41431
G1 X192.595 Y123.153 E49.19781
G1 X192.594 Y122.921 E49.20553
G1 X192.527 Y122.477 E49.22047
G1 X192.452 Y122.213 E49.22959
G1 X192.311 Y121.838 E49.24292
G1 X192.208 Y121.609 E49.25127
G1 X191.906 Y121.146 E49.26966
G1 X191.694 Y120.9 E49.28046
G1 X191.346 Y120.599 E49.29576
G1 X190.887 Y120.313 E49.31375
G1 X190.404 Y120.148 E49.33072
G1 X189.693 Y120.051 E49.35459
G1 X110.277 Y120.05 E51.99598
G1 X110.019 Y120.064 E52.00457
G1 X109.59 Y120.141 E52.01907
G1 X109.174 Y120.289 E52.03375
G1 X108.774 Y120.514 E52.04902
G1 X108.376 Y120.834 E52.066
G1 X108.146 Y121.084 E52.0773
G1 X107.918 Y121.398 E52.09021
G1 X107.527 Y122.24 E52.12109
G1 X107.442 Y122.645 E52.13485
G1 X107.389 Y123.228 E52.15432
G1 X107.398 Y177.022 E53.94352
G1 X107.456 Y177.451 E53.95792
G1 X107.582 Y177.913 E53.97384
G1 X107.798 Y178.403 E53.99165
G1 X108.069 Y178.827 E54.00839
G1 X108.293 Y179.087 E54.0198
G1 X108.714 Y179.44 E54.03808
G1 X109.041 Y179.646 E54.05093
G1 X109.378 Y179.787 E54.06308
G1 X109.829 Y179.912 E54.07865
G0 F6000 X109.64 Y179.071
;TYPE:SKIN
G1 F1200 X109.967 Y179.161 E54.08993
G1 X110.309 Y179.19 E54.10134
G1 X189.912 Y179.175 E56.74895
G1 X190.231 Y179.115 E56.75975
G1 X190.498 Y179.018 E56.7692
G1 X190.818 Y178.838 E56.78141
G1 X191.153 Y178.556 E56.79597
G1 X191.344 Y178.323 E56.80599
