;FLAVOR:Marlin
;TIME:8141
;Filament used: 4.53473m
;Layer height: 0.16
;MINX:122.471
;MINY:125.929
;MINZ:0.2
;MAXX:177.529
;MAXY:181.366
;MAXZ:49.76
;Generated with Cura_SteamEngine 5.2.1
M140 S60
M105
M190 S60
M104 S200
M105
M109 S200
M82 ;absolute extrusion mode
; Ender 3 Max Custom Start G-code
G92 E0 ; Reset Extruder
G28 ; Home all axes
G1 Z2.0 F3000 ; Move Z Axis up little to prevent scratching of Heat Bed
G1 X0.1 Y20 Z0.3 F5000.0 ; Move to start position
G1 X0.1 Y200.0 Z0.3 F1500.0 E15 ; Draw the first line
G1 X0.4 Y200.0 Z0.3 F5000.0 ; Move to side a little
G1 X0.4 Y20 Z0.3 F1500.0 E30 ; Draw the second line
G92 E0 ; Reset Extruder
G1 Z2.0 F3000 ; Move Z Axis up little to prevent scratching of Heat Bed
G1 X5 Y20 Z0.3 F5000.0 ; Move over to prevent blob squish
G92 E0
G92 E0
G1 F1500 E-6.5
;LAYER_COUNT:358
;LAYER:0
M107
G0 F6000 X125.651 Y131.759 Z0.2
;TYPE:SKIRT
G1 F1500 E0
G1 F1200 X126.627 Y130.882 E0.04364
G1 X129.841 Y128.323 E0.18029
G1 X130.599 Y127.77 E0.21149
G1 X131.401 Y127.284 E0.24268
G1 X132.242 Y126.869 E0.27387
G1 X133.115 Y126.526 E0.30507
G1 X134.014 Y126.259 E0.33626
G1 X134.933 Y126.07 E0.36747
G1 X135.864 Y125.959 E0.39865
G1 X136.802 Y125.929 E0.42987
G1 X138.078 Y126.016 E0.47241
G1 X141.123 Y126.371 E0.57437
G1 X143.624 Y126.586 E0.65786
G1 X146.16 Y126.732 E0.74235
G1 X148.656 Y126.805 E0.8254
G1 X151.18 Y126.807 E0.90935
G1 X153.703 Y126.738 E0.99329
G1 X156.212 Y126.599 E1.07687
G1 X158.693 Y126.389 E1.15969
G1 X162.04 Y126.001 E1.27175
G1 X162.975 Y125.933 E1.30293
G1 X163.913 Y125.945 E1.33413
G1 X164.846 Y126.036 E1.36531
G1 X165.768 Y126.207 E1.3965
G1 X166.673 Y126.456 E1.42772
G1 X167.553 Y126.78 E1.45891
G1 X168.402 Y127.179 E1.49011
G1 X169.213 Y127.648 E1.52127
G1 X170.157 Y128.321 E1.55983
G1 X173.37 Y130.878 E1.69641
G1 X174.078 Y131.493 E1.7276
G1 X174.731 Y132.166 E1.75879
G1 X175.325 Y132.892 E1.78999
G1 X175.855 Y133.666 E1.82119
G1 X176.316 Y134.482 E1.85236
G1 X176.707 Y135.335 E1.88357
G1 X177.023 Y136.218 E1.91476
G1 X177.264 Y137.124 E1.94594
G1 X177.426 Y138.048 E1.97714
G1 X177.519 Y139.352 E2.02062
G1 X177.529 Y140.253 E2.05059
G1 X177.519 Y145.379 E2.22109
G1 X177.505 Y146.256 E2.25026
G1 X177.45 Y147.192 E2.28144
G1 X177.314 Y148.12 E2.31264
G1 X177.101 Y149.034 E2.34385
G1 X176.81 Y149.925 E2.37503
G1 X176.444 Y150.789 E2.40624
G1 X176.006 Y151.618 E2.43742
G1 X175.293 Y152.69 E2.48024
G1 X172.334 Y156.618 E2.64381
G1 X171.593 Y157.566 E2.68383
G1 X170.924 Y158.378 E2.71882
G1 X169.334 Y160.366 E2.80349
G1 X167.816 Y162.376 E2.88727
G1 X166.339 Y164.451 E2.97198
G1 X164.961 Y166.508 E3.05433
G1 X163.609 Y168.659 E3.13883
G1 X162.337 Y170.811 E3.22197
G1 X161.131 Y172.991 E3.30484
G1 X160.599 Y174.036 E3.34384
G1 X160.441 Y174.317 E3.35456
G1 X159.886 Y175.383 E3.39453
G1 X159.418 Y176.196 E3.42573
G1 X158.883 Y176.966 E3.45692
G1 X158.284 Y177.687 E3.4881
G1 X157.625 Y178.355 E3.51931
G1 X156.912 Y178.965 E3.55052
G1 X156.15 Y179.511 E3.58169
G1 X155.344 Y179.991 E3.6129
G1 X154.635 Y180.342 E3.63921
G1 X153.768 Y180.701 E3.67042
G1 X152.874 Y180.984 E3.70161
G1 X151.959 Y181.19 E3.7328
G1 X151.03 Y181.318 E3.76399
G1 X150.093 Y181.366 E3.7952
G1 X149.156 Y181.334 E3.82638
G1 X148.225 Y181.222 E3.85757
G1 X147.306 Y181.031 E3.88879
G1 X146.408 Y180.763 E3.91996
G1 X145.412 Y180.367 E3.95561
G1 X144.511 Y179.913 E3.98917
G1 X143.713 Y179.421 E4.02035
G1 X142.959 Y178.863 E4.05154
G1 X142.255 Y178.243 E4.08275
G1 X141.607 Y177.565 E4.11394
G1 X141.019 Y176.834 E4.14514
G1 X140.496 Y176.056 E4.17632
G1 X140.163 Y175.473 E4.19865
G1 X139.833 Y174.849 E4.22213
G1 X139.12 Y173.451 E4.27433
G1 X137.911 Y171.236 E4.35826
G1 X136.642 Y169.061 E4.44201
G1 X135.324 Y166.944 E4.52495
G1 X133.931 Y164.838 E4.60894
G1 X132.467 Y162.756 E4.69359
G1 X131.007 Y160.8 E4.77477
G1 X128.351 Y157.491 E4.9159
G1 X127.574 Y156.496 E4.95789
G1 X125.127 Y153.253 E5.09301
G1 X124.622 Y152.565 E5.12139
G1 X124.1 Y151.786 E5.15258
G1 X123.647 Y150.965 E5.18377
G1 X123.265 Y150.109 E5.21495
G1 X122.957 Y149.223 E5.24615
G1 X122.726 Y148.314 E5.27734
G1 X122.573 Y147.388 E5.30856
G1 X122.496 Y146.307 E5.3446
G1 X122.482 Y145.591 E5.36842
G1 X122.471 Y140.211 E5.54736
G1 X122.48 Y139.362 E5.5756
G1 X122.53 Y138.425 E5.60681
G1 X122.661 Y137.496 E5.63801
G1 X122.87 Y136.582 E5.6692
G1 X123.156 Y135.689 E5.70039
G1 X123.517 Y134.823 E5.73159
G1 X123.95 Y133.992 E5.76276
G1 X124.453 Y133.2 E5.79396
G1 X125.021 Y132.454 E5.82515
G1 X125.651 Y131.759 E5.85635
G0 F6000 X126.043 Y131.932
G1 F1200 X126.876 Y131.194 E5.89336
G1 X130.09 Y128.635 E6.03001
G1 X130.835 Y128.094 E6.06063
G1 X131.624 Y127.619 E6.09126
G1 X132.45 Y127.214 E6.12186
G1 X133.309 Y126.883 E6.15248
G1 X134.194 Y126.627 E6.18312
G1 X135.097 Y126.449 E6.21373
G1 X136.012 Y126.35 E6.24434
G1 X136.933 Y126.331 E6.27498
G1 X138.027 Y126.412 E6.31147
G1 X141.083 Y126.768 E6.4138
G1 X143.598 Y126.985 E6.49776
G1 X146.163 Y127.132 E6.58321
G1 X148.644 Y127.205 E6.66576
G1 X151.19 Y127.207 E6.75044
G1 X153.703 Y127.138 E6.83406
G1 X156.264 Y126.996 E6.91937
G1 X158.743 Y126.787 E7.00211
G1 X162.086 Y126.399 E7.11405
G1 X163.004 Y126.332 E7.14466
G1 X163.925 Y126.346 E7.1753
G1 X164.84 Y126.44 E7.20589
G1 X165.745 Y126.612 E7.23653
G1 X166.631 Y126.863 E7.26716
G1 X167.492 Y127.189 E7.29778
G1 X168.321 Y127.589 E7.32839
G1 X169.112 Y128.059 E7.35899
G1 X169.908 Y128.634 E7.39165
G1 X173.121 Y131.191 E7.52823
G1 X173.815 Y131.795 E7.55883
G1 X174.455 Y132.457 E7.58946
G1 X175.035 Y133.172 E7.62008
G1 X175.551 Y133.935 E7.65071
G1 X175.998 Y134.739 E7.68131
G1 X176.374 Y135.58 E7.71195
G1 X176.676 Y136.449 E7.74255
G1 X176.901 Y137.342 E7.77318
G1 X177.048 Y138.251 E7.8038
G1 X177.119 Y139.357 E7.84067
G1 X177.129 Y140.253 E7.87047
G1 X177.119 Y145.379 E8.04096
G1 X177.105 Y146.249 E8.0699
G1 X177.05 Y147.168 E8.10052
G1 X176.915 Y148.079 E8.13115
G1 X176.702 Y148.975 E8.16178
G1 X176.411 Y149.848 E8.19239
G1 X176.046 Y150.693 E8.22301
G1 X175.609 Y151.504 E8.25365
G1 X174.974 Y152.449 E8.29151
G1 X172.015 Y156.377 E8.45508
G1 X171.284 Y157.312 E8.49456
G1 X170.623 Y158.115 E8.52915
G1 X169.018 Y160.12 E8.61457
G1 X167.486 Y162.149 E8.69913
G1 X166.025 Y164.203 E8.78297
G1 X164.607 Y166.319 E8.86769
G1 X163.285 Y168.422 E8.9503
G1 X161.985 Y170.621 E9.03527
G1 X160.763 Y172.83 E9.11923
G1 X160.242 Y173.854 E9.15745
G1 X160.091 Y174.121 E9.16765
G1 X159.531 Y175.198 E9.20802
G1 X159.071 Y175.996 E9.23866
G1 X158.544 Y176.75 E9.26925
G1 X157.953 Y177.457 E9.2999
G1 X157.303 Y178.109 E9.33052
G1 X156.599 Y178.702 E9.36114
G1 X155.846 Y179.232 E9.39176
G1 X155.05 Y179.694 E9.42238
G1 X154.466 Y179.979 E9.44399
G1 X153.615 Y180.331 E9.47462
G1 X152.737 Y180.607 E9.50523
G1 X151.838 Y180.805 E9.53585
G1 X150.925 Y180.926 E9.56648
G1 X150.005 Y180.966 E9.59711
G1 X149.085 Y180.926 E9.62774
G1 X148.173 Y180.807 E9.65833
G1 X147.273 Y180.609 E9.68898
G1 X146.395 Y180.334 E9.71958
G1 X145.513 Y179.971 E9.7513
G1 X144.691 Y179.556 E9.78193
G1 X143.909 Y179.071 E9.81253
G1 X143.171 Y178.52 E9.84317
G1 X142.484 Y177.907 E9.87379
G1 X141.853 Y177.237 E9.9044
G1 X141.282 Y176.515 E9.93502
G1 X140.776 Y175.746 E9.96563
G1 X140.516 Y175.286 E9.98321
G1 X140.272 Y174.827 E10.0005
G1 X139.485 Y173.285 E10.05808
G1 X138.265 Y171.05 E10.14277
G1 X136.983 Y168.855 E10.22732
G1 X135.648 Y166.708 E10.3114
G1 X134.265 Y164.617 E10.39479
G1 X132.787 Y162.515 E10.48025
G1 X131.316 Y160.545 E10.56203
G1 X128.666 Y157.244 E10.70282
G1 X127.894 Y156.255 E10.74455
G1 X125.36 Y152.895 E10.88452
G1 X124.945 Y152.329 E10.90786
G1 X124.433 Y151.563 E10.93851
G1 X123.99 Y150.756 E10.96913
G1 X123.618 Y149.914 E10.99974
G1 X123.321 Y149.043 E11.03035
G1 X123.101 Y148.149 E11.06097
G1 X122.959 Y147.239 E11.09161
G1 X122.896 Y146.298 E11.12297
G1 X122.882 Y145.591 E11.14649
G1 X122.871 Y140.211 E11.32543
G1 X122.88 Y139.366 E11.35354
G1 X122.93 Y138.447 E11.38415
G1 X123.06 Y137.536 E11.41476
G1 X123.269 Y136.639 E11.44539
G1 X123.554 Y135.764 E11.476
G1 X123.915 Y134.916 E11.50665
G1 X124.348 Y134.104 E11.53726
G1 X124.849 Y133.332 E11.56787
G1 X125.416 Y132.606 E11.59851
G1 X126.043 Y131.932 E11.62913
G0 F6000 X126.435 Y132.11
G1 F1200 X127.126 Y131.507 E11.65963
G1 X130.34 Y128.948 E11.79627
G1 X131.07 Y128.418 E11.82628
G1 X131.845 Y127.954 E11.85632
G1 X132.658 Y127.56 E11.88637
G1 X133.502 Y127.24 E11.91639
G1 X134.372 Y126.996 E11.94644
G1 X135.259 Y126.829 E11.97646
G1 X136.158 Y126.742 E12.0065
G1 X137.061 Y126.735 E12.03654
G1 X137.977 Y126.809 E12.0671
G1 X138.431 Y126.867 E12.08233
G1 X141.071 Y127.169 E12.17071
G1 X143.577 Y127.385 E12.25436
G1 X146.093 Y127.53 E12.33819
G1 X148.667 Y127.605 E12.42383
G1 X151.2 Y127.607 E12.50808
G1 X153.736 Y127.538 E12.59246
G1 X156.252 Y127.398 E12.67627
G1 X158.789 Y127.184 E12.76095
G1 X162.132 Y126.796 E12.87289
G1 X163.033 Y126.732 E12.90293
G1 X163.936 Y126.747 E12.93297
G1 X164.834 Y126.843 E12.96301
G1 X165.72 Y127.017 E12.99304
G1 X166.587 Y127.27 E13.02308
G1 X167.428 Y127.598 E13.0531
G1 X168.237 Y127.999 E13.08313
G1 X169.008 Y128.47 E13.11318
G1 X169.659 Y128.947 E13.14003
G1 X172.872 Y131.504 E13.2766
G1 X173.553 Y132.097 E13.30664
G1 X174.179 Y132.748 E13.33667
G1 X174.744 Y133.452 E13.3667
G1 X175.246 Y134.203 E13.39674
G1 X175.679 Y134.996 E13.42679
G1 X176.04 Y135.823 E13.45681
G1 X176.327 Y136.68 E13.48687
G1 X176.536 Y137.558 E13.51688
G1 X176.668 Y138.452 E13.54694
G1 X176.719 Y139.362 E13.57726
G1 X176.729 Y140.252 E13.60686
G1 X176.718 Y145.53 E13.78241
G1 X176.706 Y146.243 E13.80612
G1 X176.65 Y147.144 E13.83615
G1 X176.516 Y148.037 E13.86618
G1 X176.303 Y148.915 E13.89623
G1 X176.013 Y149.77 E13.92626
G1 X175.648 Y150.596 E13.9563
G1 X175.212 Y151.387 E13.98634
G1 X174.654 Y152.208 E14.01935
G1 X171.695 Y156.136 E14.18292
G1 X170.975 Y157.058 E14.22183
G1 X170.321 Y157.853 E14.25607
G1 X168.703 Y159.875 E14.3422
G1 X167.157 Y161.922 E14.42752
G1 X165.7 Y163.97 E14.51112
G1 X164.28 Y166.089 E14.59596
G1 X162.919 Y168.253 E14.68098
G1 X161.649 Y170.403 E14.76404
G1 X160.421 Y172.622 E14.84839
G1 X159.886 Y173.673 E14.88761
G1 X159.732 Y173.945 E14.89801
G1 X159.176 Y175.014 E14.93809
G1 X158.724 Y175.796 E14.96813
G1 X158.205 Y176.535 E14.99816
G1 X157.623 Y177.225 E15.02819
G1 X156.981 Y177.861 E15.05824
G1 X156.286 Y178.437 E15.08827
G1 X155.543 Y178.95 E15.1183
G1 X154.373 Y179.585 E15.16257
G1 X153.462 Y179.96 E15.19534
G1 X152.6 Y180.229 E15.22537
G1 X151.718 Y180.42 E15.25539
G1 X150.822 Y180.533 E15.28543
G1 X149.919 Y180.566 E15.31548
G1 X149.017 Y180.519 E15.34552
G1 X148.123 Y180.392 E15.37555
G1 X147.243 Y180.186 E15.40561
G1 X146.386 Y179.904 E15.43562
G1 X145.678 Y179.606 E15.46117
G1 X144.872 Y179.198 E15.49122
G1 X144.105 Y178.721 E15.52126
G1 X143.384 Y178.177 E15.5513
G1 X142.714 Y177.572 E15.58132
G1 X142.099 Y176.91 E15.61138
G1 X141.546 Y176.197 E15.64139
G1 X140.869 Y175.098 E15.68432
G1 X140.625 Y174.639 E15.70161
G1 X139.834 Y173.091 E15.75943
G1 X138.604 Y170.836 E15.84486
G1 X137.336 Y168.663 E15.92854
G1 X135.979 Y166.482 E16.01398
G1 X134.583 Y164.371 E16.09815
G1 X133.131 Y162.308 E16.18206
G1 X131.639 Y160.309 E16.26502
G1 X128.981 Y156.998 E16.40624
G1 X128.324 Y156.159 E16.44169
G1 X125.682 Y152.658 E16.58757
G1 X125.267 Y152.092 E16.61091
G1 X124.766 Y151.341 E16.64094
G1 X124.333 Y150.548 E16.67099
G1 X123.972 Y149.721 E16.701
G1 X123.686 Y148.864 E16.73105
G1 X123.476 Y147.986 E16.76107
G1 X123.345 Y147.092 E16.79113
G1 X123.296 Y146.289 E16.81788
G1 X123.282 Y145.59 E16.84114
G1 X123.271 Y140.21 E17.02008
G1 X123.28 Y139.371 E17.04798
G1 X123.33 Y138.469 E17.07803
G1 X123.46 Y137.575 E17.10808
G1 X123.668 Y136.697 E17.13809
G1 X123.953 Y135.84 E17.16813
G1 X124.313 Y135.011 E17.19819
G1 X124.745 Y134.218 E17.22822
G1 X125.245 Y133.466 E17.25826
G1 X125.81 Y132.762 E17.28828
G1 X126.435 Y132.11 E17.31832
G1 F1500 E10.81832
;MESH:094_-_Gengar.STL
G0 F6000 X132.806 Y140.15
G0 X133.88 Y140.147
G0 X134.645 Y145.671
G0 X137.488 Y149.434
G0 X142.249 Y150.37
G0 X149.999 Y167.955
;TYPE:WALL-INNER
G1 F1500 E17.31832
G1 F1200 X153.487 Y159.253 E17.63014
G1 X153.932 Y158.359 E17.66335
G1 X157.119 Y150.413 E17.9481
G1 X157.239 Y150.196 E17.95635
G1 X157.431 Y149.998 E17.96552
G1 X157.691 Y149.851 E17.97546
G1 X157.914 Y149.794 E17.98311
G1 X158.386 Y149.765 E17.99884
G1 X162.597 Y149.595 E18.13901
G1 X165.517 Y145.726 E18.30023
G1 X165.527 Y141.351 E18.44574
G1 X165.527 Y141.102 E18.45403
G1 X165.305 Y141.214 E18.4623
G1 X164.723 Y141.312 E18.48193
G1 X164.383 Y141.2 E18.49383
G1 X164.105 Y141.049 E18.50436
G1 X163.91 Y140.892 E18.51268
G1 X163.704 Y140.572 E18.52534
G1 X163.124 Y139.134 E18.57691
G1 X162.556 Y140.063 E18.61313
G1 X162.381 Y140.275 E18.62227
G1 X162.197 Y140.41 E18.62986
G1 X161.885 Y140.524 E18.64091
G1 X161.588 Y140.564 E18.65088
G1 X161.249 Y140.551 E18.66216
G1 X160.802 Y140.328 E18.67878
G1 X160.194 Y139.799 E18.70558
G1 X159.149 Y145.374 E18.89423
G1 X159.039 Y145.677 E18.90496
G1 X158.774 Y146.152 E18.92305
G1 X158.613 Y146.368 E18.93201
G1 X158.371 Y146.548 E18.94204
G1 X158.065 Y146.651 E18.95278
G1 X150.538 Y147.666 E19.20539
G1 X149.999 Y147.598 E19.22346
G1 X149.454 Y147.664 E19.24172
G1 X141.965 Y146.656 E19.49305
G1 X141.646 Y146.556 E19.50417
G1 X141.393 Y146.374 E19.51454
G1 X141.225 Y146.151 E19.52382
G1 X140.96 Y145.675 E19.54194
G1 X140.85 Y145.373 E19.55263
G1 X139.806 Y139.798 E19.74128
G1 X139.197 Y140.327 E19.76811
G1 X138.751 Y140.551 E19.78471
G1 X138.411 Y140.563 E19.79603
G1 X138.114 Y140.523 E19.80599
G1 X137.803 Y140.41 E19.817
G1 X137.619 Y140.275 E19.82459
G1 X137.444 Y140.062 E19.83376
G1 X136.876 Y139.134 E19.86995
G1 X136.295 Y140.573 E19.92156
G1 X136.089 Y140.892 E19.93419
G1 X135.895 Y141.049 E19.94249
G1 X135.616 Y141.201 E19.95306
G1 X135.277 Y141.312 E19.96493
G1 X134.693 Y141.215 E19.98462
G1 X134.473 Y141.104 E19.99281
G1 X134.483 Y145.726 E20.14654
G1 X137.403 Y149.595 E20.30776
G1 X142.084 Y149.793 E20.46359
G1 X142.298 Y149.847 E20.47093
G1 X142.562 Y149.993 E20.48096
G1 X142.757 Y150.194 E20.49028
G1 X142.879 Y150.413 E20.49862
G1 X146.069 Y158.36 E20.78343
G1 X146.544 Y159.328 E20.8193
G1 X149.999 Y167.955 E21.12839
G0 F6000 X150 Y168.396
G0 X149.999 Y169.031
G1 F1200 X153.845 Y159.431 E21.47236
G1 X154.298 Y158.523 E21.50611
G1 X157.529 Y150.467 E21.7948
G1 X157.678 Y150.313 E21.80192
G1 X157.886 Y150.196 E21.80986
G1 X158.402 Y150.165 E21.82705
G1 X162.803 Y149.987 E21.97355
G1 X165.917 Y145.861 E22.14548
G1 X165.927 Y141.352 E22.29545
G1 X165.928 Y140.454 E22.32532
G1 X165.126 Y140.856 E22.35516
G1 X164.776 Y140.915 E22.36696
G1 X164.572 Y140.848 E22.3741
G1 X164.231 Y140.664 E22.38699
G1 X164.075 Y140.423 E22.39654
G1 X163.198 Y138.247 E22.47457
G1 X162.151 Y139.958 E22.54129
G1 X161.856 Y140.121 E22.5525
G1 X161.536 Y140.167 E22.56325
G1 X161.332 Y140.159 E22.57004
G1 X161.064 Y140.026 E22.57999
G1 X159.929 Y139.039 E22.63002
G1 X158.736 Y145.399 E22.84524
G1 X158.369 Y146.055 E22.87024
G1 X158.183 Y146.195 E22.87799
G1 X157.991 Y146.258 E22.88471
G1 X150.518 Y147.261 E23.13549
G1 X149.999 Y147.194 E23.15289
G1 X149.463 Y147.262 E23.17086
G1 X142.018 Y146.259 E23.42072
G1 X141.827 Y146.2 E23.42737
G1 X141.631 Y146.058 E23.43542
G1 X141.262 Y145.396 E23.46063
G1 X140.071 Y139.038 E23.67578
G1 X138.935 Y140.025 E23.72583
G1 X138.667 Y140.159 E23.73579
G1 X138.463 Y140.166 E23.74258
G1 X138.143 Y140.12 E23.75334
G1 X137.85 Y139.959 E23.76446
G1 X136.802 Y138.247 E23.83122
G1 X135.924 Y140.424 E23.90929
G1 X135.769 Y140.663 E23.91877
G1 X135.427 Y140.849 E23.93172
