;FLAVOR:Marlin
;TIME:8128
;Filament used: 4.39865m
;Layer height: 0.2
;MINX:40.514
;MINY:39.915
;MINZ:0.2
;MAXX:259.488
;MAXY:260.084
;MAXZ:2.4
;Generated with Cura_SteamEngine 5.2.1
M140 S60
M105
M190 S60
M104 S215
M105
M109 S215
M82 ;absolute extrusion mode
; Ender 3 Max Custom Start G-code
G92 E0 ; Reset Extruder
G28 ; Home all axes
G1 Z2.0 F3000 ; Move Z Axis up little to prevent scratching of Heat Bed
G1 X0.1 Y20 Z0.3 F5000.0 ; Move to start position
G1 X0.1 Y200.0 Z0.3 F1500.0 E15 ; Draw the first line
G1 X0.4 Y200.0 Z0.3 F5000.0 ; Move to side a little
G1 X0.4 Y20 Z0.3 F1500.0 E30 ; Draw the second line
G92 E0 ; Reset Extruder
G1 Z2.0 F3000 ; Move Z Axis up little to prevent scratching of Heat Bed
G1 X5 Y20 Z0.3 F5000.0 ; Move over to prevent blob squish
G92 E0
G92 E0
G1 F1500 E-6.5
;LAYER_COUNT:12
;LAYER:0
M107
G0 F6000 X55.156 Y44.467 Z0.2
;TYPE:SKIRT
G1 F1500 E0
G1 F1200 X55.707 Y43.813 E0.02844
G1 X56.342 Y43.123 E0.05963
G1 X57.034 Y42.49 E0.09082
G1 X57.778 Y41.918 E0.12204
G1 X58.567 Y41.412 E0.15321
G1 X59.397 Y40.974 E0.18443
G1 X60.26 Y40.609 E0.21559
G1 X61.152 Y40.319 E0.24679
G1 X62.065 Y40.105 E0.27798
G1 X62.994 Y39.971 E0.3092
G1 X63.93 Y39.915 E0.34038
G1 X64.867 Y39.94 E0.37156
G1 X65.799 Y40.045 E0.40275
G1 X66.327 Y40.14 E0.4206
G1 X67.16 Y40.312 E0.44889
G1 X69.714 Y40.802 E0.53538
G1 X72.198 Y41.204 E0.61908
G1 X74.675 Y41.535 E0.70219
G1 X77.195 Y41.799 E0.78647
G1 X79.708 Y41.991 E0.8703
G1 X82.193 Y42.11 E0.95304
G1 X84.722 Y42.16 E1.03717
G1 X87.276 Y42.137 E1.12212
G1 X89.736 Y42.046 E1.204
G1 X92.274 Y41.88 E1.28859
G1 X94.782 Y41.644 E1.37238
G1 X97.278 Y41.339 E1.45601
G1 X99.791 Y40.958 E1.54055
G1 X102.25 Y40.515 E1.62365
G1 X103.445 Y40.266 E1.66425
G1 X104.224 Y40.115 E1.69065
G1 X105.151 Y39.976 E1.72182
G1 X106.087 Y39.916 E1.75302
G1 X107.025 Y39.937 E1.78422
G1 X107.957 Y40.037 E1.8154
G1 X108.531 Y40.139 E1.83479
G1 X109.348 Y40.307 E1.86253
G1 X111.945 Y40.804 E1.95048
G1 X114.399 Y41.203 E2.03317
G1 X116.886 Y41.535 E2.11662
G1 X119.403 Y41.799 E2.2008
G1 X121.921 Y41.991 E2.28479
G1 X124.403 Y42.11 E2.36743
G1 X126.932 Y42.16 E2.45157
G1 X129.486 Y42.137 E2.53651
G1 X131.947 Y42.046 E2.61842
G1 X134.484 Y41.88 E2.70299
G1 X136.997 Y41.644 E2.78694
G1 X139.508 Y41.337 E2.87107
G1 X141.983 Y40.963 E2.95433
G1 X144.453 Y40.517 E3.03781
G1 X145.675 Y40.263 E3.07932
G1 X146.432 Y40.116 E3.10497
G1 X147.36 Y39.976 E3.13618
G1 X148.296 Y39.916 E3.16738
G1 X149.233 Y39.937 E3.19855
G1 X150.166 Y40.036 E3.22976
G1 X150.742 Y40.139 E3.24922
G1 X151.554 Y40.306 E3.27679
G1 X154.127 Y40.8 E3.36393
G1 X156.594 Y41.2 E3.44706
G1 X159.109 Y41.536 E3.53145
G1 X161.608 Y41.798 E3.61502
G1 X164.117 Y41.99 E3.69872
G1 X166.616 Y42.11 E3.78193
G1 X169.133 Y42.159 E3.86566
G1 X171.661 Y42.137 E3.94975
G1 X174.205 Y42.044 E4.03442
G1 X176.674 Y41.882 E4.11671
G1 X179.184 Y41.647 E4.20056
G1 X181.72 Y41.337 E4.28554
G1 X184.175 Y40.966 E4.36812
G1 X186.638 Y40.521 E4.45136
G1 X187.704 Y40.298 E4.48759
G1 X188.637 Y40.116 E4.5192
G1 X189.564 Y39.977 E4.55038
G1 X190.5 Y39.917 E4.58157
G1 X191.438 Y39.936 E4.61278
G1 X192.37 Y40.036 E4.64395
G1 X193.291 Y40.215 E4.67516
G1 X194.482 Y40.572 E4.71651
G1 X195.23 Y40.843 E4.74298
G1 X202.637 Y43.649 E5.00642
G1 X203.273 Y43.9 E5.02916
G1 X204.13 Y44.281 E5.06035
G1 X204.951 Y44.734 E5.09154
G1 X205.743 Y45.264 E5.12324
G1 X206.758 Y46.009 E5.16511
G1 X208.866 Y47.509 E5.25117
G1 X210.966 Y48.916 E5.33524
G1 X213.101 Y50.261 E5.41917
G1 X215.246 Y51.529 E5.50204
G1 X217.466 Y52.757 E5.58642
G1 X219.709 Y53.917 E5.67041
G1 X221.947 Y54.996 E5.75305
G1 X224.81 Y56.268 E5.85725
G1 X225.65 Y56.685 E5.88844
G1 X226.451 Y57.172 E5.91962
G1 X227.208 Y57.726 E5.95082
G1 X227.915 Y58.342 E5.98201
G1 X228.567 Y59.016 E6.0132
G1 X229.16 Y59.744 E6.04443
G1 X229.688 Y60.519 E6.07562
G1 X230.148 Y61.336 E6.1068
G1 X230.571 Y62.274 E6.14102
G1 X230.817 Y62.896 E6.16327
G1 X232.526 Y67.413 E6.3239
G1 X233.47 Y69.805 E6.40943
G1 X234.464 Y72.129 E6.4935
G1 X235.519 Y74.418 E6.57733
G1 X236.632 Y76.659 E6.66055
G1 X237.814 Y78.882 E6.74429
G1 X239.059 Y81.07 E6.82802
G1 X240.386 Y83.257 E6.9131
G1 X241.724 Y85.329 E6.99514
G1 X243.159 Y87.415 E7.07935
G1 X244.643 Y89.451 E7.16315
G1 X246.187 Y91.446 E7.24705
G1 X247.793 Y93.405 E7.33131
G1 X249.754 Y95.665 E7.43083
G1 X250.338 Y96.399 E7.46202
G1 X250.858 Y97.18 E7.49323
G1 X251.308 Y98.002 E7.5244
G1 X251.671 Y98.818 E7.5541
G1 X252.002 Y99.655 E7.58404
G1 X258.531 Y116.915 E8.19781
G1 X258.832 Y117.745 E8.22717
G1 X259.113 Y118.64 E8.25838
G1 X259.317 Y119.555 E8.28956
G1 X259.442 Y120.485 E8.32077
G1 X259.488 Y121.421 E8.35193
G1 X259.453 Y122.359 E8.38315
G1 X259.339 Y123.289 E8.41432
G1 X259.146 Y124.207 E8.44552
G1 X258.808 Y125.296 E8.48344
G1 X257.61 Y128.542 E8.59852
G1 X256.835 Y130.851 E8.67953
G1 X256.08 Y133.327 E8.76563
G1 X255.429 Y135.705 E8.84763
G1 X254.824 Y138.182 E8.93244
G1 X254.297 Y140.649 E9.01634
G1 X253.843 Y143.107 E9.09948
G1 X253.455 Y145.603 E9.18349
G1 X253.143 Y148.059 E9.26584
G1 X252.892 Y150.622 E9.35149
G1 X252.719 Y153.09 E9.43378
G1 X252.615 Y155.633 E9.51843
G1 X252.582 Y158.129 E9.60145
G1 X252.621 Y160.68 E9.68631
G1 X252.729 Y163.14 E9.76821
G1 X252.912 Y165.69 E9.85324
G1 X253.159 Y168.146 E9.93534
G1 X253.487 Y170.694 E10.02078
G1 X253.883 Y173.194 E10.10497
G1 X254.34 Y175.638 E10.18767
G1 X254.873 Y178.098 E10.27139
G1 X255.465 Y180.5 E10.35367
G1 X256.151 Y182.982 E10.43931
G1 X256.893 Y185.394 E10.52325
G1 X257.702 Y187.785 E10.6072
G1 X258.343 Y189.535 E10.66919
G1 X258.548 Y190.075 E10.6884
G1 X258.835 Y190.868 E10.71645
G1 X259.116 Y191.763 E10.74765
G1 X259.319 Y192.678 E10.77882
G1 X259.443 Y193.608 E10.81003
G1 X259.488 Y194.545 E10.84123
G1 X259.453 Y195.482 E10.87242
G1 X259.338 Y196.413 E10.90362
G1 X259.144 Y197.33 E10.93479
G1 X258.872 Y198.228 E10.966
G1 X258.526 Y199.099 E10.99717
G1 X258.106 Y199.938 E11.02838
G1 X257.616 Y200.738 E11.05958
G1 X257.06 Y201.493 E11.09076
G1 X256.698 Y201.921 E11.10941
G1 X256.164 Y202.52 E11.1361
G1 X254.477 Y204.468 E11.22181
G1 X252.877 Y206.426 E11.30591
G1 X251.359 Y208.395 E11.3886
G1 X249.872 Y210.44 E11.4727
G1 X248.455 Y212.512 E11.55619
G1 X247.087 Y214.637 E11.64025
G1 X245.781 Y216.797 E11.7242
G1 X244.545 Y218.978 E11.80758
G1 X243.362 Y221.212 E11.89166
G1 X242.242 Y223.48 E11.97579
G1 X241.195 Y225.758 E12.05917
G1 X240.223 Y228.045 E12.14182
G1 X239.282 Y230.441 E12.22744
G1 X238.444 Y232.766 E12.30964
G1 X238.049 Y233.966 E12.35166
G1 X237.788 Y234.725 E12.37835
G1 X237.446 Y235.598 E12.40954
G1 X237.03 Y236.439 E12.44075
G1 X236.544 Y237.241 E12.47194
G1 X235.992 Y237.999 E12.50312
G1 X235.377 Y238.707 E12.53432
G1 X234.472 Y239.561 E12.5757
G1 X233.73 Y240.185 E12.60795
G1 X227.729 Y245.086 E12.86565
G1 X227.176 Y245.524 E12.88911
G1 X226.416 Y246.074 E12.92031
G1 X225.613 Y246.558 E12.9515
G1 X224.775 Y246.97 E12.98256
G1 X223.801 Y247.399 E13.01795
G1 X221.405 Y248.489 E13.1055
G1 X219.147 Y249.593 E13.1891
G1 X216.93 Y250.757 E13.27239
G1 X214.72 Y251.999 E13.3567
G1 X212.564 Y253.292 E13.44032
G1 X210.448 Y254.642 E13.5238
G1 X208.361 Y256.059 E13.6077
G1 X205.703 Y257.988 E13.71694
G1 X204.922 Y258.506 E13.74811
G1 X204.099 Y258.956 E13.7793
G1 X203.24 Y259.334 E13.81052
G1 X202.353 Y259.637 E13.84169
G1 X201.443 Y259.864 E13.87289
G1 X200.516 Y260.012 E13.90411
G1 X199.581 Y260.081 E13.93529
G1 X198.643 Y260.07 E13.96649
G1 X197.62 Y259.966 E14.00069
G1 X196.889 Y259.857 E14.02528
G1 X192.238 Y259.098 E14.18201
G1 X189.647 Y258.712 E14.26914
G1 X187.117 Y258.408 E14.3539
G1 X184.644 Y258.183 E14.43649
G1 X182.116 Y258.023 E14.52074
G1 X179.629 Y257.937 E14.60351
G1 X177.07 Y257.921 E14.68862
G1 X174.582 Y257.975 E14.77139
G1 X172.063 Y258.102 E14.85528
G1 X169.553 Y258.3 E14.93902
G1 X167.062 Y258.567 E15.02235
G1 X164.525 Y258.912 E15.1075
G1 X162.105 Y259.311 E15.18908
G1 X160.595 Y259.613 E15.2403
G1 X160.27 Y259.664 E15.25124
G1 X159.121 Y259.886 E15.29016
G1 X158.193 Y260.025 E15.32137
G1 X157.257 Y260.084 E15.35257
G1 X156.319 Y260.063 E15.38377
G1 X155.423 Y259.968 E15.41374
G1 X154.693 Y259.86 E15.43828
G1 X150.001 Y259.094 E15.59641
G1 X147.425 Y258.71 E15.68303
G1 X144.931 Y258.41 E15.76658
G1 X142.45 Y258.183 E15.84944
G1 X139.903 Y258.022 E15.93433
G1 X137.427 Y257.936 E16.01673
G1 X134.868 Y257.92 E16.10184
G1 X132.372 Y257.975 E16.18488
G1 X129.864 Y258.1 E16.2684
G1 X127.369 Y258.296 E16.35164
G1 X124.838 Y258.567 E16.4363
G1 X122.338 Y258.907 E16.52022
G1 X119.85 Y259.316 E16.60408
G1 X116.905 Y259.885 E16.70384
G1 X115.977 Y260.024 E16.73505
G1 X115.041 Y260.083 E16.76624
G1 X114.103 Y260.062 E16.79745
G1 X113.211 Y259.967 E16.82729
G1 X112.321 Y259.834 E16.85722
G1 X107.802 Y259.096 E17.00951
G1 X105.235 Y258.713 E17.09583
G1 X102.716 Y258.411 E17.18022
G1 X100.218 Y258.182 E17.26365
G1 X97.707 Y258.024 E17.34733
G1 X95.21 Y257.936 E17.43043
G1 X92.658 Y257.92 E17.51531
G1 X90.162 Y257.975 E17.59835
G1 X87.654 Y258.1 E17.68187
G1 X85.159 Y258.296 E17.76511
G1 X82.607 Y258.569 E17.85047
G1 X80.13 Y258.905 E17.93361
G1 X77.68 Y259.309 E18.0162
G1 X74.691 Y259.886 E18.11745
G1 X73.764 Y260.024 E18.14862
G1 X72.828 Y260.083 E18.17982
G1 X71.89 Y260.062 E18.21102
G1 X71.002 Y259.967 E18.24073
G1 X70.094 Y259.832 E18.27126
G1 X51.911 Y256.861 E18.88405
G1 X51.071 Y256.714 E18.91241
G1 X50.155 Y256.513 E18.9436
G1 X49.259 Y256.234 E18.97481
G1 X48.391 Y255.88 E19.00599
G1 X47.556 Y255.454 E19.03717
G1 X46.76 Y254.957 E19.06838
G1 X46.009 Y254.395 E19.09958
G1 X45.309 Y253.771 E19.13077
G1 X44.665 Y253.089 E19.16197
G1 X44.081 Y252.355 E19.19317
G1 X43.562 Y251.574 E19.22435
G1 X43.111 Y250.752 E19.25554
G1 X42.732 Y249.894 E19.28674
G1 X42.427 Y249.007 E19.31793
G1 X42.145 Y247.818 E19.35858
G1 X42.005 Y247.036 E19.385
G1 X40.733 Y239.219 E19.64841
G1 X40.63 Y238.525 E19.67175
G1 X40.532 Y237.592 E19.70295
G1 X40.514 Y236.654 E19.73416
G1 X40.577 Y235.709 E19.76566
G1 X40.697 Y234.615 E19.80226
G1 X40.95 Y231.994 E19.88984
G1 X41.121 Y229.497 E19.97309
G1 X41.222 Y226.977 E20.05697
G1 X41.251 Y224.452 E20.14096
G1 X41.21 Y221.973 E20.22342
G1 X41.094 Y219.404 E20.30895
G1 X40.913 Y216.944 E20.39099
G1 X40.572 Y213.685 E20.49998
G1 X40.514 Y212.749 E20.53117
G1 X40.536 Y211.812 E20.56234
G1 X40.638 Y210.879 E20.59356
G1 X40.771 Y210.168 E20.61762
G1 X40.977 Y209.235 E20.6494
G1 X41.187 Y208.345 E20.67981
G1 X41.7 Y205.869 E20.76391
G1 X42.138 Y203.406 E20.84712
G1 X42.507 Y200.915 E20.93087
G1 X42.812 Y198.378 E21.01586
G1 X43.038 Y195.899 E21.09866
G1 X43.193 Y193.42 E21.18127
G1 X43.281 Y190.862 E21.2664
G1 X43.297 Y188.335 E21.35045
G1 X43.242 Y185.841 E21.43342
G1 X43.116 Y183.336 E21.51684
G1 X42.915 Y180.805 E21.60129
G1 X42.649 Y178.323 E21.68431
G1 X42.304 Y175.783 E21.76957
G1 X42.102 Y174.556 E21.81093
G1 X42.088 Y174.437 E21.81491
G1 X40.733 Y166.105 E22.09568
G1 X40.63 Y165.411 E22.11901
G1 X40.532 Y164.478 E22.15022
G1 X40.514 Y163.54 E22.18142
G1 X40.577 Y162.595 E22.21292
G1 X40.697 Y161.501 E22.24952
G1 X40.95 Y158.88 E22.3371
G1 X41.121 Y156.383 E22.42035
G1 X41.222 Y153.863 E22.50423
G1 X41.251 Y151.338 E22.58822
G1 X41.21 Y148.859 E22.67068
G1 X41.094 Y146.29 E22.75622
G1 X40.913 Y143.83 E22.83826
G1 X40.572 Y140.571 E22.94724
G1 X40.514 Y139.635 E22.97843
G1 X40.536 Y138.698 E23.00961
G1 X40.638 Y137.765 E23.04082
G1 X40.771 Y137.053 E23.06492
G1 X40.98 Y136.107 E23.09714
G1 X41.189 Y135.223 E23.12735
G1 X41.7 Y132.755 E23.21118
G1 X42.138 Y130.292 E23.29438
G1 X42.507 Y127.801 E23.37814
G1 X42.812 Y125.264 E23.46313
G1 X43.038 Y122.785 E23.54592
G1 X43.193 Y120.306 E23.62853
G1 X43.281 Y117.745 E23.71376
G1 X43.297 Y115.221 E23.79771
G1 X43.242 Y112.727 E23.88068
G1 X43.116 Y110.222 E23.96411
G1 X42.915 Y107.691 E24.04855
G1 X42.649 Y105.209 E24.13158
G1 X42.304 Y102.669 E24.21683
G1 X42.102 Y101.442 E24.25819
G1 X42.088 Y101.323 E24.26218
G1 X40.733 Y92.991 E24.54294
G1 X40.63 Y92.297 E24.56628
G1 X40.532 Y91.364 E24.59748
G1 X40.514 Y90.426 E24.62868
G1 X40.577 Y89.481 E24.66018
G1 X40.697 Y88.387 E24.69679
G1 X40.95 Y85.766 E24.78437
G1 X41.121 Y83.269 E24.86761
G1 X41.222 Y80.749 E24.9515
G1 X41.251 Y78.224 E25.03548
G1 X41.21 Y75.745 E25.11795
G1 X41.094 Y73.176 E25.20348
G1 X40.913 Y70.72 E25.28539
G1 X40.572 Y67.461 E25.39437
G1 X40.514 Y66.525 E25.42557
G1 X40.536 Y65.588 E25.45674
G1 X40.638 Y64.655 E25.48796
G1 X40.819 Y63.735 E25.51914
G1 X41.078 Y62.833 E25.55035
G1 X41.412 Y61.957 E25.58154
G1 X41.82 Y61.113 E25.61272
G1 X42.298 Y60.306 E25.64391
G1 X42.893 Y59.48 E25.67777
G1 X43.426 Y58.81 E25.70625
G1 X55.156 Y44.467 E26.32251
G0 F6000 X55.466 Y44.72
G1 F1200 X56.013 Y44.071 E26.35074
G1 X56.637 Y43.395 E26.38134
G1 X57.317 Y42.775 E26.41195
G1 X58.049 Y42.216 E26.44258
G1 X58.827 Y41.723 E26.47322
G1 X59.644 Y41.3 E26.50382
G1 X60.495 Y40.949 E26.53443
G1 X61.374 Y40.673 E26.56508
G1 X62.273 Y40.474 E26.5957
G1 X63.186 Y40.354 E26.62633
G1 X64.105 Y40.314 E26.65692
G1 X65.025 Y40.354 E26.68755
G1 X66.246 Y40.532 E26.72859
G1 X67.082 Y40.704 E26.75698
G1 X69.64 Y41.195 E26.84361
G1 X72.118 Y41.597 E26.92711
G1 X74.648 Y41.935 E27.01201
G1 X77.16 Y42.198 E27.09601
G1 X79.66 Y42.388 E27.1794
G1 X82.202 Y42.51 E27.26405
G1 X84.717 Y42.56 E27.34771
G1 X87.259 Y42.537 E27.43226
G1 X89.776 Y42.444 E27.51604
G1 X92.336 Y42.277 E27.60136
G1 X94.8 Y42.045 E27.68368
G1 X97.35 Y41.733 E27.76912
G1 X99.816 Y41.36 E27.85208
G1 X102.332 Y40.906 E27.93711
G1 X103.37 Y40.689 E27.97238
G1 X104.3 Y40.508 E28.00389
G1 X105.21 Y40.372 E28.0345
G1 X106.129 Y40.316 E28.06512
G1 X107.05 Y40.339 E28.09576
G1 X107.965 Y40.443 E28.12639
G1 X108.451 Y40.531 E28.14282
G1 X109.271 Y40.7 E28.17066
G1 X111.843 Y41.192 E28.25776
G1 X114.353 Y41.6 E28.34234
G1 X116.862 Y41.935 E28.42653
G1 X119.367 Y42.198 E28.5103
G1 X121.87 Y42.389 E28.5938
G1 X124.412 Y42.51 E28.67844
G1 X126.927 Y42.56 E28.7621
G1 X129.469 Y42.537 E28.84665
G1 X131.987 Y42.444 E28.93046
G1 X134.546 Y42.277 E29.01575
G1 X137.01 Y42.045 E29.09807
G1 X139.55 Y41.735 E29.18318
G1 X142.043 Y41.358 E29.26704
G1 X144.534 Y40.908 E29.35123
G1 X145.751 Y40.655 E29.39257
G1 X146.508 Y40.508 E29.41822
G1 X147.419 Y40.372 E29.44886
G1 X148.338 Y40.316 E29.47948
G1 X149.258 Y40.339 E29.51009
G1 X150.173 Y40.442 E29.54071
G1 X150.661 Y40.531 E29.55721
G1 X151.462 Y40.695 E29.58441
G1 X154.059 Y41.194 E29.67236
G1 X156.549 Y41.598 E29.75626
G1 X159.047 Y41.932 E29.84009
G1 X161.573 Y42.197 E29.92456
G1 X164.068 Y42.387 E30.00779
G1 X166.624 Y42.51 E30.0929
G1 X169.129 Y42.559 E30.17623
G1 X171.678 Y42.537 E30.26101
G1 X174.214 Y42.444 E30.34542
G1 X176.699 Y42.281 E30.42825
G1 X179.237 Y42.043 E30.51303
G1 X181.757 Y41.735 E30.59747
G1 X184.234 Y41.361 E30.68079
G1 X186.754 Y40.906 E30.76596
G1 X187.786 Y40.69 E30.80103
G1 X188.713 Y40.509 E30.83244
G1 X189.623 Y40.372 E30.86305
G1 X190.542 Y40.316 E30.89367
G1 X191.463 Y40.339 E30.92432
G1 X192.378 Y40.442 E30.95494
G1 X193.28 Y40.624 E30.98555
G1 X194.346 Y40.948 E31.0226
G1 X195.094 Y41.219 E31.04907
G1 X202.49 Y44.021 E31.31212
G1 X203.126 Y44.272 E31.33486
G1 X203.967 Y44.647 E31.36549
G1 X204.772 Y45.093 E31.3961
G1 X205.506 Y45.586 E31.4255
G1 X206.541 Y46.346 E31.46821
G1 X208.642 Y47.84 E31.55396
G1 X210.743 Y49.248 E31.63808
G1 X212.874 Y50.591 E31.72186
G1 X215.07 Y51.889 E31.8067
G1 X217.295 Y53.12 E31.89128
G1 X219.502 Y54.261 E31.97391
G1 X221.803 Y55.37 E32.05887
G1 X224.647 Y56.634 E32.16238
G1 X225.472 Y57.044 E32.19302
G1 X226.257 Y57.524 E32.22363
G1 X226.998 Y58.07 E32.25424
G1 X227.689 Y58.679 E32.28487
