;FLAVOR:Marlin
;TIME:8417
;Filament used: 5.8452m
;Layer height: 0.16
;MINX:120.882
;MINY:118.022
;MINZ:0.2
;MAXX:179.131
;MAXY:178.618
;MAXZ:50.4
;Generated with Cura_SteamEngine 5.2.1
M140 S60
M105
M190 S60
M104 S200
M105
M109 S200
M82 ;absolute extrusion mode
; Ender 3 Max Custom Start G-code
G92 E0 ; Reset Extruder
G28 ; Home all axes
G1 Z2.0 F3000 ; Move Z Axis up little to prevent scratching of Heat Bed
G1 X0.1 Y20 Z0.3 F5000.0 ; Move to start position
G1 X0.1 Y200.0 Z0.3 F1500.0 E15 ; Draw the first line
G1 X0.4 Y200.0 Z0.3 F5000.0 ; Move to side a little
G1 X0.4 Y20 Z0.3 F1500.0 E30 ; Draw the second line
G92 E0 ; Reset Extruder
G1 Z2.0 F3000 ; Move Z Axis up little to prevent scratching of Heat Bed
G1 X5 Y20 Z0.3 F5000.0 ; Move over to prevent blob squish
G92 E0
G92 E0
G1 F1500 E-6.5
;LAYER_COUNT:306
;LAYER:0
M107
G0 F6000 X124.939 Y123.501 Z0.2
;TYPE:SKIRT
G1 F1500 E0
G1 F1200 X125.639 Y122.876 E0.03121
G1 X126.389 Y122.314 E0.06238
G1 X127.062 Y121.888 E0.08887
G1 X127.384 Y121.7 E0.10128
G1 X128.422 Y121.165 E0.14012
G1 X129.302 Y120.775 E0.17213
G1 X130.021 Y120.478 E0.198
G1 X131.229 Y120.004 E0.24117
G1 X132.516 Y119.522 E0.28687
G1 X133.857 Y119.054 E0.33411
G1 X135.429 Y118.552 E0.389
G1 X136.334 Y118.305 E0.4202
G1 X137.256 Y118.136 E0.45138
G1 X138.634 Y118.032 E0.49734
G1 X138.945 Y118.028 E0.50769
G1 X140.064 Y118.071 E0.54493
G1 X141.037 Y118.159 E0.57743
G1 X142.066 Y118.266 E0.61184
G1 X144.593 Y118.456 E0.69612
G1 X147.101 Y118.572 E0.77963
G1 X149.633 Y118.618 E0.86386
G1 X152.121 Y118.594 E0.94661
G1 X154.643 Y118.497 E1.03055
G1 X157.146 Y118.331 E1.11399
G1 X158.407 Y118.204 E1.15614
G1 X158.607 Y118.192 E1.1628
G1 X159.912 Y118.073 E1.20639
G1 X161.117 Y118.022 E1.2465
G1 X162.183 Y118.077 E1.28201
G1 X163.112 Y118.205 E1.3132
G1 X163.842 Y118.359 E1.33801
G1 X164.626 Y118.569 E1.36501
G1 X165.673 Y118.894 E1.40147
G1 X166.662 Y119.229 E1.4362
G1 X167.896 Y119.674 E1.47983
G1 X169.312 Y120.212 E1.53021
G1 X170.107 Y120.529 E1.55868
G1 X171.125 Y120.958 E1.59542
G1 X171.622 Y121.181 E1.61354
G1 X172.565 Y121.671 E1.64888
G1 X172.925 Y121.881 E1.66274
G1 X173.714 Y122.388 E1.69394
G1 X174.457 Y122.96 E1.72512
G1 X175.149 Y123.593 E1.75632
G1 X175.784 Y124.283 E1.78751
G1 X176.358 Y125.025 E1.81871
G1 X176.867 Y125.813 E1.84991
G1 X177.321 Y126.669 E1.88214
G1 X177.478 Y127 E1.89432
G1 X177.843 Y127.864 E1.92552
G1 X178.134 Y128.755 E1.95669
G1 X178.347 Y129.669 E1.98791
G1 X178.482 Y130.597 E2.0191
G1 X178.538 Y131.533 E2.05028
G1 X178.529 Y132.194 E2.07227
G1 X178.403 Y135.082 E2.16842
G1 X178.36 Y137.576 E2.25138
G1 X178.388 Y140.095 E2.33517
G1 X178.487 Y142.591 E2.41825
G1 X178.658 Y145.111 E2.50226
G1 X178.991 Y148.433 E2.6133
G1 X179.06 Y149.018 E2.63289
G1 X179.131 Y149.953 E2.66408
G1 X179.122 Y150.891 E2.69528
G1 X179.053 Y151.667 E2.72119
G1 X178.978 Y152.272 E2.74147
G1 X178.823 Y153.197 E2.77266
G1 X178.584 Y154.127 E2.8046
G1 X178.379 Y154.772 E2.82711
G1 X178.27 Y155.086 E2.83817
G1 X178.023 Y155.731 E2.86114
G1 X177.69 Y156.501 E2.88904
G1 X177.187 Y157.572 E2.9284
G1 X177.02 Y157.911 E2.94097
G1 X176.117 Y159.673 E3.00682
G1 X175.531 Y160.782 E3.04854
G1 X174.156 Y163.31 E3.14425
G1 X173.133 Y165.125 E3.21355
G1 X172.329 Y166.513 E3.2669
G1 X171.12 Y168.566 E3.34614
G1 X170.632 Y169.37 E3.37742
G1 X170.025 Y170.308 E3.41458
G1 X169.464 Y171.109 E3.44711
G1 X168.887 Y171.848 E3.47829
G1 X168.291 Y172.493 E3.5075
G1 X168.005 Y172.779 E3.52095
G1 X167.314 Y173.413 E3.55214
G1 X166.46 Y174.065 E3.58788
G1 X166.159 Y174.272 E3.60003
G1 X165.364 Y174.77 E3.63123
G1 X164.599 Y175.166 E3.65988
G1 X164.29 Y175.311 E3.67124
G1 X163.227 Y175.744 E3.70941
G1 X162.372 Y176.035 E3.73945
G1 X161.606 Y176.274 E3.76614
G1 X160.492 Y176.602 E3.80476
G1 X159.421 Y176.901 E3.84175
G1 X158.244 Y177.209 E3.88221
G1 X157.097 Y177.484 E3.92144
G1 X155.635 Y177.809 E3.97126
G1 X153.542 Y178.224 E4.04223
G1 X152.72 Y178.372 E4.07
G1 X151.876 Y178.49 E4.09835
G1 X151.153 Y178.563 E4.12252
G1 X150.217 Y178.618 E4.1537
G1 X149.425 Y178.601 E4.18005
G1 X148.914 Y178.572 E4.19708
G1 X147.686 Y178.433 E4.23818
G1 X146.003 Y178.14 E4.295
G1 X143.866 Y177.704 E4.36754
G1 X142.488 Y177.391 E4.41454
G1 X141.545 Y177.156 E4.44686
G1 X140.468 Y176.869 E4.48393
G1 X138.561 Y176.319 E4.54995
G1 X137.184 Y175.887 E4.59795
G1 X135.933 Y175.408 E4.6425
G1 X135.534 Y175.227 E4.65707
G1 X134.697 Y174.804 E4.68827
G1 X133.878 Y174.297 E4.7203
G1 X133.579 Y174.093 E4.73234
G1 X132.828 Y173.531 E4.76354
G1 X132.014 Y172.798 E4.79997
G1 X131.723 Y172.508 E4.81364
G1 X131.088 Y171.818 E4.84483
G1 X130.54 Y171.114 E4.8745
G1 X129.981 Y170.318 E4.90685
G1 X129.551 Y169.663 E4.93291
G1 X128.905 Y168.611 E4.97397
G1 X128.007 Y167.09 E5.03272
G1 X126.917 Y165.211 E5.10497
G1 X125.749 Y163.139 E5.18408
G1 X124.546 Y160.922 E5.26797
G1 X123.542 Y159.012 E5.33974
G1 X122.93 Y157.812 E5.38454
G1 X122.336 Y156.561 E5.4306
G1 X122.036 Y155.88 E5.45535
G1 X121.747 Y155.132 E5.48203
G1 X121.595 Y154.692 E5.49751
G1 X121.281 Y153.606 E5.53511
G1 X121.219 Y153.341 E5.54416
G1 X121.001 Y152.084 E5.58659
G1 X120.949 Y151.629 E5.60182
G1 X120.882 Y150.694 E5.633
G1 X120.896 Y149.756 E5.6642
G1 X120.94 Y149.211 E5.68239
G1 X121.098 Y147.733 E5.73183
G1 X121.107 Y147.572 E5.73719
G1 X121.238 Y146.365 E5.77757
G1 X121.44 Y143.849 E5.86152
G1 X121.568 Y141.364 E5.94429
G1 X121.627 Y138.84 E6.02826
G1 X121.615 Y136.323 E6.11197
G1 X121.508 Y133.317 E6.21202
G1 X121.467 Y132.513 E6.23879
G1 X121.46 Y131.531 E6.27145
G1 X121.47 Y131.267 E6.28024
G1 X121.545 Y130.332 E6.31144
G1 X121.7 Y129.407 E6.34263
G1 X121.933 Y128.498 E6.37385
G1 X122.243 Y127.613 E6.40503
G1 X122.597 Y126.817 E6.43401
G1 X122.743 Y126.521 E6.44499
G1 X123.193 Y125.698 E6.47618
G1 X123.712 Y124.917 E6.50737
G1 X124.295 Y124.183 E6.53855
G1 X124.939 Y123.501 E6.56975
G0 F6000 X125.267 Y123.741
G1 F1200 X125.958 Y123.132 E6.60038
G1 X126.699 Y122.587 E6.63098
G1 X127.263 Y122.233 E6.65312
G1 X127.585 Y122.045 E6.66553
G1 X128.586 Y121.53 E6.70297
G1 X129.455 Y121.145 E6.73458
G1 X130.174 Y120.848 E6.76045
G1 X131.524 Y120.32 E6.80867
G1 X132.864 Y119.821 E6.85623
G1 X133.978 Y119.435 E6.89544
G1 X135.55 Y118.933 E6.95033
G1 X136.439 Y118.692 E6.98096
G1 X137.345 Y118.528 E7.01158
G1 X138.639 Y118.432 E7.05474
G1 X138.95 Y118.428 E7.06509
G1 X140.028 Y118.469 E7.10097
G1 X140.996 Y118.556 E7.13329
G1 X142.066 Y118.667 E7.16907
G1 X144.544 Y118.853 E7.25172
G1 X147.112 Y118.972 E7.33723
G1 X149.63 Y119.018 E7.42099
G1 X152.139 Y118.994 E7.50444
G1 X154.648 Y118.898 E7.58795
G1 X157.184 Y118.729 E7.67249
G1 X158.447 Y118.602 E7.71471
G1 X158.633 Y118.591 E7.7209
G1 X159.949 Y118.471 E7.76486
G1 X161.116 Y118.422 E7.8037
G1 X162.162 Y118.477 E7.83854
G1 X163.507 Y118.693 E7.88385
G1 X163.753 Y118.749 E7.89224
G1 X164.509 Y118.951 E7.91827
G1 X165.546 Y119.273 E7.95438
G1 X166.31 Y119.53 E7.98119
G1 X167.928 Y120.113 E8.0384
G1 X169.164 Y120.584 E8.08239
G1 X170.169 Y120.987 E8.1184
G1 X170.969 Y121.326 E8.1473
G1 X171.454 Y121.544 E8.16499
G1 X172.363 Y122.017 E8.19907
G1 X172.723 Y122.227 E8.21293
G1 X173.497 Y122.725 E8.24354
G1 X174.226 Y123.288 E8.27418
G1 X174.902 Y123.913 E8.3048
G1 X175.522 Y124.593 E8.33541
G1 X176.08 Y125.325 E8.36602
G1 X176.573 Y126.103 E8.39665
G1 X176.959 Y126.84 E8.42432
G1 X177.116 Y127.171 E8.43651
G1 X177.474 Y128.019 E8.46712
G1 X177.757 Y128.896 E8.49777
G1 X177.963 Y129.793 E8.52839
G1 X178.091 Y130.705 E8.55902
G1 X178.139 Y131.624 E8.58962
G1 X178.129 Y132.176 E8.60799
G1 X178.003 Y135.057 E8.7039
G1 X177.96 Y137.573 E8.7876
G1 X177.988 Y140.08 E8.87098
G1 X178.089 Y142.634 E8.956
G1 X178.259 Y145.147 E9.03977
G1 X178.592 Y148.464 E9.15065
G1 X178.663 Y149.065 E9.17078
G1 X178.732 Y149.983 E9.2014
G1 X178.721 Y150.904 E9.23203
G1 X178.656 Y151.618 E9.25588
G1 X178.581 Y152.223 E9.27615
G1 X178.429 Y153.131 E9.30677
G1 X178.201 Y154.01 E9.33698
G1 X178.001 Y154.641 E9.35899
G1 X177.892 Y154.955 E9.37005
G1 X177.654 Y155.576 E9.39217
G1 X177.328 Y156.331 E9.41952
G1 X176.825 Y157.402 E9.45887
G1 X175.763 Y159.486 E9.53667
G1 X175.119 Y160.704 E9.58249
G1 X173.887 Y162.971 E9.66831
G1 X172.786 Y164.925 E9.74291
G1 X171.984 Y166.31 E9.79614
G1 X170.775 Y168.363 E9.87538
G1 X170.29 Y169.162 E9.90647
G1 X169.69 Y170.089 E9.9432
G1 X169.449 Y170.442 E9.95741
G1 X169.139 Y170.876 E9.97515
G1 X168.571 Y171.601 E10.00578
G1 X168.008 Y172.21 E10.03337
G1 X167.722 Y172.496 E10.04682
G1 X167.044 Y173.118 E10.07742
G1 X166.233 Y173.735 E10.11132
G1 X165.932 Y173.942 E10.12347
G1 X165.152 Y174.43 E10.15407
G1 X164.429 Y174.804 E10.18114
G1 X164.12 Y174.949 E10.1925
G1 X163.096 Y175.366 E10.22927
G1 X162.253 Y175.653 E10.25889
G1 X161.32 Y175.943 E10.29138
G1 X160.384 Y176.217 E10.32382
G1 X159.313 Y176.516 E10.36081
G1 X158.15 Y176.82 E10.40079
G1 X157.003 Y177.095 E10.44002
G1 X155.313 Y177.468 E10.49758
G1 X153.648 Y177.797 E10.55403
G1 X152.649 Y177.978 E10.5878
G1 X151.836 Y178.092 E10.6151
G1 X151.113 Y178.165 E10.63927
G1 X150.194 Y178.218 E10.66989
G1 X149.447 Y178.202 E10.69474
G1 X148.936 Y178.173 E10.71176
G1 X147.753 Y178.039 E10.75136
G1 X146.406 Y177.809 E10.79681
G1 X143.954 Y177.314 E10.88001
G1 X142.815 Y177.057 E10.91885
G1 X141.464 Y176.722 E10.96514
G1 X140.571 Y176.483 E10.99589
G1 X138.92 Y176.009 E11.05302
G1 X137.304 Y175.505 E11.10932
G1 X136.098 Y175.044 E11.15226
G1 X135.699 Y174.863 E11.16683
G1 X134.878 Y174.447 E11.19745
G1 X134.104 Y173.966 E11.22776
G1 X133.805 Y173.762 E11.23979
G1 X133.068 Y173.211 E11.2704
G1 X132.297 Y172.514 E11.30497
G1 X132.006 Y172.224 E11.31863
G1 X131.382 Y171.547 E11.34926
G1 X130.865 Y170.881 E11.3773
G1 X130.316 Y170.098 E11.40911
G1 X129.692 Y169.136 E11.44724
G1 X129.249 Y168.408 E11.47559
G1 X128.353 Y166.889 E11.53424
G1 X127.197 Y164.895 E11.6109
G1 X126.013 Y162.791 E11.6912
G1 X124.9 Y160.736 E11.76893
G1 X123.896 Y158.826 E11.8407
G1 X123.287 Y157.631 E11.88531
G1 X122.698 Y156.39 E11.931
G1 X122.404 Y155.722 E11.95527
G1 X122.125 Y155.001 E11.98099
G1 X121.973 Y154.561 E11.99647
G1 X121.671 Y153.515 E12.03268
G1 X121.609 Y153.25 E12.04173
G1 X121.399 Y152.039 E12.08261
G1 X121.347 Y151.584 E12.09785
G1 X121.282 Y150.665 E12.12849
G1 X121.297 Y149.745 E12.15909
G1 X121.338 Y149.253 E12.17551
G1 X121.49 Y147.832 E12.22304
G1 X121.505 Y147.615 E12.23028
G1 X121.637 Y146.404 E12.2708
G1 X121.837 Y143.901 E12.35431
G1 X121.969 Y141.359 E12.43897
G1 X122.027 Y138.848 E12.52251
G1 X122.015 Y136.307 E12.60703
G1 X121.91 Y133.346 E12.70557
G1 X121.866 Y132.493 E12.73398
G1 X121.86 Y131.546 E12.76548
G1 X121.87 Y131.282 E12.77426
G1 X121.944 Y130.364 E12.8049
G1 X122.098 Y129.456 E12.83553
G1 X122.331 Y128.566 E12.86613
G1 X122.639 Y127.698 E12.89676
G1 X122.956 Y126.994 E12.92244
G1 X123.102 Y126.698 E12.93342
G1 X123.544 Y125.891 E12.96402
G1 X124.055 Y125.125 E12.99465
G1 X124.631 Y124.407 E13.02526
G1 X125.267 Y123.741 E13.05589
G0 F6000 X125.594 Y123.982
G1 F1200 X126.276 Y123.39 E13.08593
G1 X127.008 Y122.862 E13.11595
G1 X127.465 Y122.578 E13.13384
G1 X127.787 Y122.39 E13.14624
G1 X128.75 Y121.895 E13.18226
G1 X129.608 Y121.515 E13.21347
G1 X130.507 Y121.145 E13.2458
G1 X131.52 Y120.749 E13.28198
G1 X132.796 Y120.271 E13.3273
G1 X134.1 Y119.816 E13.37323
G1 X135.672 Y119.314 E13.42812
G1 X136.544 Y119.078 E13.45817
G1 X137.433 Y118.92 E13.4882
G1 X138.644 Y118.832 E13.52858
G1 X138.955 Y118.828 E13.53893
G1 X139.993 Y118.867 E13.57348
G1 X140.955 Y118.954 E13.6056
G1 X142.031 Y119.066 E13.64158
G1 X144.531 Y119.253 E13.72497
G1 X147.085 Y119.372 E13.81
G1 X149.627 Y119.418 E13.89457
G1 X152.124 Y119.394 E13.97762
G1 X154.725 Y119.294 E14.06419
G1 X157.19 Y119.13 E14.14636
G1 X158.487 Y119 E14.18972
G1 X158.658 Y118.991 E14.19541
G1 X159.985 Y118.869 E14.23973
G1 X161.113 Y118.822 E14.27728
G1 X162.141 Y118.877 E14.31152
G1 X163.418 Y119.083 E14.35455
G1 X163.664 Y119.139 E14.36294
G1 X164.392 Y119.334 E14.388
G1 X165.418 Y119.652 E14.42373
G1 X166.182 Y119.909 E14.45054
G1 X167.786 Y120.487 E14.50725
G1 X169.016 Y120.955 E14.55102
G1 X170.013 Y121.355 E14.58675
G1 X170.813 Y121.694 E14.61565
G1 X171.287 Y121.908 E14.63294
G1 X172.161 Y122.362 E14.6657
G1 X172.521 Y122.572 E14.67956
G1 X173.281 Y123.062 E14.70964
G1 X173.994 Y123.616 E14.73967
G1 X174.655 Y124.231 E14.7697
G1 X175.259 Y124.903 E14.79975
G1 X175.801 Y125.625 E14.82978
G1 X176.277 Y126.392 E14.8598
G1 X176.598 Y127.012 E14.88303
G1 X176.755 Y127.343 E14.89521
G1 X177.105 Y128.175 E14.92523
G1 X177.381 Y129.035 E14.95527
G1 X177.579 Y129.916 E14.9853
G1 X177.699 Y130.811 E15.01534
G1 X177.729 Y132.159 E15.06018
G1 X177.604 Y135.033 E15.15586
G1 X177.56 Y137.571 E15.24029
G1 X177.588 Y140.101 E15.32445
G1 X177.689 Y142.641 E15.40899
G1 X177.861 Y145.18 E15.49363
G1 X178.193 Y148.5 E15.60461
G1 X178.266 Y149.112 E15.62511
G1 X178.333 Y150.013 E15.65516
G1 X178.319 Y150.916 E15.6852
G1 X178.26 Y151.569 E15.707
G1 X178.185 Y152.174 E15.72728
G1 X178.034 Y153.064 E15.7573
G1 X177.819 Y153.894 E15.78582
G1 X177.623 Y154.51 E15.80732
G1 X177.514 Y154.824 E15.81838
G1 X177.285 Y155.421 E15.83964
G1 X176.965 Y156.161 E15.86646
G1 X176.308 Y157.546 E15.91744
G1 X175.409 Y159.299 E15.98297
G1 X174.767 Y160.513 E16.02864
G1 X173.535 Y162.78 E16.11446
G1 X172.44 Y164.724 E16.18867
G1 X171.639 Y166.107 E16.24183
G1 X170.43 Y168.16 E16.32107
G1 X169.766 Y169.244 E16.36335
G1 X169.356 Y169.87 E16.38824
G1 X168.813 Y170.644 E16.41969
G1 X168.256 Y171.355 E16.44973
G1 X167.725 Y171.927 E16.47569
G1 X167.439 Y172.213 E16.48914
G1 X166.773 Y172.823 E16.51918
G1 X166.007 Y173.405 E16.55117
G1 X165.706 Y173.612 E16.56332
G1 X164.94 Y174.091 E16.59337
G1 X164.259 Y174.442 E16.61885
G1 X163.95 Y174.587 E16.63021
G1 X162.964 Y174.988 E16.66561
G1 X162.134 Y175.271 E16.69478
G1 X161.207 Y175.559 E16.72706
G1 X160.411 Y175.793 E16.75466
G1 X159.055 Y176.171 E16.80148
G1 X158.057 Y176.431 E16.83578
G1 X156.91 Y176.706 E16.87501
G1 X155.235 Y177.076 E16.93206
G1 X153.57 Y177.405 E16.98851
G1 X152.578 Y177.585 E17.02204
G1 X151.796 Y177.694 E17.04831
G1 X151.073 Y177.767 E17.07248
G1 X150.171 Y177.818 E17.10252
G1 X149.47 Y177.803 E17.12584
G1 X148.959 Y177.774 E17.14287
G1 X147.82 Y177.644 E17.181
G1 X146.162 Y177.356 E17.23697
G1 X144.042 Y176.924 E17.30893
G1 X142.903 Y176.667 E17.34776
G1 X141.568 Y176.335 E17.39352
G1 X140.675 Y176.096 E17.42427
G1 X138.801 Y175.555 E17.48914
G1 X137.424 Y175.123 E17.53714
G1 X136.263 Y174.68 E17.57847
G1 X135.864 Y174.499 E17.59304
G1 X135.059 Y174.09 E17.62308
G1 X134.329 Y173.636 E17.65167
G1 X134.03 Y173.432 E17.66371
G1 X133.308 Y172.89 E17.69373
G1 X132.579 Y172.231 E17.72642
G1 X132.288 Y171.941 E17.74008
G1 X131.677 Y171.276 E17.77012
G1 X131.19 Y170.648 E17.79655
G1 X130.65 Y169.879 E17.82781
G1 X130.22 Y169.224 E17.85387
G1 X129.594 Y168.204 E17.89367
G1 X128.699 Y166.688 E17.95222
G1 X127.546 Y164.699 E18.02869
G1 X126.446 Y162.747 E18.10321
G1 X125.254 Y160.55 E18.18635
G1 X124.25 Y158.64 E18.25812
G1 X123.643 Y157.449 E18.30258
G1 X123.06 Y156.22 E18.34782
G1 X122.772 Y155.565 E18.37162
G1 X122.503 Y154.871 E18.39637
G1 X122.351 Y154.431 E18.41186
G1 X122.06 Y153.424 E18.44672
G1 X121.998 Y153.159 E18.45577
G1 X121.796 Y151.993 E18.49513
G1 X121.744 Y151.538 E18.51036
G1 X121.681 Y150.637 E18.5404
G1 X121.736 Y149.296 E18.58504
G1 X121.873 Y148.016 E18.62786
G1 X121.903 Y147.658 E18.63981
G1 X122.035 Y146.443 E18.68046
G1 X122.238 Y143.918 E18.76471
G1 X122.368 Y141.39 E18.8489
G1 X122.427 Y138.856 E18.93321
G1 X122.415 Y136.324 E19.01742
G1 X122.305 Y133.22 E19.12073
