;FLAVOR:Marlin
;TIME:8230
;Filament used: 5.55338m
;Layer height: 0.2
;MINX:83.367
;MINY:107.784
;MINZ:0.2
;MAXX:220.057
;MAXY:189.498
;MAXZ:7
;Generated with Cura_SteamEngine 5.2.1
M140 S60
M105
M190 S60
M104 S215
M105
M109 S215
M82 ;absolute extrusion mode
; Ender 3 Max Custom Start G-code
G92 E0 ; Reset Extruder
G28 ; Home all axes
G1 Z2.0 F3000 ; Move Z Axis up little to prevent scratching of Heat Bed
G1 X0.1 Y20 Z0.3 F5000.0 ; Move to start position
G1 X0.1 Y200.0 Z0.3 F1500.0 E15 ; Draw the first line
G1 X0.4 Y200.0 Z0.3 F5000.0 ; Move to side a little
G1 X0.4 Y20 Z0.3 F1500.0 E30 ; Draw the second line
G92 E0 ; Reset Extruder
G1 Z2.0 F3000 ; Move Z Axis up little to prevent scratching of Heat Bed
G1 X5 Y20 Z0.3 F5000.0 ; Move over to prevent blob squish
G92 E0
G92 E0
G1 F1500 E-6.5
;LAYER_COUNT:35
;LAYER:0
M107
G0 F6000 X90.171 Y118.507 Z0.2
;TYPE:SKIRT
G1 F1500 E0
G1 F1200 X91.325 Y117.736 E0.04616
G1 X92.047 Y117.317 E0.07393
G1 X92.949 Y116.848 E0.10774
G1 X93.613 Y116.55 E0.13195
G1 X94.147 Y116.328 E0.15118
G1 X95.085 Y115.987 E0.18438
G1 X95.737 Y115.783 E0.2071
G1 X96.399 Y115.593 E0.23001
G1 X97.295 Y115.385 E0.2606
G1 X97.814 Y115.287 E0.27817
G1 X98.557 Y115.164 E0.30321
G1 X99.516 Y115.053 E0.33532
G1 X100.431 Y114.994 E0.36582
G1 X101.185 Y114.967 E0.39091
G1 X101.954 Y114.957 E0.41649
G1 X143.565 Y114.925 E1.80048
G1 X145.419 Y114.897 E1.86215
G1 X146.545 Y114.897 E1.8996
G1 X148.528 Y114.923 E1.96556
G1 X170.473 Y114.908 E2.69546
G1 X173.082 Y114.869 E2.78224
G1 X175.6 Y114.761 E2.86607
G1 X178.097 Y114.582 E2.94933
G1 X180.629 Y114.329 E3.03397
G1 X183.106 Y114.01 E3.11703
G1 X185.614 Y113.615 E3.20148
G1 X188.038 Y113.163 E3.28349
G1 X190.533 Y112.626 E3.36837
G1 X192.955 Y112.029 E3.45134
G1 X195.411 Y111.351 E3.53608
G1 X197.803 Y110.617 E3.6193
G1 X200.2 Y109.806 E3.70347
G1 X202.869 Y108.815 E3.79816
G1 X203.607 Y108.528 E3.8245
G1 X204.495 Y108.225 E3.8557
G1 X205.405 Y107.999 E3.88689
G1 X206.331 Y107.852 E3.91807
G1 X207.267 Y107.784 E3.94929
G1 X208.205 Y107.796 E3.98049
G1 X209.138 Y107.888 E4.01167
G1 X210.06 Y108.059 E4.04286
G1 X210.964 Y108.307 E4.07404
G1 X211.844 Y108.632 E4.10524
G1 X212.693 Y109.031 E4.13644
G1 X213.505 Y109.501 E4.16765
G1 X214.241 Y110.013 E4.19747
G1 X215.099 Y110.668 E4.23337
G1 X215.942 Y111.343 E4.26929
G1 X216.649 Y111.96 E4.3005
G1 X217.3 Y112.635 E4.33169
G1 X217.892 Y113.363 E4.3629
G1 X218.419 Y114.139 E4.3941
G1 X218.878 Y114.956 E4.42526
G1 X219.266 Y115.81 E4.45646
G1 X219.58 Y116.694 E4.48766
G1 X219.818 Y117.601 E4.51885
G1 X219.977 Y118.525 E4.55004
G1 X220.057 Y119.46 E4.58125
G1 X220.057 Y120.398 E4.61245
G1 X219.977 Y121.332 E4.64362
G1 X219.818 Y122.256 E4.67481
G1 X219.581 Y123.164 E4.70602
G1 X219.141 Y124.347 E4.748
G1 X218.683 Y125.393 E4.78598
G1 X217.675 Y127.781 E4.87219
G1 X216.745 Y130.179 E4.95774
G1 X215.921 Y132.488 E5.03928
G1 X215.137 Y134.904 E5.12376
G1 X214.431 Y137.307 E5.20706
G1 X213.79 Y139.741 E5.29078
G1 X213.217 Y142.196 E5.37463
G1 X212.705 Y144.717 E5.46019
G1 X212.286 Y147.115 E5.54115
G1 X211.919 Y149.641 E5.62605
G1 X211.627 Y152.136 E5.7096
G1 X211.407 Y154.642 E5.79327
G1 X211.257 Y157.16 E5.87717
G1 X211.178 Y159.7 E5.96169
G1 X211.164 Y161.405 E6.0184
G1 X211.177 Y172.292 E6.3805
G1 X211.168 Y173.06 E6.40605
G1 X211.133 Y173.809 E6.43099
G1 X211.069 Y174.595 E6.45722
G1 X210.953 Y175.525 E6.48839
G1 X210.743 Y176.502 E6.52163
G1 X210.534 Y177.296 E6.54893
G1 X210.256 Y178.192 E6.58014
G1 X209.865 Y179.145 E6.6144
G1 X209.525 Y179.874 E6.64115
G1 X209.093 Y180.707 E6.67236
G1 X208.785 Y181.21 E6.69198
G1 X208.338 Y181.879 E6.71874
G1 X208.077 Y182.244 E6.73366
G1 X207.216 Y183.302 E6.77903
G1 X206.578 Y183.994 E6.81034
G1 X205.914 Y184.656 E6.84152
G1 X205.438 Y185.066 E6.86242
G1 X204.828 Y185.558 E6.88848
G1 X204.468 Y185.834 E6.90357
G1 X203.5 Y186.497 E6.9426
G1 X202.909 Y186.852 E6.96553
G1 X202.546 Y187.059 E6.97942
G1 X201.582 Y187.547 E7.01536
G1 X200.693 Y187.944 E7.04774
G1 X199.493 Y188.398 E7.09042
G1 X198.822 Y188.608 E7.1138
G1 X198.203 Y188.787 E7.13523
G1 X197.277 Y189.003 E7.16686
G1 X196.726 Y189.107 E7.18551
G1 X195.964 Y189.232 E7.21119
G1 X195.037 Y189.337 E7.24222
G1 X194.216 Y189.391 E7.26959
G1 X193.433 Y189.421 E7.29565
G1 X192.754 Y189.432 E7.31824
G1 X150.75 Y189.464 E8.71529
G1 X148.774 Y189.494 E8.78102
G1 X146.608 Y189.498 E8.85307
G1 X145.248 Y189.479 E8.8983
G1 X143.779 Y189.469 E8.94716
G1 X101.91 Y189.497 E10.33973
G1 X101.147 Y189.486 E10.36511
G1 X100.441 Y189.461 E10.38861
G1 X99.666 Y189.413 E10.41444
G1 X98.73 Y189.309 E10.44576
G1 X98.155 Y189.22 E10.46511
G1 X97.412 Y189.086 E10.49022
G1 X96.475 Y188.868 E10.52222
G1 X95.984 Y188.731 E10.53917
G1 X95.307 Y188.526 E10.5627
G1 X94.413 Y188.207 E10.59427
G1 X93.798 Y187.957 E10.61635
G1 X93.137 Y187.669 E10.64033
G1 X92.311 Y187.258 E10.67102
G1 X91.621 Y186.865 E10.69743
G1 X91.096 Y186.544 E10.7179
G1 X90.294 Y186.003 E10.75007
G1 X89.687 Y185.542 E10.77542
G1 X89.246 Y185.186 E10.79427
G1 X88.308 Y184.336 E10.83638
G1 X87.971 Y183.993 E10.85237
G1 X87.531 Y183.524 E10.87376
G1 X86.676 Y182.475 E10.91877
G1 X86.141 Y181.729 E10.9493
G1 X85.628 Y180.944 E10.98049
G1 X85.302 Y180.357 E11.00283
G1 X84.961 Y179.67 E11.02833
G1 X84.737 Y179.181 E11.04622
G1 X84.383 Y178.313 E11.0774
G1 X84.151 Y177.587 E11.10275
G1 X83.947 Y176.864 E11.12774
G1 X83.731 Y175.951 E11.15894
G1 X83.594 Y175.027 E11.19001
G1 X83.518 Y174.304 E11.21419
G1 X83.46 Y173.355 E11.24581
G1 X83.44 Y172.181 E11.28487
G1 X83.42 Y156.008 E11.82278
G1 X83.367 Y152.779 E11.93019
G1 X83.368 Y151.838 E11.96149
G1 X83.39 Y150.279 E12.01335
G1 X83.384 Y149.641 E12.03457
G1 X83.411 Y148.369 E12.07689
G1 X83.394 Y132.073 E12.6189
G1 X83.403 Y131.309 E12.64431
G1 X83.438 Y130.563 E12.66915
G1 X83.498 Y129.824 E12.69381
G1 X83.614 Y128.893 E12.72501
G1 X83.819 Y127.936 E12.75756
G1 X84.038 Y127.097 E12.7864
G1 X84.313 Y126.2 E12.81761
G1 X84.676 Y125.303 E12.84979
G1 X84.989 Y124.629 E12.87451
G1 X85.162 Y124.278 E12.88753
G1 X85.612 Y123.455 E12.91872
G1 X85.871 Y123.047 E12.9348
G1 X86.278 Y122.447 E12.95891
G1 X86.506 Y122.129 E12.97193
G1 X87.315 Y121.131 E13.01466
G1 X87.807 Y120.591 E13.03895
G1 X88.195 Y120.184 E13.05765
G1 X89.133 Y119.325 E13.09996
G1 X89.761 Y118.82 E13.12676
G1 X90.171 Y118.507 E13.14392
G0 F6000 X90.414 Y118.825
G1 F1200 X91.526 Y118.082 E13.1884
G1 X92.248 Y117.663 E13.21616
G1 X93.117 Y117.211 E13.24874
G1 X93.767 Y116.919 E13.27244
G1 X94.301 Y116.697 E13.29168
G1 X95.205 Y116.369 E13.32366
G1 X95.857 Y116.165 E13.34639
G1 X96.506 Y115.979 E13.36884
G1 X97.369 Y115.778 E13.39831
G1 X97.888 Y115.68 E13.41588
G1 X98.62 Y115.559 E13.44056
G1 X99.544 Y115.452 E13.47149
G1 X100.123 Y115.411 E13.4908
G1 X101.191 Y115.367 E13.52635
G1 X101.954 Y115.357 E13.55173
G1 X143.571 Y115.325 E14.93592
G1 X145.425 Y115.297 E14.99759
G1 X146.54 Y115.297 E15.03467
G1 X148.523 Y115.323 E15.10064
G1 X170.479 Y115.308 E15.83089
G1 X173.104 Y115.269 E15.91821
G1 X175.612 Y115.161 E16.00171
G1 X178.126 Y114.981 E16.08554
G1 X180.686 Y114.725 E16.17111
G1 X183.148 Y114.408 E16.25367
G1 X185.677 Y114.01 E16.33882
G1 X188.166 Y113.546 E16.42303
G1 X190.577 Y113.026 E16.50506
G1 X193.077 Y112.41 E16.5907
G1 X195.507 Y111.74 E16.67454
G1 X197.933 Y110.995 E16.75895
G1 X200.33 Y110.184 E16.84311
G1 X202.971 Y109.204 E16.9368
G1 X203.752 Y108.9 E16.96468
G1 X204.624 Y108.604 E16.99531
G1 X205.518 Y108.385 E17.02592
G1 X206.428 Y108.244 E17.05655
G1 X207.346 Y108.182 E17.08715
G1 X208.267 Y108.2 E17.11779
G1 X209.182 Y108.298 E17.1484
G1 X210.086 Y108.476 E17.17904
G1 X210.97 Y108.73 E17.20963
G1 X211.83 Y109.061 E17.24028
G1 X212.657 Y109.465 E17.27089
G1 X213.446 Y109.939 E17.30151
G1 X213.999 Y110.331 E17.32405
G1 X214.627 Y110.807 E17.35026
G1 X215.692 Y111.656 E17.39556
G1 X216.385 Y112.262 E17.42618
G1 X217.023 Y112.926 E17.45681
G1 X217.601 Y113.643 E17.48744
G1 X218.114 Y114.407 E17.51805
G1 X218.559 Y115.213 E17.54867
G1 X218.933 Y116.054 E17.57928
G1 X219.232 Y116.925 E17.60991
G1 X219.455 Y117.818 E17.64053
G1 X219.599 Y118.727 E17.67114
G1 X219.663 Y119.646 E17.70178
G1 X219.648 Y120.566 E17.73238
G1 X219.553 Y121.482 E17.76301
G1 X219.379 Y122.386 E17.79363
G1 X219.127 Y123.272 E17.82427
G1 X218.775 Y124.187 E17.85687
G1 X218.319 Y125.226 E17.89461
G1 X217.293 Y127.66 E17.98247
G1 X216.383 Y130.005 E18.06613
G1 X215.537 Y132.378 E18.14992
G1 X214.752 Y134.796 E18.23447
G1 X214.046 Y137.198 E18.31774
G1 X213.397 Y139.663 E18.40252
G1 X212.829 Y142.097 E18.48565
G1 X212.313 Y144.633 E18.57173
G1 X211.889 Y147.066 E18.65387
G1 X211.518 Y149.614 E18.73951
G1 X211.23 Y152.087 E18.82232
G1 X211.007 Y154.617 E18.9068
G1 X210.858 Y157.125 E18.99036
G1 X210.778 Y159.685 E19.07555
G1 X210.764 Y161.402 E19.13266
G1 X210.777 Y172.292 E19.49486
G1 X210.768 Y173.055 E19.52024
G1 X210.734 Y173.776 E19.54425
G1 X210.67 Y174.562 E19.57047
G1 X210.556 Y175.476 E19.60111
G1 X210.356 Y176.4 E19.63255
G1 X210.147 Y177.194 E19.65986
G1 X209.874 Y178.074 E19.69051
G1 X209.503 Y178.976 E19.72295
G1 X209.163 Y179.705 E19.7497
G1 X208.738 Y180.522 E19.78033
G1 X208.45 Y180.992 E19.79866
G1 X208.012 Y181.647 E19.82487
G1 X207.751 Y182.012 E19.8398
G1 X206.922 Y183.031 E19.88349
G1 X206.284 Y183.723 E19.91479
G1 X205.631 Y184.372 E19.94541
G1 X205.186 Y184.756 E19.96496
G1 X204.83 Y185.046 E19.98024
G1 X204.224 Y185.516 E20.00574
G1 X203.292 Y186.155 E20.04333
G1 X202.711 Y186.504 E20.06587
G1 X202.348 Y186.711 E20.07977
G1 X201.419 Y187.182 E20.11441
G1 X200.53 Y187.579 E20.14679
G1 X199.374 Y188.016 E20.1879
G1 X198.703 Y188.226 E20.21128
G1 X198.095 Y188.401 E20.23233
G1 X197.203 Y188.61 E20.2628
G1 X196.652 Y188.714 E20.28145
G1 X195.902 Y188.837 E20.30673
G1 X195.008 Y188.938 E20.33665
G1 X194.199 Y188.992 E20.36362
G1 X193.427 Y189.021 E20.38931
G1 X192.748 Y189.032 E20.4119
G1 X150.744 Y189.064 E21.80896
G1 X148.768 Y189.094 E21.87469
G1 X146.614 Y189.098 E21.94633
G1 X145.257 Y189.079 E21.99147
G1 X143.781 Y189.069 E22.04056
G1 X101.916 Y189.097 E23.433
G1 X101.153 Y189.086 E23.45838
G1 X100.163 Y189.046 E23.49133
G1 X99.693 Y189.014 E23.507
G1 X98.792 Y188.913 E23.53716
G1 X97.892 Y188.769 E23.56747
G1 X97.485 Y188.693 E23.58124
G1 X96.582 Y188.483 E23.61208
G1 X96.091 Y188.346 E23.62903
G1 X95.425 Y188.144 E23.65218
G1 X94.563 Y187.837 E23.68261
G1 X93.948 Y187.587 E23.70469
G1 X93.3 Y187.304 E23.72821
G1 X92.504 Y186.908 E23.75778
G1 X91.83 Y186.524 E23.78358
G1 X91.305 Y186.203 E23.80405
G1 X90.531 Y185.682 E23.83508
G1 X89.938 Y185.231 E23.85986
G1 X89.497 Y184.875 E23.87871
G1 X88.594 Y184.056 E23.91926
G1 X88.257 Y183.713 E23.93525
G1 X87.825 Y183.252 E23.95626
G1 X87.001 Y182.241 E23.99964
G1 X86.466 Y181.495 E24.03018
G1 X85.963 Y180.725 E24.06077
G1 X85.657 Y180.173 E24.08176
G1 X85.325 Y179.504 E24.1066
G1 X85.101 Y179.015 E24.12449
G1 X84.754 Y178.162 E24.15512
G1 X84.536 Y177.478 E24.179
G1 X84.332 Y176.755 E24.20398
G1 X84.121 Y175.859 E24.2346
G1 X83.992 Y174.985 E24.26398
G1 X83.916 Y174.262 E24.28816
G1 X83.86 Y173.347 E24.31865
G1 X83.84 Y172.18 E24.35747
G1 X83.82 Y156.066 E24.89343
G1 X83.768 Y152.957 E24.99685
G1 X83.768 Y151.844 E25.03386
G1 X83.795 Y149.943 E25.0971
G1 X83.784 Y149.649 E25.10688
G1 X83.811 Y148.376 E25.14923
G1 X83.794 Y132.073 E25.69147
G1 X83.803 Y131.314 E25.71672
G1 X83.837 Y130.595 E25.74066
G1 X83.897 Y129.856 E25.76532
G1 X84.011 Y128.943 E25.79592
G1 X84.206 Y128.037 E25.82675
G1 X84.425 Y127.198 E25.85559
G1 X84.696 Y126.318 E25.88621
G1 X85.04 Y125.47 E25.91665
G1 X85.348 Y124.806 E25.94099
G1 X85.521 Y124.455 E25.95401
G1 X86.204 Y123.268 E25.99956
G1 X86.393 Y122.984 E26.01091
G1 X86.831 Y122.363 E26.03618
G1 X87.611 Y121.4 E26.0774
G1 X88.103 Y120.86 E26.1017
G1 X88.481 Y120.462 E26.11995
G1 X89.385 Y119.635 E26.1607
G1 X89.741 Y119.345 E26.17597
G1 X90.414 Y118.825 E26.20426
G0 F6000 X90.657 Y119.143
G1 F1200 X91.726 Y118.428 E26.24704
G1 X92.448 Y118.009 E26.2748
G1 X93.285 Y117.574 E26.30618
G1 X93.92 Y117.288 E26.32934
G1 X94.454 Y117.066 E26.34857
G1 X95.324 Y116.75 E26.37936
G1 X95.976 Y116.546 E26.40208
G1 X96.612 Y116.364 E26.42408
G1 X97.443 Y116.171 E26.45246
G1 X97.962 Y116.073 E26.47003
G1 X98.683 Y115.954 E26.49433
G1 X99.573 Y115.851 E26.52413
G1 X100.463 Y115.793 E26.55379
G1 X101.197 Y115.767 E26.57822
G1 X101.954 Y115.757 E26.6034
G1 X143.579 Y115.725 E27.98786
G1 X145.432 Y115.697 E28.04949
G1 X146.534 Y115.697 E28.08615
G1 X148.517 Y115.723 E28.15211
G1 X170.486 Y115.708 E28.8828
G1 X173.092 Y115.669 E28.96949
G1 X175.657 Y115.559 E29.05488
G1 X178.196 Y115.377 E29.13954
G1 X180.671 Y115.13 E29.22227
G1 X183.23 Y114.8 E29.30809
G1 X185.736 Y114.406 E29.39246
G1 X188.252 Y113.936 E29.47759
G1 X190.66 Y113.418 E29.55951
G1 X193.208 Y112.79 E29.64679
G1 X195.616 Y112.125 E29.72988
G1 X198.041 Y111.381 E29.81425
G1 X200.461 Y110.562 E29.89922
G1 X203.128 Y109.572 E29.99384
G1 X203.897 Y109.273 E30.02129
G1 X204.753 Y108.983 E30.05135
G1 X205.63 Y108.77 E30.08136
G1 X206.523 Y108.636 E30.1114
G1 X207.425 Y108.58 E30.14145
G1 X208.327 Y108.605 E30.17147
G1 X209.224 Y108.71 E30.2015
G1 X210.109 Y108.893 E30.23156
G1 X210.973 Y109.154 E30.26158
G1 X211.811 Y109.491 E30.29162
G1 X212.616 Y109.9 E30.32166
G1 X213.382 Y110.379 E30.3517
G1 X213.757 Y110.65 E30.36709
G1 X214.385 Y111.126 E30.3933
G1 X215.442 Y111.968 E30.43825
G1 X216.122 Y112.563 E30.4683
G1 X216.746 Y113.216 E30.49834
G1 X217.309 Y113.921 E30.52835
G1 X217.809 Y114.674 E30.55841
G1 X218.239 Y115.468 E30.58845
G1 X218.598 Y116.297 E30.61849
G1 X218.882 Y117.154 E30.64852
G1 X219.089 Y118.033 E30.67856
G1 X219.218 Y118.927 E30.7086
G1 X219.266 Y119.829 E30.73864
G1 X219.235 Y120.731 E30.76866
G1 X219.125 Y121.628 E30.79872
G1 X218.935 Y122.511 E30.82876
G1 X218.668 Y123.373 E30.85877
G1 X218.408 Y124.026 E30.88215
G1 X217.955 Y125.059 E30.91967
G1 X216.928 Y127.496 E31.00763
G1 X216.009 Y129.862 E31.09205
G1 X215.155 Y132.257 E31.17662
G1 X214.37 Y134.675 E31.26117
G1 X213.661 Y137.088 E31.34482
G1 X213.015 Y139.542 E31.42922
G1 X212.434 Y142.031 E31.51423
G1 X211.921 Y144.556 E31.59993
G1 X211.493 Y147.006 E31.68265
G1 X211.124 Y149.547 E31.76805
G1 X210.833 Y152.042 E31.8516
G1 X210.608 Y154.595 E31.93684
G1 X210.457 Y157.124 E32.02111
G1 X210.378 Y159.668 E32.10576
G1 X210.364 Y161.399 E32.16334
G1 X210.377 Y172.293 E32.52567
G1 X210.368 Y173.05 E32.55085
G1 X210.335 Y173.744 E32.57396
G1 X210.271 Y174.53 E32.60019
G1 X210.158 Y175.426 E32.63023
G1 X209.969 Y176.298 E32.6599
G1 X209.76 Y177.092 E32.68721
G1 X209.492 Y177.955 E32.71727
G1 X209.14 Y178.807 E32.74793
G1 X208.8 Y179.536 E32.77468
G1 X208.382 Y180.337 E32.80473
G1 X208.114 Y180.774 E32.82178
G1 X207.687 Y181.414 E32.84737
G1 X207.426 Y181.779 E32.8623
G1 X206.628 Y182.76 E32.90436
G1 X205.99 Y183.452 E32.93566
G1 X205.349 Y184.088 E32.96569
G1 X204.933 Y184.446 E32.98395
G1 X204.341 Y184.923 E33.00923
G1 X203.981 Y185.199 E33.02432
G1 X203.084 Y185.814 E33.0605
G1 X202.513 Y186.157 E33.08265
G1 X202.15 Y186.364 E33.09655
G1 X201.256 Y186.817 E33.12988
G1 X200.367 Y187.214 E33.16227
G1 X199.255 Y187.634 E33.2018
G1 X198.584 Y187.844 E33.22519
G1 X197.987 Y188.016 E33.24585
G1 X197.129 Y188.217 E33.27516
G1 X196.267 Y188.375 E33.30431
G1 X195.84 Y188.442 E33.31868
G1 X194.98 Y188.539 E33.34747
G1 X194.182 Y188.592 E33.37407
G1 X193.42 Y188.621 E33.39943
G1 X192.741 Y188.632 E33.42202
G1 X150.737 Y188.664 E34.81908
G1 X148.629 Y188.695 E34.8892
G1 X146.62 Y188.698 E34.95602
G1 X145.266 Y188.679 E35.00106
G1 X143.784 Y188.669 E35.05035
