;FLAVOR:Marlin
;TIME:8881
;Filament used: 5.5616m
;Layer height: 0.2
;MINX:66.166
;MINY:86.447
;MINZ:0.32
;MAXX:235.585
;MAXY:214.91
;MAXZ:38.72
;Generated with Cura_SteamEngine 5.2.1
M140 S60
M105
M190 S60
M104 S200
M105
M109 S200
M82 ;absolute extrusion mode
; Ender 3 Max Custom Start G-code
G92 E0 ; Reset Extruder
G28 ; Home all axes
G1 Z2.0 F3000 ; Move Z Axis up little to prevent scratching of Heat Bed
G1 X0.1 Y20 Z0.3 F5000.0 ; Move to start position
G1 X0.1 Y200.0 Z0.3 F1500.0 E15 ; Draw the first line
G1 X0.4 Y200.0 Z0.3 F5000.0 ; Move to side a little
G1 X0.4 Y20 Z0.3 F1500.0 E30 ; Draw the second line
G92 E0 ; Reset Extruder
G1 Z2.0 F3000 ; Move Z Axis up little to prevent scratching of Heat Bed
G1 X5 Y20 Z0.3 F5000.0 ; Move over to prevent blob squish
G92 E0
G92 E0
G1 F1500 E-6.5
;LAYER_COUNT:193
;LAYER:0
M107
G0 F6000 X71.441 Y102.808 Z0.32
;TYPE:SKIRT
G1 F1500 E0
G1 F900 X72.217 Y102.308 E0.05404
G1 X73.033 Y101.876 E0.10809
G1 X73.883 Y101.516 E0.16212
G1 X74.762 Y101.231 E0.21621
G1 X75.661 Y101.024 E0.27022
G1 X76.575 Y100.895 E0.32425
G1 X79.981 Y100.677 E0.52404
G1 X82.506 Y100.443 E0.67248
G1 X85.656 Y100.052 E0.85829
G1 X87.092 Y99.853 E0.94315
G1 X89.311 Y99.606 E1.07385
G1 X90.003 Y99.538 E1.11455
G1 X90.65 Y99.495 E1.15251
G1 X91.858 Y99.453 E1.22327
G1 X94.15 Y99.411 E1.35746
G1 X95.189 Y99.411 E1.41828
G1 X96.245 Y99.437 E1.48011
G1 X96.962 Y99.465 E1.52212
G1 X99.473 Y99.49 E1.66911
G1 X101.984 Y99.446 E1.81612
G1 X104.535 Y99.329 E1.96561
G1 X106.796 Y99.166 E2.09831
G1 X107.356 Y99.141 E2.13112
G1 X108.083 Y99.127 E2.17369
G1 X108.662 Y99.129 E2.20758
G1 X109.322 Y99.158 E2.24625
G1 X110.937 Y99.278 E2.34105
G1 X113.54 Y99.421 E2.49366
G1 X116.028 Y99.486 E2.63935
G1 X120.993 Y99.467 E2.92999
G1 X121.86 Y99.475 E2.98075
G1 X123.831 Y99.439 E3.09614
G1 X125.522 Y99.432 E3.19513
G1 X126.087 Y99.437 E3.22821
G1 X127.106 Y99.417 E3.28787
G1 X129.454 Y99.388 E3.42533
G1 X132.042 Y99.319 E3.57687
G1 X134.577 Y99.18 E3.72549
G1 X137.09 Y98.971 E3.8731
G1 X139.608 Y98.689 E4.02142
G1 X142.086 Y98.341 E4.1679
G1 X144.604 Y97.913 E4.31742
G1 X147.07 Y97.424 E4.46458
G1 X149.518 Y96.866 E4.61156
G1 X152.005 Y96.223 E4.76193
G1 X154.404 Y95.53 E4.9081
G1 X156.812 Y94.76 E5.05609
G1 X159.218 Y93.916 E5.20535
G1 X161.546 Y93.024 E5.35129
G1 X163.903 Y92.042 E5.50076
G1 X166.209 Y91.006 E5.64874
G1 X168.445 Y89.923 E5.79418
G1 X171.646 Y88.239 E6.00591
G1 X172.484 Y87.777 E6.06192
G1 X173.311 Y87.367 E6.11595
G1 X174.17 Y87.03 E6.16997
G1 X175.056 Y86.768 E6.22405
G1 X175.961 Y86.584 E6.27812
G1 X176.878 Y86.48 E6.33214
G1 X177.512 Y86.454 E6.36928
G1 X178.151 Y86.447 E6.40669
G1 X179.307 Y86.497 E6.47442
G1 X180.618 Y86.626 E6.55154
G1 X181.8 Y86.756 E6.62115
G1 X182.713 Y86.896 E6.67522
G1 X183.61 Y87.115 E6.72927
G1 X184.484 Y87.411 E6.78328
G1 X185.666 Y87.954 E6.85943
G1 X186.619 Y88.464 E6.9227
G1 X188.977 Y89.684 E7.07811
G1 X191.236 Y90.771 E7.22486
G1 X193.531 Y91.798 E7.37204
G1 X195.867 Y92.765 E7.52004
G1 X198.271 Y93.68 E7.67062
G1 X200.609 Y94.496 E7.81557
G1 X203.037 Y95.267 E7.9647
G1 X205.447 Y95.958 E8.11146
G1 X207.894 Y96.585 E8.25933
G1 X210.39 Y97.15 E8.40913
G1 X212.835 Y97.631 E8.555
G1 X215.331 Y98.05 E8.70316
G1 X217.86 Y98.401 E8.85262
G1 X220.349 Y98.675 E8.9992
G1 X221.939 Y98.804 E9.09258
G1 X222.672 Y98.874 E9.13568
G1 X223.586 Y99.003 E9.18972
G1 X224.804 Y99.303 E9.26315
G1 X225.738 Y99.593 E9.3204
G1 X226.351 Y99.798 E9.35823
G1 X227.211 Y100.133 E9.41226
G1 X228.244 Y100.656 E9.48004
G1 X229.252 Y101.239 E9.5482
G1 X230.046 Y101.715 E9.6024
G1 X230.817 Y102.224 E9.65648
G1 X231.54 Y102.797 E9.71048
G1 X232.212 Y103.431 E9.76456
G1 X232.826 Y104.12 E9.81858
G1 X233.378 Y104.86 E9.87263
G1 X233.864 Y105.645 E9.92667
G1 X234.28 Y106.47 E9.98076
G1 X234.623 Y107.327 E10.03479
G1 X234.795 Y107.86 E10.06758
G1 X235.001 Y108.563 E10.11046
G1 X235.228 Y109.405 E10.16151
G1 X235.426 Y110.307 E10.21557
G1 X235.545 Y111.223 E10.26964
G1 X235.585 Y112.145 E10.32366
G1 X235.545 Y113.067 E10.37769
G1 X235.425 Y113.983 E10.43176
G1 X235.329 Y114.465 E10.46053
G1 X235.222 Y114.944 E10.48926
G1 X235.04 Y115.645 E10.53166
G1 X234.468 Y117.578 E10.64966
G1 X234.168 Y118.451 E10.7037
G1 X233.793 Y119.295 E10.75776
G1 X233.347 Y120.103 E10.81179
G1 X232.833 Y120.87 E10.86584
G1 X232.254 Y121.589 E10.91988
G1 X231.615 Y122.256 E10.97395
G1 X230.788 Y122.97 E11.0379
G1 X229.415 Y124.037 E11.13969
G1 X227.42 Y125.646 E11.28972
G1 X225.472 Y127.312 E11.43977
G1 X223.638 Y128.972 E11.58458
G1 X221.796 Y130.735 E11.73383
G1 X220.009 Y132.546 E11.88277
G1 X218.303 Y134.376 E12.02922
G1 X216.62 Y136.287 E12.17828
G1 X215.026 Y138.203 E12.32418
G1 X213.455 Y140.205 E12.47315
G1 X211.952 Y142.234 E12.62096
G1 X210.5 Y144.316 E12.76955
G1 X209.122 Y146.414 E12.91648
G1 X207.79 Y148.575 E13.06508
G1 X206.518 Y150.776 E13.21389
G1 X205.326 Y152.977 E13.36041
G1 X204.192 Y155.226 E13.50786
G1 X203.109 Y157.53 E13.65688
G1 X202.094 Y159.858 E13.80555
G1 X201.148 Y162.21 E13.95395
G1 X200.288 Y164.533 E14.09895
G1 X199.461 Y166.981 E14.25021
G1 X198.734 Y169.347 E14.3951
G1 X198.061 Y171.782 E14.54298
G1 X197.449 Y174.263 E14.69257
G1 X196.922 Y176.705 E14.83881
G1 X196.456 Y179.194 E14.98704
G1 X196.06 Y181.704 E15.13579
G1 X195.738 Y184.205 E15.2834
G1 X195.486 Y186.707 E15.4306
G1 X195.303 Y189.256 E15.5802
G1 X195.195 Y191.751 E15.72639
G1 X195.155 Y194.466 E15.88534
G1 X195.154 Y203.661 E16.42359
G1 X195.144 Y204.388 E16.46615
G1 X195.091 Y205.309 E16.52016
G1 X194.959 Y206.223 E16.57421
G1 X194.748 Y207.122 E16.62827
G1 X194.461 Y207.999 E16.68229
G1 X194.098 Y208.848 E16.73634
G1 X193.663 Y209.663 E16.79042
G1 X193.16 Y210.437 E16.84445
G1 X192.591 Y211.164 E16.89849
G1 X191.962 Y211.839 E16.9525
G1 X191.276 Y212.458 E17.00659
G1 X190.54 Y213.015 E17.06062
G1 X189.758 Y213.506 E17.11467
G1 X188.936 Y213.927 E17.16874
G1 X188.081 Y214.276 E17.2228
G1 X187.2 Y214.55 E17.2768
G1 X186.298 Y214.746 E17.33084
G1 X185.382 Y214.863 E17.38489
G1 X184.785 Y214.897 E17.4199
G1 X184.165 Y214.91 E17.4562
G1 X119.163 Y214.909 E21.26127
G1 X118.465 Y214.9 E21.30214
G1 X117.543 Y214.848 E21.3562
G1 X116.629 Y214.717 E21.41025
G1 X115.73 Y214.507 E21.46429
G1 X114.852 Y214.22 E21.51836
G1 X114.003 Y213.858 E21.57239
G1 X113.188 Y213.424 E21.62644
G1 X112.414 Y212.921 E21.68047
G1 X111.686 Y212.353 E21.73453
G1 X111.01 Y211.724 E21.78858
G1 X110.391 Y211.039 E21.84262
G1 X109.834 Y210.303 E21.89665
G1 X109.342 Y209.522 E21.95069
G1 X108.92 Y208.701 E22.00472
G1 X108.57 Y207.846 E22.05881
G1 X108.296 Y206.965 E22.11281
G1 X108.099 Y206.063 E22.16686
G1 X107.981 Y205.147 E22.22092
G1 X107.946 Y204.529 E22.25716
G1 X107.933 Y203.908 E22.29352
G1 X107.933 Y194.508 E22.84377
G1 X107.896 Y191.885 E22.99733
G1 X107.79 Y189.381 E23.14404
G1 X107.611 Y186.864 E23.29176
G1 X107.362 Y184.35 E23.43964
G1 X107.041 Y181.838 E23.58788
G1 X106.649 Y179.349 E23.73538
G1 X106.18 Y176.824 E23.88572
G1 X105.658 Y174.397 E24.03104
G1 X105.058 Y171.95 E24.17852
G1 X104.381 Y169.489 E24.32793
G1 X103.64 Y167.067 E24.4762
G1 X102.845 Y164.711 E24.62175
G1 X101.957 Y162.304 E24.77194
G1 X101.014 Y159.957 E24.92
G1 X100.011 Y157.652 E25.06715
G1 X98.941 Y155.368 E25.2148
G1 X97.796 Y153.094 E25.36383
G1 X96.604 Y150.888 E25.51061
G1 X95.337 Y148.692 E25.65903
G1 X94.019 Y146.548 E25.80635
G1 X92.629 Y144.426 E25.95484
G1 X91.181 Y142.348 E26.1031
G1 X89.682 Y140.319 E26.25078
G1 X88.147 Y138.359 E26.39651
G1 X86.506 Y136.384 E26.54682
G1 X84.841 Y134.491 E26.6944
G1 X83.112 Y132.632 E26.84301
G1 X81.364 Y130.857 E26.98884
G1 X79.51 Y129.078 E27.13925
G1 X77.666 Y127.407 E27.28492
G1 X75.727 Y125.747 E27.43434
G1 X73.778 Y124.171 E27.58106
G1 X70.606 Y121.772 E27.81387
G1 X69.895 Y121.184 E27.86788
G1 X69.237 Y120.536 E27.92194
G1 X68.638 Y119.834 E27.97596
G1 X68.101 Y119.082 E28.03005
G1 X67.632 Y118.287 E28.08409
G1 X67.233 Y117.454 E28.13815
G1 X66.957 Y116.736 E28.18318
G1 X66.813 Y116.317 E28.20912
G1 X66.633 Y115.752 E28.24383
G1 X66.399 Y114.859 E28.29787
G1 X66.242 Y113.949 E28.35192
G1 X66.166 Y113.029 E28.40596
G1 X66.169 Y112.106 E28.45999
G1 X66.252 Y111.187 E28.51401
G1 X66.414 Y110.278 E28.56806
G1 X66.658 Y109.372 E28.62298
G1 X66.873 Y108.696 E28.66451
G1 X67.191 Y107.829 E28.71857
G1 X67.583 Y106.993 E28.77262
G1 X68.045 Y106.194 E28.82664
G1 X68.575 Y105.438 E28.88069
G1 X69.168 Y104.73 E28.93475
G1 X69.82 Y104.077 E28.98877
G1 X70.005 Y103.923 E29.00286
G0 F810 X70.616 Y103.414
G0 X71.441 Y102.808
G0 F6000 X71.696 Y103.167
G1 F900 X72.456 Y102.678 E29.05576
G1 X73.256 Y102.257 E29.10868
G1 X74.09 Y101.909 E29.16158
G1 X74.952 Y101.636 E29.21451
G1 X75.834 Y101.44 E29.2674
G1 X77.103 Y101.297 E29.34216
G1 X80.048 Y101.113 E29.51489
G1 X82.538 Y100.883 E29.66127
G1 X85.709 Y100.489 E29.84832
G1 X86.837 Y100.329 E29.91501
G1 X89.501 Y100.029 E30.07194
G1 X90.046 Y99.976 E30.10399
G1 X90.666 Y99.935 E30.14036
G1 X91.867 Y99.893 E30.21071
G1 X94.152 Y99.851 E30.34449
G1 X94.898 Y99.848 E30.38816
G1 X96.074 Y99.872 E30.45702
G1 X96.941 Y99.905 E30.50781
G1 X99.477 Y99.931 E30.65627
G1 X102.013 Y99.886 E30.80474
G1 X104.545 Y99.769 E30.95312
G1 X106.827 Y99.605 E31.08705
G1 X107.364 Y99.581 E31.11851
G1 X108.091 Y99.567 E31.16108
G1 X108.656 Y99.569 E31.19415
G1 X109.289 Y99.596 E31.23124
G1 X110.929 Y99.718 E31.32751
G1 X113.505 Y99.86 E31.47853
G1 X116.051 Y99.926 E31.62762
G1 X120.989 Y99.907 E31.91668
G1 X121.864 Y99.915 E31.9679
G1 X123.833 Y99.879 E32.08318
G1 X125.518 Y99.872 E32.18182
G1 X126.092 Y99.877 E32.21542
G1 X127.111 Y99.857 E32.27508
G1 X129.472 Y99.828 E32.4133
G1 X132.042 Y99.76 E32.56379
G1 X134.604 Y99.619 E32.714
G1 X137.139 Y99.408 E32.8629
G1 X139.681 Y99.124 E33.01263
G1 X142.154 Y98.776 E33.15882
G1 X144.691 Y98.345 E33.30946
G1 X147.139 Y97.859 E33.45556
G1 X149.627 Y97.292 E33.60493
G1 X152.097 Y96.654 E33.75427
G1 X154.553 Y95.944 E33.90392
G1 X156.953 Y95.177 E34.05141
G1 X159.371 Y94.328 E34.20143
G1 X161.715 Y93.43 E34.34837
G1 X164.057 Y92.455 E34.49687
G1 X166.398 Y91.403 E34.64711
G1 X168.645 Y90.315 E34.79325
G1 X171.846 Y88.631 E35.00498
G1 X172.696 Y88.162 E35.06181
G1 X173.506 Y87.761 E35.11471
G1 X174.349 Y87.434 E35.16764
G1 X175.217 Y87.182 E35.22055
G1 X176.104 Y87.007 E35.27348
G1 X177.003 Y86.912 E35.3264
G1 X177.517 Y86.894 E35.3565
G1 X178.156 Y86.887 E35.39391
G1 X179.264 Y86.935 E35.45883
G1 X180.57 Y87.063 E35.53565
G1 X181.752 Y87.193 E35.60526
G1 X182.646 Y87.332 E35.65822
G1 X183.523 Y87.549 E35.7111
G1 X184.378 Y87.842 E35.76401
G1 X185.459 Y88.342 E35.83373
G1 X186.463 Y88.879 E35.90038
G1 X188.752 Y90.063 E36.05124
G1 X191.034 Y91.162 E36.19951
G1 X193.378 Y92.21 E36.34981
G1 X195.699 Y93.172 E36.49688
G1 X198.12 Y94.093 E36.64851
G1 X200.47 Y94.913 E36.79421
G1 X202.922 Y95.692 E36.94482
G1 X205.332 Y96.383 E37.09158
G1 X207.786 Y97.012 E37.23987
G1 X210.281 Y97.577 E37.38962
G1 X212.784 Y98.069 E37.53895
G1 X215.27 Y98.486 E37.6865
G1 X217.784 Y98.835 E37.83508
G1 X220.337 Y99.116 E37.98543
G1 X222.063 Y99.257 E38.0868
G1 X222.63 Y99.312 E38.12015
G1 X223.525 Y99.439 E38.17306
G1 X224.674 Y99.724 E38.24236
G1 X225.608 Y100.014 E38.29961
G1 X226.209 Y100.215 E38.33671
G1 X227.051 Y100.543 E38.3896
G1 X228.024 Y101.037 E38.45348
G1 X229.026 Y101.616 E38.52123
G1 X229.82 Y102.092 E38.57542
G1 X230.574 Y102.591 E38.62835
G1 X231.281 Y103.154 E38.68125
G1 X231.935 Y103.778 E38.73416
G1 X232.532 Y104.457 E38.78709
G1 X233.067 Y105.186 E38.84002
G1 X233.535 Y105.96 E38.89297
G1 X233.932 Y106.771 E38.94583
G1 X234.373 Y107.984 E39.02138
G1 X234.579 Y108.687 E39.06426
G1 X234.803 Y109.518 E39.11464
G1 X234.996 Y110.401 E39.16755
G1 X235.11 Y111.298 E39.22048
G1 X235.145 Y112.201 E39.27338
G1 X235.099 Y113.104 E39.32631
G1 X234.899 Y114.369 E39.40128
G1 X234.792 Y114.848 E39.43001
G1 X234.618 Y115.52 E39.47065
G1 X234.046 Y117.453 E39.58865
G1 X233.751 Y118.308 E39.6416
G1 X233.382 Y119.133 E39.6945
G1 X232.942 Y119.922 E39.74738
G1 X232.433 Y120.67 E39.80035
G1 X231.861 Y121.369 E39.85322
G1 X231.229 Y122.016 E39.90616
G1 X230.518 Y122.622 E39.96085
G1 X229.15 Y123.685 E40.06226
G1 X227.15 Y125.298 E40.21267
G1 X225.193 Y126.971 E40.36338
G1 X223.331 Y128.656 E40.51039
G1 X221.487 Y130.422 E40.65985
G1 X219.705 Y132.228 E40.80837
G1 X217.97 Y134.089 E40.95731
G1 X216.296 Y135.99 E41.10558
G1 X214.672 Y137.942 E41.25422
G1 X213.098 Y139.946 E41.40339
G1 X211.599 Y141.971 E41.55087
G1 X210.132 Y144.076 E41.70107
G1 X208.737 Y146.2 E41.84982
G1 X207.416 Y148.343 E41.99719
G1 X206.145 Y150.542 E42.14587
G1 X204.933 Y152.781 E42.2949
G1 X203.801 Y155.023 E42.44192
G1 X202.694 Y157.379 E42.59431
G1 X201.701 Y159.657 E42.73977
G1 X200.733 Y162.064 E42.89164
G1 X199.872 Y164.39 E43.03683
G1 X199.051 Y166.817 E43.18681
G1 X198.301 Y169.261 E43.33646
G1 X197.636 Y171.666 E43.48253
G1 X197.019 Y174.172 E43.6336
G1 X196.481 Y176.666 E43.78295
G1 X196.021 Y179.126 E43.92945
G1 X195.622 Y181.652 E44.07915
G1 X195.302 Y184.142 E44.22611
G1 X195.045 Y186.694 E44.37626
G1 X194.863 Y189.239 E44.52562
G1 X194.755 Y191.734 E44.6718
G1 X194.715 Y194.428 E44.82952
G1 X194.714 Y203.655 E45.36965
G1 X194.704 Y204.382 E45.41221
G1 X194.652 Y205.284 E45.4651
G1 X194.52 Y206.178 E45.518
G1 X194.309 Y207.057 E45.57092
G1 X194.022 Y207.915 E45.62388
G1 X193.66 Y208.743 E45.67678
G1 X193.226 Y209.536 E45.7297
G1 X192.724 Y210.288 E45.78262
G1 X192.158 Y210.992 E45.8355
G1 X191.531 Y211.644 E45.88845
G1 X190.849 Y212.238 E45.94139
G1 X190.118 Y212.769 E45.99428
G1 X189.342 Y213.233 E46.04721
G1 X188.529 Y213.627 E46.1001
G1 X187.683 Y213.948 E46.15306
G1 X186.813 Y214.192 E46.20596
G1 X185.925 Y214.359 E46.25885
G1 X184.772 Y214.457 E46.32659
G1 X184.165 Y214.47 E46.36213
G1 X119.168 Y214.469 E50.16691
G1 X118.47 Y214.46 E50.20777
G1 X117.568 Y214.409 E50.26066
G1 X116.673 Y214.277 E50.31362
G1 X115.794 Y214.068 E50.36651
G1 X114.937 Y213.781 E50.41941
G1 X114.108 Y213.42 E50.47234
G1 X113.314 Y212.987 E50.52528
G1 X112.562 Y212.485 E50.57821
G1 X111.857 Y211.919 E50.63113
G1 X111.205 Y211.293 E50.68404
G1 X110.611 Y210.612 E50.73694
G1 X110.079 Y209.881 E50.78987
G1 X109.614 Y209.106 E50.84277
G1 X109.219 Y208.293 E50.89568
G1 X108.898 Y207.448 E50.9486
G1 X108.653 Y206.578 E51.00151
G1 X108.485 Y205.689 E51.05447
G1 X108.386 Y204.517 E51.12332
G1 X108.373 Y203.908 E51.15898
G1 X108.373 Y194.502 E51.70958
G1 X108.336 Y191.896 E51.86215
G1 X108.227 Y189.331 E52.01243
G1 X108.05 Y186.827 E52.15938
G1 X107.798 Y184.284 E52.30897
G1 X107.478 Y181.786 E52.45639
G1 X107.082 Y179.267 E52.60566
G1 X106.617 Y176.765 E52.75463
G1 X106.086 Y174.298 E52.90235
G1 X105.481 Y171.827 E53.05127
G1 X104.799 Y169.35 E53.20166
G1 X104.073 Y166.98 E53.34676
G1 X103.245 Y164.525 E53.49842
G1 X102.372 Y162.157 E53.64616
G1 X101.425 Y159.799 E53.79491
G1 X100.412 Y157.472 E53.94347
G1 X99.325 Y155.153 E54.0934
G1 X98.189 Y152.898 E54.2412
G1 X96.986 Y150.67 E54.38942
G1 X95.718 Y148.471 E54.53801
G1 X94.384 Y146.304 E54.68698
G1 X92.987 Y144.169 E54.83633
G1 X91.552 Y142.11 E54.98324
G1 X90.034 Y140.056 E55.13275
G1 X88.471 Y138.06 E55.28116
G1 X86.842 Y136.099 E55.43039
G1 X85.165 Y134.192 E55.57905
G1 X83.437 Y132.334 E55.72758
G1 X81.653 Y130.524 E55.87634
G1 X79.835 Y128.779 E56.02386
G1 X77.955 Y127.076 E56.17235
G1 X75.998 Y125.4 E56.32318
G1 X74.041 Y123.819 E56.47045
G1 X70.872 Y121.421 E56.70308
G1 X70.176 Y120.844 E56.756
G1 X69.533 Y120.208 E56.80894
G1 X68.95 Y119.518 E56.86182
G1 X68.429 Y118.779 E56.91475
G1 X67.976 Y117.997 E56.96765
G1 X67.594 Y117.177 E57.02061
