;FLAVOR:Marlin
;TIME:9532
;Filament used: 5.74846m
;Layer height: 0.2
;MINX:54.876
;MINY:82.826
;MINZ:0.2
;MAXX:189.648
;MAXY:189.471
;MAXZ:26
;Generated with Cura_SteamEngine 5.2.1
M140 S60
M105
M190 S60
M104 S210
M105
M109 S210
M82 ;absolute extrusion mode
; Ender 3 Max Custom Start G-code
G92 E0 ; Reset Extruder
G28 ; Home all axes
G1 Z2.0 F3000 ; Move Z Axis up little to prevent scratching of Heat Bed
G1 X0.1 Y20 Z0.3 F5000.0 ; Move to start position
G1 X0.1 Y200.0 Z0.3 F1500.0 E15 ; Draw the first line
G1 X0.4 Y200.0 Z0.3 F5000.0 ; Move to side a little
G1 X0.4 Y20 Z0.3 F1500.0 E30 ; Draw the second line
G92 E0 ; Reset Extruder
G1 Z2.0 F3000 ; Move Z Axis up little to prevent scratching of Heat Bed
G1 X5 Y20 Z0.3 F5000.0 ; Move over to prevent blob squish
G92 E0
G92 E0
G1 F1500 E-6.5
;LAYER_COUNT:130
;LAYER:0
M107
G0 F6000 X63.909 Y97.927 Z0.2
;TYPE:SKIRT
G1 F1500 E0
G1 F1200 X64.724 Y97.463 E0.03119
G1 X66.003 Y96.897 E0.07771
G1 X67.032 Y96.563 E0.11369
G1 X67.945 Y96.349 E0.14488
G1 X68.873 Y96.215 E0.17607
G1 X69.819 Y96.159 E0.20759
G1 X70.405 Y96.15 E0.22708
G1 X86.595 Y96.143 E0.76556
G1 X87.541 Y96.158 E0.79703
G1 X88.477 Y96.214 E0.82822
G1 X89.405 Y96.35 E0.85941
G1 X90.436 Y96.597 E0.89467
G1 X91.408 Y96.881 E0.92835
G1 X92.231 Y97.135 E0.957
G1 X94.677 Y97.817 E1.04146
G1 X97.099 Y98.418 E1.12446
G1 X99.581 Y98.962 E1.20897
G1 X102.033 Y99.427 E1.29198
G1 X104.55 Y99.829 E1.37675
G1 X106.997 Y100.151 E1.45884
G1 X109.528 Y100.41 E1.54346
G1 X112.024 Y100.594 E1.62671
G1 X114.58 Y100.711 E1.71181
G1 X117.072 Y100.754 E1.7947
G1 X119.557 Y100.728 E1.87736
G1 X122.112 Y100.628 E1.96241
G1 X124.628 Y100.457 E2.04628
G1 X127.119 Y100.217 E2.12952
G1 X129.587 Y99.91 E2.21223
G1 X132.124 Y99.52 E2.29761
G1 X134.584 Y99.071 E2.38078
G1 X137.024 Y98.555 E2.46373
G1 X139.488 Y97.959 E2.54804
G1 X141.908 Y97.301 E2.63146
G1 X144.322 Y96.571 E2.71534
G1 X146.727 Y95.767 E2.79968
G1 X149.072 Y94.911 E2.88271
G1 X151.415 Y93.979 E2.96658
G1 X153.741 Y92.977 E3.05081
G1 X155.994 Y91.929 E3.13346
G1 X158.271 Y90.791 E3.21812
G1 X160.489 Y89.604 E3.30179
G1 X162.662 Y88.359 E3.38509
G1 X164.807 Y87.048 E3.4687
G1 X166.972 Y85.641 E3.55458
G1 X167.95 Y84.974 E3.59395
G1 X168.746 Y84.479 E3.62513
G1 X169.53 Y84.078 E3.65442
G1 X169.943 Y83.887 E3.66955
G1 X170.81 Y83.53 E3.70074
G1 X171.704 Y83.248 E3.73192
G1 X172.712 Y83.027 E3.76624
G1 X172.976 Y82.982 E3.77515
G1 X173.906 Y82.864 E3.80633
G1 X174.843 Y82.826 E3.83752
G1 X175.855 Y82.874 E3.87121
G1 X176.248 Y82.911 E3.88434
G1 X177.177 Y83.039 E3.91553
G1 X178.092 Y83.245 E3.94673
G1 X178.986 Y83.529 E3.97793
G1 X179.23 Y83.618 E3.98657
G1 X180.097 Y83.977 E4.01778
G1 X180.93 Y84.408 E4.04897
G1 X181.563 Y84.799 E4.07372
G1 X181.848 Y84.989 E4.08511
G1 X182.605 Y85.542 E4.11629
G1 X183.313 Y86.158 E4.1475
G1 X183.791 Y86.64 E4.17008
G1 X184.067 Y86.936 E4.18354
G1 X184.677 Y87.649 E4.21475
G1 X185.224 Y88.411 E4.24595
G1 X185.704 Y89.217 E4.27715
G1 X186.113 Y90.06 E4.30832
G1 X186.374 Y90.719 E4.33189
G1 X186.494 Y91.053 E4.3437
G1 X186.773 Y91.948 E4.37488
G1 X187.021 Y93.145 E4.41553
G1 X187.072 Y93.486 E4.427
G1 X187.188 Y94.792 E4.47061
G1 X187.201 Y95.387 E4.49041
G1 X187.2 Y149.872 E6.30258
G1 X187.178 Y151.448 E6.35501
G1 X187.178 Y154.054 E6.44168
G1 X187.25 Y156.549 E6.5247
G1 X187.392 Y159.065 E6.60852
G1 X187.606 Y161.572 E6.6922
G1 X187.887 Y164.046 E6.77502
G1 X188.248 Y166.568 E6.85975
G1 X188.669 Y169.027 E6.94273
G1 X189.41 Y172.623 E7.06485
G1 X189.56 Y173.549 E7.09605
G1 X189.617 Y174.192 E7.11752
G1 X189.634 Y174.479 E7.12708
G1 X189.648 Y175.452 E7.15945
G1 X189.632 Y175.997 E7.17758
G1 X189.565 Y176.932 E7.20876
G1 X189.386 Y178.011 E7.24514
G1 X189.281 Y178.494 E7.26158
G1 X188.949 Y179.692 E7.30292
G1 X188.836 Y180.025 E7.31462
G1 X188.339 Y181.244 E7.3584
G1 X188.189 Y181.557 E7.36995
G1 X187.637 Y182.568 E7.40826
G1 X187.397 Y182.958 E7.42349
G1 X186.872 Y183.735 E7.45468
G1 X186.201 Y184.556 E7.48995
G1 X185.837 Y184.96 E7.50803
G1 X185.18 Y185.629 E7.53922
G1 X184.643 Y186.1 E7.56298
G1 X184.197 Y186.466 E7.58217
G1 X183.447 Y187.03 E7.61338
G1 X182.652 Y187.527 E7.64456
G1 X182.188 Y187.777 E7.66209
G1 X181.716 Y188.016 E7.67969
G1 X180.657 Y188.484 E7.7182
G1 X180.323 Y188.611 E7.73008
G1 X179.001 Y189.02 E7.77611
G1 X178.687 Y189.096 E7.78685
G1 X177.441 Y189.323 E7.82898
G1 X176.896 Y189.39 E7.84724
G1 X175.961 Y189.464 E7.87844
G1 X175.446 Y189.471 E7.89557
G1 X175.038 Y189.467 E7.90914
G1 X174.102 Y189.418 E7.94031
G1 X173.033 Y189.263 E7.97624
G1 X172.614 Y189.181 E7.99044
G1 X172.018 Y189.051 E8.01073
G1 X171.116 Y188.805 E8.04182
G1 X170.005 Y188.451 E8.08061
G1 X167.477 Y187.685 E8.16846
G1 X165.049 Y187.024 E8.25216
G1 X162.595 Y186.43 E8.33614
G1 X160.089 Y185.898 E8.42134
G1 X157.669 Y185.454 E8.50318
G1 X155.182 Y185.072 E8.58686
G1 X152.675 Y184.758 E8.6709
G1 X150.184 Y184.517 E8.75414
G1 X147.633 Y184.344 E8.83918
G1 X145.147 Y184.245 E8.92193
G1 X142.621 Y184.216 E9.00595
G1 X140.137 Y184.258 E9.08858
G1 X137.569 Y184.374 E9.17408
G1 X135.107 Y184.555 E9.25619
G1 X132.575 Y184.814 E9.34084
G1 X130.087 Y185.14 E9.4243
G1 X127.595 Y185.537 E9.50823
G1 X125.146 Y185.998 E9.59111
G1 X124.687 Y186.091 E9.60669
G1 X123.761 Y186.238 E9.63787
G1 X122.718 Y186.308 E9.67264
G1 X121.478 Y186.33 E9.71389
G1 X67.65 Y186.329 E11.50422
G1 X67.048 Y186.32 E11.52424
G1 X65.766 Y186.226 E11.567
G1 X65.404 Y186.178 E11.57914
G1 X64.48 Y186.015 E11.61035
G1 X63.574 Y185.774 E11.64153
G1 X62.836 Y185.514 E11.66756
G1 X62.563 Y185.407 E11.67731
G1 X61.705 Y185.028 E11.70851
G1 X60.515 Y184.345 E11.75414
G1 X60.3 Y184.203 E11.76271
G1 X59.54 Y183.653 E11.79391
G1 X58.513 Y182.731 E11.83982
G1 X58.295 Y182.509 E11.85017
G1 X57.667 Y181.813 E11.88135
G1 X57.101 Y181.065 E11.91254
G1 X56.41 Y179.926 E11.95685
G1 X56.221 Y179.567 E11.97035
G1 X55.82 Y178.72 E12.00152
G1 X55.493 Y177.841 E12.03271
G1 X55.176 Y176.639 E12.07406
G1 X55.121 Y176.369 E12.08322
G1 X54.974 Y175.443 E12.1144
G1 X54.902 Y174.403 E12.14908
G1 X54.878 Y173.256 E12.18724
G1 X54.877 Y171.231 E12.25459
G1 X54.887 Y170.525 E12.27807
G1 X54.948 Y169.092 E12.32578
G1 X55.032 Y166.414 E12.41489
G1 X55.04 Y163.955 E12.49668
G1 X54.946 Y160.623 E12.60754
G1 X54.893 Y159.356 E12.64972
G1 X54.876 Y158.273 E12.68575
G1 X54.877 Y156.331 E12.75034
G1 X54.886 Y155.731 E12.7703
G1 X54.94 Y154.795 E12.80148
G1 X55.026 Y154.141 E12.82342
G1 X55.101 Y153.677 E12.83905
G1 X55.317 Y152.654 E12.87383
G1 X55.752 Y151.021 E12.93004
G1 X56.355 Y148.559 E13.01434
G1 X56.895 Y146.051 E13.09967
G1 X57.347 Y143.621 E13.18188
G1 X57.735 Y141.143 E13.2653
G1 X58.056 Y138.638 E13.3493
G1 X58.307 Y136.111 E13.43376
G1 X58.483 Y133.632 E13.51642
G1 X58.59 Y131.111 E13.60034
G1 X58.627 Y128.501 E13.68716
G1 X58.628 Y107.934 E14.37122
G1 X58.639 Y107.246 E14.39411
G1 X58.694 Y106.31 E14.42529
G1 X58.829 Y105.382 E14.45649
G1 X59.042 Y104.468 E14.4877
G1 X59.332 Y103.577 E14.51886
G1 X59.697 Y102.713 E14.55006
G1 X60.134 Y101.883 E14.58126
G1 X60.579 Y101.179 E14.60896
G1 X61.129 Y100.42 E14.64014
G1 X61.741 Y99.71 E14.67131
G1 X62.412 Y99.054 E14.70252
G1 X63.137 Y98.459 E14.73372
G1 X63.909 Y97.927 E14.7649
G0 F6000 X64.194 Y98.221
G1 F1200 X64.998 Y97.773 E14.79551
G1 X66.148 Y97.271 E14.83725
G1 X67.156 Y96.943 E14.8725
G1 X68.053 Y96.736 E14.90312
G1 X68.964 Y96.608 E14.93372
G1 X69.825 Y96.559 E14.9624
G1 X70.411 Y96.55 E14.9819
G1 X86.595 Y96.543 E15.52018
G1 X87.534 Y96.558 E15.55141
G1 X88.453 Y96.613 E15.58203
G1 X89.364 Y96.749 E15.61267
G1 X90.324 Y96.981 E15.64552
G1 X91.296 Y97.265 E15.6792
G1 X92.143 Y97.526 E15.70868
G1 X94.546 Y98.196 E15.79165
G1 X97.03 Y98.813 E15.87678
G1 X99.492 Y99.353 E15.96061
G1 X101.961 Y99.82 E16.04419
G1 X104.472 Y100.222 E16.12877
G1 X106.975 Y100.55 E16.21273
G1 X109.494 Y100.808 E16.29695
G1 X112.01 Y100.995 E16.38086
G1 X114.555 Y101.111 E16.4656
G1 X117.07 Y101.154 E16.54926
G1 X119.577 Y101.128 E16.63265
G1 X122.119 Y101.028 E16.71726
G1 X124.657 Y100.856 E16.80187
G1 X127.135 Y100.618 E16.88467
G1 X129.7 Y100.298 E16.97064
G1 X132.151 Y99.922 E17.05311
G1 X134.667 Y99.462 E17.13818
G1 X137.095 Y98.948 E17.22073
G1 X139.614 Y98.339 E17.30692
G1 X142.013 Y97.687 E17.38961
G1 X144.438 Y96.954 E17.47387
G1 X146.843 Y96.15 E17.55821
G1 X149.221 Y95.282 E17.64241
G1 X151.572 Y94.346 E17.72657
G1 X153.889 Y93.348 E17.81048
G1 X156.205 Y92.27 E17.89545
G1 X158.432 Y91.158 E17.97824
G1 X160.697 Y89.945 E18.06369
G1 X162.864 Y88.705 E18.14674
G1 X165.038 Y87.376 E18.23148
G1 X167.151 Y86.002 E18.31531
G1 X168.175 Y85.304 E18.35653
G1 X168.958 Y84.819 E18.38717
G1 X169.698 Y84.441 E18.4148
G1 X170.111 Y84.25 E18.42994
G1 X170.962 Y83.9 E18.46054
G1 X171.841 Y83.626 E18.49117
G1 X172.779 Y83.422 E18.52309
G1 X173.043 Y83.377 E18.532
G1 X173.956 Y83.262 E18.56261
G1 X174.876 Y83.226 E18.59323
G1 X175.818 Y83.273 E18.6246
G1 X176.211 Y83.31 E18.63773
G1 X177.123 Y83.436 E18.66835
G1 X178.02 Y83.64 E18.69895
G1 X178.849 Y83.905 E18.72789
G1 X179.093 Y83.994 E18.73653
G1 X179.944 Y84.347 E18.76717
G1 X180.76 Y84.772 E18.79778
G1 X181.341 Y85.132 E18.82051
G1 X181.626 Y85.322 E18.8319
G1 X182.369 Y85.866 E18.86253
G1 X183.062 Y86.472 E18.89315
G1 X183.499 Y86.913 E18.9138
G1 X183.775 Y87.209 E18.92726
G1 X184.373 Y87.909 E18.95788
G1 X184.908 Y88.658 E18.98849
G1 X185.376 Y89.451 E19.01912
G1 X185.773 Y90.282 E19.04975
G1 X185.998 Y90.854 E19.07019
G1 X186.118 Y91.188 E19.082
G1 X186.391 Y92.067 E19.11261
G1 X186.625 Y93.204 E19.15122
G1 X186.676 Y93.545 E19.16269
G1 X186.788 Y94.804 E19.20473
G1 X186.801 Y95.387 E19.22412
G1 X186.8 Y149.866 E21.0361
G1 X186.778 Y151.442 E21.08853
G1 X186.778 Y154.03 E21.1746
G1 X186.851 Y156.582 E21.25952
G1 X186.993 Y159.087 E21.34297
G1 X187.209 Y161.619 E21.42749
G1 X187.492 Y164.107 E21.51077
G1 X187.857 Y166.661 E21.59658
G1 X188.273 Y169.086 E21.67842
G1 X189.018 Y172.704 E21.80128
G1 X189.164 Y173.612 E21.83187
G1 X189.217 Y174.215 E21.852
G1 X189.234 Y174.502 E21.86156
G1 X189.248 Y175.44 E21.89276
G1 X189.232 Y175.985 E21.9109
G1 X189.165 Y176.903 E21.94151
G1 X188.995 Y177.926 E21.976
G1 X188.89 Y178.409 E21.99244
G1 X188.57 Y179.563 E22.03227
G1 X188.457 Y179.896 E22.04397
G1 X187.978 Y181.071 E22.08617
G1 X187.828 Y181.384 E22.09772
G1 X187.297 Y182.358 E22.13461
G1 X187.057 Y182.748 E22.14984
G1 X186.54 Y183.511 E22.1805
G1 X185.904 Y184.288 E22.2139
G1 X185.54 Y184.692 E22.23198
G1 X184.895 Y185.349 E22.2626
G1 X184.389 Y185.791 E22.28495
G1 X183.943 Y186.157 E22.30414
G1 X183.207 Y186.71 E22.33476
G1 X182.425 Y187.196 E22.36538
G1 X182.007 Y187.42 E22.38116
G1 X181.535 Y187.659 E22.39875
G1 X180.514 Y188.11 E22.43588
G1 X180.18 Y188.237 E22.44776
G1 X178.907 Y188.632 E22.49209
G1 X178.593 Y188.708 E22.50284
G1 X177.392 Y188.926 E22.54344
G1 X176.847 Y188.993 E22.5617
G1 X175.93 Y189.065 E22.59229
G1 X175.042 Y189.067 E22.62183
G1 X174.123 Y189.018 E22.65244
G1 X173.11 Y188.871 E22.68648
G1 X172.691 Y188.789 E22.70068
G1 X172.106 Y188.661 E22.7206
G1 X171.238 Y188.424 E22.75053
G1 X170.115 Y188.067 E22.78972
G1 X167.593 Y187.302 E22.87738
G1 X165.142 Y186.635 E22.96186
G1 X162.667 Y186.035 E23.04656
G1 X160.207 Y185.514 E23.1302
G1 X157.73 Y185.059 E23.21396
G1 X155.226 Y184.674 E23.29823
G1 X152.723 Y184.361 E23.38212
G1 X150.217 Y184.119 E23.46586
G1 X147.676 Y183.946 E23.55057
G1 X145.132 Y183.845 E23.63525
G1 X142.618 Y183.816 E23.71887
G1 X140.11 Y183.858 E23.8023
G1 X137.593 Y183.972 E23.8861
G1 X135.038 Y184.16 E23.97131
G1 X132.519 Y184.418 E24.05553
G1 X130.043 Y184.741 E24.13858
G1 X127.53 Y185.142 E24.22322
G1 X125.071 Y185.605 E24.30645
G1 X124.608 Y185.699 E24.32216
G1 X123.698 Y185.842 E24.3528
G1 X122.71 Y185.908 E24.38573
G1 X121.478 Y185.93 E24.42672
G1 X67.656 Y185.929 E26.21684
G1 X67.054 Y185.92 E26.23687
G1 X65.819 Y185.829 E26.27806
G1 X65.457 Y185.781 E26.2902
G1 X64.55 Y185.62 E26.32084
G1 X63.661 Y185.382 E26.35145
G1 X62.982 Y185.142 E26.3754
G1 X62.709 Y185.035 E26.38515
G1 X61.867 Y184.662 E26.41578
G1 X60.735 Y184.011 E26.45922
G1 X60.52 Y183.869 E26.46779
G1 X59.775 Y183.329 E26.49839
G1 X58.799 Y182.451 E26.54205
G1 X58.581 Y182.229 E26.5524
G1 X57.965 Y181.545 E26.58302
G1 X57.411 Y180.809 E26.61366
G1 X56.764 Y179.74 E26.65522
G1 X56.575 Y179.381 E26.66871
G1 X56.182 Y178.548 E26.69935
G1 X55.863 Y177.685 E26.72995
G1 X55.568 Y176.559 E26.76866
G1 X55.513 Y176.289 E26.77783
G1 X55.369 Y175.38 E26.80844
G1 X55.302 Y174.395 E26.84127
G1 X55.278 Y173.248 E26.87943
G1 X55.277 Y171.237 E26.94632
G1 X55.297 Y170.193 E26.98105
G1 X55.349 Y169.058 E27.01884
G1 X55.432 Y166.447 E27.10572
G1 X55.44 Y163.946 E27.18891
G1 X55.347 Y160.65 E27.29858
G1 X55.292 Y159.35 E27.34185
G1 X55.277 Y158.45 E27.37179
G1 X55.277 Y156.337 E27.44207
G1 X55.286 Y155.737 E27.46203
G1 X55.34 Y154.818 E27.49265
G1 X55.421 Y154.205 E27.51321
G1 X55.496 Y153.741 E27.52885
G1 X55.704 Y152.755 E27.56236
G1 X56.142 Y151.108 E27.61905
G1 X56.748 Y148.634 E27.70376
G1 X57.284 Y146.144 E27.78848
G1 X57.742 Y143.684 E27.87171
G1 X58.133 Y141.189 E27.9557
G1 X58.453 Y138.687 E28.0396
G1 X58.706 Y136.146 E28.12453
G1 X58.883 Y133.642 E28.20802
G1 X58.99 Y131.134 E28.29151
G1 X59.027 Y128.506 E28.37893
G1 X59.028 Y107.941 E29.06292
G1 X59.039 Y107.253 E29.08581
G1 X59.094 Y106.334 E29.11643
G1 X59.228 Y105.423 E29.14706
G1 X59.441 Y104.527 E29.17769
G1 X59.731 Y103.653 E29.20832
G1 X60.095 Y102.808 E29.23892
G1 X60.531 Y101.997 E29.26954
G1 X60.912 Y101.4 E29.2931
G1 X61.453 Y100.655 E29.32372
G1 X62.056 Y99.959 E29.35435
G1 X62.717 Y99.318 E29.38497
G1 X63.432 Y98.738 E29.41559
G1 X64.194 Y98.221 E29.44622
G0 F6000 X64.477 Y98.517
G1 F1200 X65.27 Y98.084 E29.47627
G1 X66.295 Y97.642 E29.5134
G1 X67.279 Y97.324 E29.54779
G1 X68.16 Y97.123 E29.57785
G1 X69.054 Y97.001 E29.60786
G1 X69.831 Y96.959 E29.63374
G1 X70.417 Y96.95 E29.65323
G1 X86.595 Y96.943 E30.19132
G1 X87.527 Y96.958 E30.22232
G1 X88.429 Y97.013 E30.25237
G1 X89.322 Y97.148 E30.28241
G1 X90.212 Y97.365 E30.31288
G1 X91.184 Y97.649 E30.34656
G1 X92.022 Y97.907 E30.37573
G1 X94.472 Y98.591 E30.46033
G1 X96.928 Y99.2 E30.54449
G1 X99.397 Y99.742 E30.62856
G1 X101.895 Y100.215 E30.71312
G1 X104.428 Y100.62 E30.79844
G1 X106.919 Y100.947 E30.882
G1 X109.457 Y101.207 E30.96686
G1 X112 Y101.395 E31.05167
G1 X114.528 Y101.511 E31.13584
G1 X117.067 Y101.555 E31.2203
G1 X119.597 Y101.528 E31.30445
G1 X122.126 Y101.428 E31.38864
G1 X124.69 Y101.255 E31.47411
G1 X127.187 Y101.014 E31.55754
G1 X129.739 Y100.696 E31.64308
G1 X132.241 Y100.312 E31.72727
G1 X134.715 Y99.86 E31.81092
G1 X137.199 Y99.334 E31.89537
G1 X139.716 Y98.726 E31.98149
G1 X142.129 Y98.07 E32.06466
G1 X144.575 Y97.33 E32.14966
G1 X146.958 Y96.534 E32.23322
G1 X149.369 Y95.654 E32.31859
G1 X151.743 Y94.709 E32.40357
G1 X154.038 Y93.721 E32.48668
G1 X156.374 Y92.633 E32.57239
G1 X158.621 Y91.511 E32.65592
G1 X160.879 Y90.302 E32.74111
G1 X163.076 Y89.044 E32.82531
G1 X165.233 Y87.726 E32.90939
G1 X167.394 Y86.321 E32.99512
G1 X168.4 Y85.635 E33.03562
G1 X169.168 Y85.16 E33.06565
G1 X169.866 Y84.804 E33.09171
G1 X170.279 Y84.613 E33.10685
G1 X171.114 Y84.271 E33.13686
G1 X171.977 Y84.004 E33.16691
G1 X172.846 Y83.816 E33.19648
G1 X173.11 Y83.771 E33.20539
G1 X174.006 Y83.659 E33.23542
G1 X174.909 Y83.626 E33.26547
G1 X175.78 Y83.671 E33.29448
G1 X176.173 Y83.708 E33.30761
G1 X177.068 Y83.832 E33.33766
G1 X177.948 Y84.035 E33.3677
G1 X178.712 Y84.281 E33.39439
G1 X178.956 Y84.37 E33.40303
G1 X179.79 Y84.716 E33.43306
G1 X180.59 Y85.135 E33.4631
G1 X181.119 Y85.465 E33.48384
