;FLAVOR:Marlin
;TIME:9298
;Filament used: 4.70869m
;Layer height: 0.16
;MINX:104.777
;MINY:90.414
;MINZ:0.2
;MAXX:194.507
;MAXY:215.2
;MAXZ:25.68
;Generated with Cura_SteamEngine 5.2.1
M140 S60
M105
M190 S60
M104 S215
M105
M109 S215
M82 ;absolute extrusion mode
; Ender 3 Max Custom Start G-code
G92 E0 ; Reset Extruder
G28 ; Home all axes
G1 Z2.0 F3000 ; Move Z Axis up little to prevent scratching of Heat Bed
G1 X0.1 Y20 Z0.3 F5000.0 ; Move to start position
G1 X0.1 Y200.0 Z0.3 F1500.0 E15 ; Draw the first line
G1 X0.4 Y200.0 Z0.3 F5000.0 ; Move to side a little
G1 X0.4 Y20 Z0.3 F1500.0 E30 ; Draw the second line
G92 E0 ; Reset Extruder
G1 Z2.0 F3000 ; Move Z Axis up little to prevent scratching of Heat Bed
G1 X5 Y20 Z0.3 F5000.0 ; Move over to prevent blob squish
G92 E0
G92 E0
G1 F1500 E-6.5
;LAYER_COUNT:163
;LAYER:0
M107
G0 F6000 X107.596 Y94.458 Z0.2
;TYPE:SKIRT
G1 F1500 E0
G1 F1200 X108.226 Y93.763 E0.0312
G1 X108.913 Y93.125 E0.06238
G1 X109.651 Y92.547 E0.09356
G1 X110.437 Y92.034 E0.12478
G1 X111.263 Y91.59 E0.15597
G1 X112.336 Y91.134 E0.19475
G1 X113.332 Y90.815 E0.22953
G1 X114.247 Y90.606 E0.26075
G1 X115.175 Y90.475 E0.29192
G1 X116.047 Y90.425 E0.32097
G1 X116.75 Y90.414 E0.34435
G1 X118.311 Y90.414 E0.39627
G1 X119.254 Y90.426 E0.42764
G1 X120.191 Y90.479 E0.45885
G1 X121.119 Y90.612 E0.49004
G1 X122.033 Y90.823 E0.52124
G1 X122.925 Y91.111 E0.55241
G1 X123.79 Y91.474 E0.58361
G1 X124.62 Y91.91 E0.61479
G1 X125.411 Y92.415 E0.64601
G1 X125.85 Y92.739 E0.66416
G1 X126.599 Y93.321 E0.6957
G1 X127.378 Y93.943 E0.72886
G1 X129.378 Y95.455 E0.81225
G1 X131.446 Y96.929 E0.89672
G1 X133.541 Y98.333 E0.9806
G1 X135.654 Y99.665 E1.06367
G1 X137.842 Y100.958 E1.1482
G1 X140.001 Y102.155 E1.23031
G1 X142.259 Y103.322 E1.31485
G1 X144.53 Y104.418 E1.39872
G1 X146.849 Y105.455 E1.48321
G1 X149.171 Y106.415 E1.56678
G1 X151.511 Y107.308 E1.65008
G1 X153.886 Y108.138 E1.73376
G1 X156.285 Y108.901 E1.81749
G1 X158.685 Y109.59 E1.90054
G1 X161.159 Y110.225 E1.98549
G1 X163.587 Y110.774 E2.06829
G1 X166.074 Y111.264 E2.15259
G1 X168.563 Y111.683 E2.23654
G1 X171.022 Y112.024 E2.31911
G1 X173.533 Y112.301 E2.40314
G1 X176.079 Y112.509 E2.4881
G1 X178.552 Y112.641 E2.57047
G1 X179.702 Y112.666 E2.60873
G1 X181.064 Y112.71 E2.65405
G1 X181.999 Y112.78 E2.68524
G1 X182.925 Y112.93 E2.71644
G1 X183.835 Y113.158 E2.74764
G1 X184.605 Y113.415 E2.77464
G1 X185.474 Y113.768 E2.80583
G1 X186.31 Y114.194 E2.83704
G1 X187.106 Y114.689 E2.86822
G1 X187.827 Y115.226 E2.89812
G1 X188.361 Y115.661 E2.92103
G1 X189.911 Y116.961 E2.98831
G1 X190.668 Y117.613 E3.02154
G1 X191.352 Y118.256 E3.05276
G1 X191.978 Y118.954 E3.08395
G1 X192.542 Y119.703 E3.11513
G1 X193.041 Y120.497 E3.14632
G1 X193.47 Y121.331 E3.17752
G1 X193.826 Y122.199 E3.20872
G1 X194.108 Y123.093 E3.2399
G1 X194.312 Y124.009 E3.27111
G1 X194.455 Y125.163 E3.30979
G1 X194.48 Y125.515 E3.32153
G1 X194.507 Y126.452 E3.3527
G1 X194.453 Y127.389 E3.38392
G1 X194.32 Y128.317 E3.4151
G1 X194.109 Y129.231 E3.4463
G1 X193.82 Y130.123 E3.47749
G1 X193.456 Y130.987 E3.50867
G1 X193.119 Y131.645 E3.53326
G1 X192.874 Y132.085 E3.55001
G1 X192.383 Y132.885 E3.58123
G1 X191.801 Y133.669 E3.6137
G1 X191.214 Y134.39 E3.64463
G1 X149.132 Y184.545 E5.82219
G1 X147.505 Y186.541 E5.90784
G1 X145.944 Y188.571 E5.99301
G1 X144.492 Y190.572 E6.07524
G1 X143.052 Y192.68 E6.16015
G1 X141.701 Y194.786 E6.24337
G1 X140.4 Y196.944 E6.32718
G1 X139.167 Y199.126 E6.41054
G1 X137.982 Y201.369 E6.49491
G1 X136.869 Y203.628 E6.57867
G1 X135.834 Y205.891 E6.66144
G1 X135.29 Y207.171 E6.7077
G1 X134.967 Y207.905 E6.73437
G1 X134.553 Y208.746 E6.76555
G1 X134.069 Y209.549 E6.79673
G1 X133.518 Y210.308 E6.82793
G1 X132.905 Y211.018 E6.85913
G1 X132.233 Y211.672 E6.89031
G1 X131.518 Y212.26 E6.9211
G1 X131.003 Y212.648 E6.94255
G1 X130.274 Y213.169 E6.97235
G1 X129.486 Y213.678 E7.00355
G1 X128.657 Y214.117 E7.03475
G1 X127.794 Y214.484 E7.06595
G1 X126.903 Y214.777 E7.09714
G1 X125.991 Y214.992 E7.12831
G1 X125.063 Y215.129 E7.15951
G1 X124.119 Y215.186 E7.19096
G1 X123.034 Y215.2 E7.22705
G1 X122.551 Y215.193 E7.24312
G1 X121.614 Y215.139 E7.27433
G1 X120.686 Y215.006 E7.30551
G1 X119.772 Y214.794 E7.33672
G1 X118.88 Y214.506 E7.3679
G1 X118.015 Y214.142 E7.39911
G1 X117.185 Y213.706 E7.43029
G1 X116.385 Y213.194 E7.46188
G1 X115.803 Y212.785 E7.48554
G1 X115.111 Y212.272 E7.51419
G1 X114.386 Y211.677 E7.54539
G1 X113.405 Y210.681 E7.59189
G1 X111.535 Y208.523 E7.68686
G1 X109.571 Y206.393 E7.78322
G1 X108.809 Y205.593 E7.81997
G1 X108.192 Y204.887 E7.85116
G1 X107.805 Y204.373 E7.87256
G1 X107.402 Y203.798 E7.89591
G1 X107.215 Y203.518 E7.90711
G1 X106.728 Y202.717 E7.93829
G1 X106.444 Y202.164 E7.95896
G1 X106.246 Y201.751 E7.9742
G1 X105.982 Y201.166 E7.99554
G1 X105.64 Y200.292 E8.02676
G1 X105.452 Y199.69 E8.04774
G1 X105.343 Y199.301 E8.06117
G1 X105.181 Y198.668 E8.08291
G1 X104.993 Y197.749 E8.1141
G1 X104.911 Y197.125 E8.13504
G1 X104.837 Y196.351 E8.1609
G1 X104.814 Y196.025 E8.17177
G1 X104.788 Y195.412 E8.19217
G1 X104.777 Y194.662 E8.21712
G1 X104.777 Y102.672 E11.27672
G1 X104.788 Y101.988 E11.29947
G1 X104.843 Y101.052 E11.33066
G1 X104.94 Y100.334 E11.35476
G1 X105.005 Y99.949 E11.36774
G1 X105.201 Y99.031 E11.39897
G1 X105.474 Y98.134 E11.43015
G1 X105.822 Y97.263 E11.46135
G1 X106.243 Y96.425 E11.49254
G1 X106.827 Y95.491 E11.52918
G1 X107.027 Y95.204 E11.54081
G1 X107.596 Y94.458 E11.57202
G0 F6000 X107.914 Y94.701
G1 F1200 X108.534 Y94.02 E11.60265
G1 X109.211 Y93.396 E11.63327
G1 X109.939 Y92.833 E11.66388
G1 X110.714 Y92.335 E11.69452
G1 X111.529 Y91.907 E11.72514
G1 X112.48 Y91.508 E11.75944
G1 X113.454 Y91.196 E11.79346
G1 X114.352 Y90.993 E11.82408
G1 X115.265 Y90.868 E11.85473
G1 X116.054 Y90.825 E11.88101
G1 X116.75 Y90.814 E11.90416
G1 X118.311 Y90.814 E11.95608
G1 X119.249 Y90.826 E11.98728
G1 X120.168 Y90.879 E12.0179
G1 X121.079 Y91.011 E12.04851
G1 X121.975 Y91.222 E12.07913
G1 X122.849 Y91.51 E12.10974
G1 X123.696 Y91.873 E12.14039
G1 X124.507 Y92.307 E12.17098
G1 X125.605 Y93.055 E12.21517
G1 X126.477 Y93.734 E12.25193
G1 X127.132 Y94.259 E12.27985
G1 X129.167 Y95.797 E12.36469
G1 X131.196 Y97.243 E12.44755
G1 X133.31 Y98.66 E12.5322
G1 X135.443 Y100.005 E12.61607
G1 X137.624 Y101.293 E12.70032
G1 X139.87 Y102.539 E12.78574
G1 X142.08 Y103.681 E12.86848
G1 X144.358 Y104.78 E12.95261
G1 X146.652 Y105.806 E13.03619
G1 X149.043 Y106.795 E13.12225
G1 X151.353 Y107.676 E13.20448
G1 X153.77 Y108.521 E13.28964
G1 X156.159 Y109.28 E13.37301
G1 X158.622 Y109.987 E13.45824
G1 X161.036 Y110.606 E13.54113
G1 X163.527 Y111.171 E13.62608
G1 X166.002 Y111.658 E13.70998
G1 X168.479 Y112.074 E13.79352
G1 X170.991 Y112.423 E13.87787
G1 X173.496 Y112.7 E13.96169
G1 X176.024 Y112.906 E14.04605
G1 X178.522 Y113.039 E14.12926
G1 X179.575 Y113.062 E14.16429
G1 X181.051 Y113.11 E14.2134
G1 X181.969 Y113.179 E14.24402
G1 X182.878 Y113.328 E14.27466
G1 X183.77 Y113.556 E14.30528
G1 X184.47 Y113.792 E14.32985
G1 X185.323 Y114.139 E14.36048
G1 X186.142 Y114.559 E14.39109
G1 X186.922 Y115.048 E14.42171
G1 X187.575 Y115.537 E14.44885
G1 X188.104 Y115.967 E14.47152
G1 X189.654 Y117.267 E14.53881
G1 X190.407 Y117.916 E14.57187
G1 X191.077 Y118.547 E14.60248
G1 X191.69 Y119.234 E14.6331
G1 X192.242 Y119.971 E14.66373
G1 X192.727 Y120.754 E14.69436
G1 X193.142 Y121.576 E14.72499
G1 X193.484 Y122.43 E14.75559
G1 X193.751 Y123.311 E14.78621
G1 X193.941 Y124.212 E14.81683
G1 X194.056 Y125.191 E14.84962
G1 X194.081 Y125.543 E14.86136
G1 X194.107 Y126.463 E14.89197
G1 X194.052 Y127.382 E14.92259
G1 X193.918 Y128.293 E14.95321
G1 X193.705 Y129.189 E14.98385
G1 X193.415 Y130.063 E15.01447
G1 X193.051 Y130.908 E15.04507
G1 X192.769 Y131.451 E15.06543
G1 X192.524 Y131.891 E15.08218
G1 X192.042 Y132.675 E15.11279
G1 X191.491 Y133.417 E15.14352
G1 X191.015 Y134.003 E15.16863
G1 X148.834 Y184.277 E17.35135
G1 X147.193 Y186.29 E17.43773
G1 X145.636 Y188.315 E17.52269
G1 X144.138 Y190.381 E17.60757
G1 X142.745 Y192.42 E17.6897
G1 X141.355 Y194.585 E17.77527
G1 X140.052 Y196.746 E17.8592
G1 X138.816 Y198.934 E17.94278
G1 X137.635 Y201.171 E18.02692
G1 X136.512 Y203.45 E18.11142
G1 X135.46 Y205.747 E18.19545
G1 X134.982 Y206.876 E18.23623
G1 X134.601 Y207.743 E18.26773
G1 X134.194 Y208.569 E18.29835
G1 X133.717 Y209.357 E18.32899
G1 X133.173 Y210.1 E18.35962
G1 X132.567 Y210.793 E18.39024
G1 X131.903 Y211.43 E18.42084
G1 X131.277 Y211.94 E18.4477
G1 X130.504 Y212.517 E18.47978
G1 X130.043 Y212.843 E18.49856
G1 X129.269 Y213.341 E18.52917
G1 X128.455 Y213.77 E18.55977
G1 X127.606 Y214.128 E18.59042
G1 X126.73 Y214.41 E18.62103
G1 X125.832 Y214.615 E18.65166
G1 X124.92 Y214.741 E18.68229
G1 X124.112 Y214.786 E18.7092
G1 X123.039 Y214.8 E18.74489
G1 X122.556 Y214.793 E18.76096
G1 X121.637 Y214.74 E18.79158
G1 X120.726 Y214.607 E18.8222
G1 X119.83 Y214.395 E18.85282
G1 X118.956 Y214.107 E18.88343
G1 X118.11 Y213.744 E18.91405
G1 X117.299 Y213.309 E18.94466
G1 X116.615 Y212.867 E18.97174
G1 X116.033 Y212.458 E18.9954
G1 X115.351 Y211.952 E19.02365
G1 X114.64 Y211.368 E19.05425
G1 X113.708 Y210.419 E19.09849
G1 X111.849 Y208.273 E19.19292
G1 X109.841 Y206.097 E19.2914
G1 X109.099 Y205.317 E19.32721
G1 X108.494 Y204.623 E19.35783
G1 X108.131 Y204.142 E19.37787
G1 X107.904 Y203.822 E19.39092
G1 X107.548 Y203.296 E19.41205
G1 X107.071 Y202.509 E19.44266
G1 X106.805 Y201.991 E19.46202
G1 X106.468 Y201.278 E19.48825
G1 X106.347 Y201.004 E19.49822
G1 X106.012 Y200.147 E19.52882
G1 X105.837 Y199.582 E19.54849
G1 X105.728 Y199.193 E19.56193
G1 X105.569 Y198.571 E19.58328
G1 X105.385 Y197.669 E19.6139
G1 X105.309 Y197.085 E19.63349
G1 X105.236 Y196.323 E19.65895
G1 X105.213 Y195.997 E19.66982
G1 X105.188 Y195.406 E19.68949
G1 X105.177 Y194.656 E19.71444
G1 X105.177 Y102.679 E22.77361
G1 X105.188 Y101.995 E22.79636
G1 X105.243 Y101.076 E22.82698
G1 X105.335 Y100.4 E22.84967
G1 X105.4 Y100.015 E22.86266
G1 X105.592 Y99.115 E22.89327
G1 X105.862 Y98.235 E22.92388
G1 X106.208 Y97.381 E22.95453
G1 X106.626 Y96.561 E22.98514
G1 X107.155 Y95.72 E23.01819
G1 X107.355 Y95.433 E23.02982
G1 X107.914 Y94.701 E23.06046
G0 F6000 X108.232 Y94.944
G1 F1200 X108.842 Y94.278 E23.09049
G1 X109.509 Y93.668 E23.12056
G1 X110.226 Y93.12 E23.15057
G1 X110.99 Y92.638 E23.18062
G1 X111.793 Y92.225 E23.21065
G1 X112.626 Y91.881 E23.24063
G1 X113.576 Y91.578 E23.27379
G1 X114.458 Y91.38 E23.30386
G1 X115.353 Y91.262 E23.33388
G1 X116.061 Y91.225 E23.35746
G1 X116.75 Y91.214 E23.38038
G1 X118.311 Y91.214 E23.4323
G1 X119.243 Y91.226 E23.4633
G1 X120.145 Y91.279 E23.49335
G1 X121.038 Y91.411 E23.52338
G1 X121.916 Y91.621 E23.5534
G1 X122.772 Y91.909 E23.58344
G1 X123.6 Y92.271 E23.6135
G1 X124.392 Y92.704 E23.64352
G1 X125.359 Y93.371 E23.68259
G1 X126.227 Y94.046 E23.71917
G1 X126.886 Y94.574 E23.74725
G1 X128.94 Y96.126 E23.83288
G1 X130.971 Y97.574 E23.91584
G1 X133.096 Y98.998 E24.00092
G1 X135.248 Y100.354 E24.08552
G1 X137.406 Y101.63 E24.1689
G1 X139.658 Y102.878 E24.25454
G1 X141.916 Y104.046 E24.33909
G1 X144.199 Y105.147 E24.42339
G1 X146.502 Y106.177 E24.5073
G1 X148.864 Y107.154 E24.59232
G1 X151.246 Y108.063 E24.67712
G1 X153.622 Y108.893 E24.76083
G1 X156.065 Y109.67 E24.84609
G1 X158.485 Y110.364 E24.92982
G1 X160.954 Y110.998 E25.01461
G1 X163.433 Y111.559 E25.09914
G1 X165.936 Y112.052 E25.18399
G1 X168.423 Y112.47 E25.26787
G1 X170.928 Y112.818 E25.35199
G1 X173.488 Y113.101 E25.43765
G1 X176.008 Y113.306 E25.52175
G1 X178.492 Y113.439 E25.60448
G1 X179.676 Y113.465 E25.64387
G1 X181.038 Y113.509 E25.6892
G1 X181.939 Y113.578 E25.71925
G1 X182.83 Y113.727 E25.7493
G1 X183.704 Y113.954 E25.77933
G1 X184.336 Y114.168 E25.80152
G1 X185.172 Y114.51 E25.83157
G1 X185.975 Y114.924 E25.86161
G1 X186.737 Y115.407 E25.89162
G1 X187.323 Y115.848 E25.91601
G1 X187.847 Y116.274 E25.93848
G1 X189.397 Y117.574 E26.00576
G1 X190.146 Y118.219 E26.03864
G1 X190.803 Y118.839 E26.06868
G1 X191.402 Y119.514 E26.0987
G1 X191.94 Y120.24 E26.12875
G1 X192.411 Y121.01 E26.15877
G1 X192.813 Y121.819 E26.18882
G1 X193.141 Y122.66 E26.21884
G1 X193.393 Y123.527 E26.24887
G1 X193.568 Y124.414 E26.27894
G1 X193.657 Y125.219 E26.30588
G1 X193.682 Y125.571 E26.31762
G1 X193.706 Y126.474 E26.34766
G1 X193.65 Y127.376 E26.37772
G1 X193.515 Y128.268 E26.40773
G1 X193.301 Y129.146 E26.43779
G1 X193.011 Y130.001 E26.46781
G1 X192.645 Y130.827 E26.49786
G1 X192.42 Y131.256 E26.51397
G1 X192.175 Y131.696 E26.53073
G1 X191.701 Y132.465 E26.56077
G1 X191.18 Y133.165 E26.58979
G1 X190.601 Y133.876 E26.62029
G1 X148.502 Y184.051 E28.79873
G1 X146.864 Y186.061 E28.88497
G1 X145.328 Y188.059 E28.96879
G1 X143.816 Y190.142 E29.0544
G1 X142.405 Y192.208 E29.13761
G1 X141.019 Y194.368 E29.22297
G1 X139.71 Y196.538 E29.30726
G1 X138.457 Y198.756 E29.39199
G1 X137.279 Y200.986 E29.47587
G1 X136.147 Y203.285 E29.5611
G1 X135.105 Y205.561 E29.64436
G1 X134.614 Y206.72 E29.68623
G1 X134.235 Y207.582 E29.71755
G1 X133.835 Y208.392 E29.74759
G1 X133.365 Y209.163 E29.77762
G1 X132.829 Y209.89 E29.80767
G1 X132.23 Y210.566 E29.83771
G1 X131.574 Y211.187 E29.86775
G1 X131.037 Y211.621 E29.89072
G1 X130.522 Y212.009 E29.91216
G1 X129.812 Y212.516 E29.94118
G1 X129.053 Y213.004 E29.97119
G1 X128.253 Y213.424 E30.00124
G1 X127.419 Y213.77 E30.03127
G1 X126.557 Y214.042 E30.06134
G1 X125.675 Y214.236 E30.09138
G1 X124.78 Y214.352 E30.12139
G1 X124.105 Y214.386 E30.14387
G1 X123.045 Y214.4 E30.17913
G1 X122.562 Y214.393 E30.1952
G1 X121.661 Y214.34 E30.22522
G1 X120.767 Y214.207 E30.25528
G1 X119.889 Y213.996 E30.28531
G1 X119.033 Y213.708 E30.31535
G1 X118.206 Y213.346 E30.34538
G1 X117.414 Y212.912 E30.37541
G1 X116.845 Y212.539 E30.39804
G1 X116.263 Y212.13 E30.4217
G1 X115.592 Y211.632 E30.44949
G1 X114.894 Y211.058 E30.47955
G1 X114.01 Y210.157 E30.52153
G1 X112.146 Y208.006 E30.6162
G1 X110.111 Y205.8 E30.71602
G1 X109.389 Y205.041 E30.75087
G1 X108.796 Y204.36 E30.7809
G1 X108.458 Y203.911 E30.79959
G1 X108.231 Y203.591 E30.81264
G1 X107.881 Y203.074 E30.83341
G1 X107.413 Y202.301 E30.86346
G1 X107.165 Y201.819 E30.88149
G1 X106.967 Y201.406 E30.89672
G1 X106.713 Y200.842 E30.9173
G1 X106.385 Y200.001 E30.94732
G1 X106.222 Y199.474 E30.96567
G1 X106.113 Y199.085 E30.97911
G1 X105.957 Y198.475 E31.00005
G1 X105.777 Y197.59 E31.03008
G1 X105.707 Y197.044 E31.04839
G1 X105.635 Y196.295 E31.07342
G1 X105.612 Y195.969 E31.08429
G1 X105.588 Y195.401 E31.1032
G1 X105.576 Y194.501 E31.13314
G1 X105.577 Y102.685 E34.18695
G1 X105.588 Y102.001 E34.2097
G1 X105.643 Y101.1 E34.23972
G1 X105.729 Y100.467 E34.26097
G1 X105.794 Y100.082 E34.27396
G1 X105.984 Y99.199 E34.304
G1 X106.251 Y98.336 E34.33404
G1 X106.593 Y97.5 E34.36409
G1 X107.008 Y96.698 E34.39412
G1 X107.484 Y95.948 E34.42367
G1 X107.684 Y95.661 E34.4353
G1 X108.232 Y94.944 E34.46532
G1 F1500 E27.96532
G0 F6000 X181.235 Y123.174
G0 X183.932 Y125.437
G0 X184.16 Y125.816
G0 X184.185 Y126.288
G0 X184.104 Y126.633
G0 X183.943 Y126.91
G0 X123.24 Y202.278
G1 F1500 E34.46532
G1 F1200 X123.331 Y202.246 E34.46852
G1 X123.376 Y202.278 E34.47036
G1 X123.376 Y202.372 E34.47349
G1 X123.285 Y202.404 E34.4767
G1 X123.24 Y202.372 E34.47853
G1 X123.24 Y202.278 E34.48166
G0 F6000 X122.901 Y202.031
G1 F1200 X123.154 Y201.846 E34.49208
G1 X123.462 Y201.846 E34.50233
G1 X123.715 Y202.031 E34.51275
G1 X123.811 Y202.325 E34.52304
G1 X123.715 Y202.619 E34.53332
G1 X123.462 Y202.804 E34.54375
G1 X123.154 Y202.804 E34.55399
G1 X122.901 Y202.619 E34.56442
G1 X122.805 Y202.325 E34.5747
G1 X122.901 Y202.031 E34.58499
G0 F6000 X122.561 Y201.783
