;FLAVOR:Marlin
;TIME:9163
;Filament used: 5.58851m
;Layer height: 0.2
;MINX:65.127
;MINY:99.573
;MINZ:0.32
;MAXX:222.331
;MAXY:179.368
;MAXZ:25.92
;Generated with Cura_SteamEngine 5.2.1
M140 S60
M105
M190 S60
M104 S200
M105
M109 S200
M82 ;absolute extrusion mode
; Ender 3 Max Custom Start G-code
G92 E0 ; Reset Extruder
G28 ; Home all axes
G1 Z2.0 F3000 ; Move Z Axis up little to prevent scratching of Heat Bed
G1 X0.1 Y20 Z0.3 F5000.0 ; Move to start position
G1 X0.1 Y200.0 Z0.3 F1500.0 E15 ; Draw the first line
G1 X0.4 Y200.0 Z0.3 F5000.0 ; Move to side a little
G1 X0.4 Y20 Z0.3 F1500.0 E30 ; Draw the second line
G92 E0 ; Reset Extruder
G1 Z2.0 F3000 ; Move Z Axis up little to prevent scratching of Heat Bed
G1 X5 Y20 Z0.3 F5000.0 ; Move over to prevent blob squish
G92 E0
G92 E0
G1 F1500 E-6.5
;LAYER_COUNT:129
;LAYER:0
M107
G0 F6000 X81.194 Y110.01 Z0.32
;TYPE:SKIRT
G1 F1500 E0
G1 F900 X81.898 Y109.519 E0.05024
G1 X82.791 Y108.928 E0.11293
G1 X83.104 Y108.73 E0.13461
G1 X84.241 Y108.043 E0.21237
G1 X85.112 Y107.552 E0.2709
G1 X85.985 Y107.089 E0.32875
G1 X86.759 Y106.702 E0.37941
G1 X87.91 Y106.168 E0.45368
G1 X88.933 Y105.729 E0.51885
G1 X90.161 Y105.249 E0.59603
G1 X91.251 Y104.862 E0.66374
G1 X92.255 Y104.539 E0.72547
G1 X93.52 Y104.173 E0.80256
G1 X94.264 Y103.981 E0.84754
G1 X95.372 Y103.723 E0.91414
G1 X96.745 Y103.451 E0.99607
G1 X97.638 Y103.3 E1.04909
G1 X98.942 Y103.122 E1.12613
G1 X100.206 Y102.99 E1.20052
G1 X101.333 Y102.909 E1.26666
G1 X102.147 Y102.87 E1.31437
G1 X103.297 Y102.847 E1.3817
G1 X104.397 Y102.856 E1.44609
G1 X104.768 Y102.866 E1.46782
G1 X105.796 Y102.913 E1.52806
G1 X106.704 Y102.976 E1.58134
G1 X108.29 Y103.141 E1.67468
G1 X109.003 Y103.236 E1.71679
G1 X110.107 Y103.413 E1.78224
G1 X111.509 Y103.683 E1.86582
G1 X112.662 Y103.946 E1.93504
G1 X114.035 Y104.296 E2.01799
G1 X115.532 Y104.703 E2.1088
G1 X117.986 Y105.298 E2.25661
G1 X120.469 Y105.826 E2.40521
G1 X122.939 Y106.279 E2.55221
G1 X125.451 Y106.665 E2.70099
G1 X127.933 Y106.977 E2.84742
G1 X130.49 Y107.224 E2.9978
G1 X132.971 Y107.393 E3.14337
G1 X135.537 Y107.495 E3.29369
G1 X138.047 Y107.524 E3.44063
G1 X140.559 Y107.482 E3.5877
G1 X143.099 Y107.367 E3.73654
G1 X145.595 Y107.184 E3.88304
G1 X148.122 Y106.927 E4.03173
G1 X150.637 Y106.597 E4.18021
G1 X153.124 Y106.201 E4.32763
G1 X155.615 Y105.731 E4.47602
G1 X158.061 Y105.199 E4.62255
G1 X160.51 Y104.591 E4.77027
G1 X162.979 Y103.904 E4.92029
G1 X165.346 Y103.173 E5.0653
G1 X168.659 Y102.027 E5.27051
G1 X169.352 Y101.78 E5.31358
G1 X170.467 Y101.413 E5.38229
G1 X171.641 Y101.062 E5.45402
G1 X172.862 Y100.74 E5.52794
G1 X173.649 Y100.552 E5.57531
G1 X174.048 Y100.465 E5.59921
G1 X175.459 Y100.188 E5.68339
G1 X176.47 Y100.022 E5.74336
G1 X177.625 Y99.865 E5.81159
G1 X178.539 Y99.763 E5.86543
G1 X180.072 Y99.644 E5.95544
G1 X181.259 Y99.589 E6.025
G1 X182.437 Y99.573 E6.09396
G1 X183.303 Y99.581 E6.14466
G1 X183.688 Y99.592 E6.1672
G1 X184.937 Y99.652 E6.2404
G1 X186.151 Y99.746 E6.31168
G1 X187.303 Y99.871 E6.37951
G1 X188.163 Y99.985 E6.43029
G1 X188.531 Y100.041 E6.45208
G1 X189.74 Y100.248 E6.52388
G1 X190.961 Y100.494 E6.59679
G1 X192.385 Y100.833 E6.68248
G1 X193.297 Y101.079 E6.73778
G1 X194.19 Y101.344 E6.7923
G1 X195.229 Y101.678 E6.85619
G1 X195.612 Y101.811 E6.87992
G1 X196.992 Y102.322 E6.96607
G1 X197.925 Y102.702 E7.02504
G1 X198.979 Y103.165 E7.09243
G1 X199.823 Y103.559 E7.14695
G1 X201.131 Y104.224 E7.23285
G1 X201.873 Y104.626 E7.28225
G1 X202.206 Y104.815 E7.30466
G1 X203.31 Y105.47 E7.3798
G1 X204.32 Y106.109 E7.44977
G1 X205.065 Y106.61 E7.50232
G1 X205.993 Y107.269 E7.56895
G1 X207.314 Y108.278 E7.66625
G1 X207.955 Y108.798 E7.71457
G1 X208.887 Y109.602 E7.78662
G1 X209.752 Y110.39 E7.85512
G1 X210.023 Y110.646 E7.87694
G1 X210.702 Y111.313 E7.93266
G1 X211.497 Y112.132 E7.99947
G1 X211.737 Y112.389 E8.02006
G1 X212.526 Y113.269 E8.08924
G1 X213.329 Y114.221 E8.16215
G1 X214.053 Y115.136 E8.23045
G1 X214.805 Y116.143 E8.30402
G1 X215.351 Y116.923 E8.35976
G1 X215.994 Y117.888 E8.42764
G1 X216.625 Y118.905 E8.4977
G1 X217.22 Y119.926 E8.56687
G1 X217.851 Y121.095 E8.64464
G1 X218.352 Y122.092 E8.70995
G1 X218.51 Y122.424 E8.73148
G1 X219.03 Y123.573 E8.8053
G1 X219.492 Y124.678 E8.87541
G1 X219.893 Y125.729 E8.94126
G1 X220.302 Y126.895 E9.0136
G1 X220.616 Y127.889 E9.07462
G1 X220.923 Y128.947 E9.1391
G1 X221.227 Y130.137 E9.211
G1 X221.485 Y131.277 E9.27942
G1 X221.727 Y132.538 E9.35459
G1 X221.906 Y133.63 E9.41936
G1 X221.962 Y134.02 E9.44243
G1 X222.082 Y134.993 E9.49981
G1 X222.193 Y136.102 E9.56506
G1 X222.281 Y137.416 E9.64215
G1 X222.331 Y138.882 E9.72801
G1 X222.33 Y140.099 E9.79926
G1 X222.293 Y141.33 E9.87135
G1 X222.237 Y142.256 E9.92565
G1 X222.144 Y143.375 E9.99138
G1 X222.105 Y143.755 E10.01374
G1 X221.955 Y144.958 E10.08471
G1 X221.83 Y145.801 E10.1346
G1 X221.603 Y147.071 E10.21012
G1 X221.364 Y148.216 E10.27859
G1 X221.071 Y149.432 E10.35181
G1 X220.763 Y150.56 E10.42026
G1 X220.381 Y151.8 E10.49621
G1 X220.017 Y152.873 E10.56254
G1 X219.887 Y153.233 E10.58494
G1 X219.563 Y154.079 E10.63797
G1 X219.129 Y155.14 E10.70508
G1 X218.5 Y156.537 E10.79476
G1 X218.143 Y157.276 E10.8428
G1 X217.95 Y157.655 E10.8677
G1 X217.24 Y158.98 E10.9557
G1 X216.741 Y159.846 E11.0142
G1 X216.107 Y160.875 E11.08495
G1 X215.647 Y161.585 E11.13448
G1 X215.449 Y161.876 E11.15508
G1 X214.566 Y163.126 E11.24467
G1 X214.039 Y163.825 E11.29591
G1 X213.46 Y164.556 E11.3505
G1 X212.708 Y165.46 E11.41933
G1 X212.446 Y165.762 E11.44274
G1 X211.674 Y166.617 E11.51017
G1 X211.081 Y167.245 E11.56073
G1 X210.144 Y168.176 E11.63805
G1 X209.35 Y168.924 E11.70191
G1 X208.382 Y169.778 E11.77747
G1 X207.187 Y170.764 E11.86817
G1 X206.517 Y171.281 E11.9177
G1 X205.602 Y171.955 E11.98423
G1 X205.258 Y172.197 E12.00885
G1 X204.256 Y172.872 E12.07957
G1 X203.515 Y173.347 E12.1311
G1 X202.412 Y174.006 E12.20631
G1 X201.423 Y174.56 E12.27267
G1 X201.083 Y174.741 E12.29522
G1 X200.029 Y175.278 E12.36446
G1 X199.224 Y175.665 E12.41675
G1 X197.817 Y176.283 E12.5067
G1 X196.699 Y176.732 E12.57723
G1 X195.834 Y177.051 E12.6312
G1 X194.761 Y177.417 E12.69756
G1 X194.415 Y177.527 E12.71882
G1 X193.175 Y177.895 E12.79453
G1 X191.985 Y178.208 E12.86656
G1 X190.858 Y178.468 E12.93427
G1 X189.643 Y178.712 E13.00681
G1 X188.474 Y178.907 E13.07619
G1 X187.23 Y179.078 E13.14969
G1 X186.068 Y179.201 E13.21809
G1 X185.2 Y179.273 E13.26908
G1 X184.817 Y179.297 E13.29154
G1 X183.682 Y179.347 E13.35805
G1 X182.441 Y179.368 E13.4307
G1 X181.411 Y179.353 E13.491
G1 X180.303 Y179.311 E13.55591
G1 X179.947 Y179.29 E13.57679
G1 X178.772 Y179.198 E13.64578
G1 X177.888 Y179.107 E13.6978
G1 X177.504 Y179.06 E13.72045
G1 X176.024 Y178.849 E13.80796
G1 X175.159 Y178.698 E13.85936
G1 X173.937 Y178.451 E13.93234
G1 X173.107 Y178.263 E13.98216
G1 X172.691 Y178.159 E14.00726
G1 X171.314 Y177.785 E14.09078
G1 X169.98 Y177.388 E14.17226
G1 X168.68 Y176.979 E14.25203
G1 X166.208 Y176.278 E14.40245
G1 X163.735 Y175.653 E14.55176
G1 X161.297 Y175.108 E14.698
G1 X158.833 Y174.63 E14.84492
G1 X156.318 Y174.216 E14.99413
G1 X153.826 Y173.878 E15.14134
G1 X151.314 Y173.609 E15.28923
G1 X148.824 Y173.414 E15.43543
G1 X146.272 Y173.286 E15.58501
G1 X143.734 Y173.231 E15.73361
G1 X141.194 Y173.247 E15.8823
G1 X138.715 Y173.334 E16.02751
G1 X136.179 Y173.494 E16.17626
G1 X133.654 Y173.725 E16.32468
G1 X131.117 Y174.031 E16.47427
G1 X128.662 Y174.397 E16.61957
G1 X126.162 Y174.842 E16.76821
G1 X123.71 Y175.349 E16.91478
G1 X121.253 Y175.932 E17.0626
G1 X117.375 Y176.995 E17.29799
G1 X116.475 Y177.2 E17.35202
G1 X115.56 Y177.327 E17.4061
G1 X114.638 Y177.374 E17.46014
G1 X113.544 Y177.326 E17.52424
G1 X110.777 Y177.062 E17.68695
G1 X108.28 Y176.894 E17.83345
G1 X105.737 Y176.796 E17.98242
G1 X103.23 Y176.771 E18.12918
G1 X100.715 Y176.816 E18.27643
G1 X98.154 Y176.934 E18.4265
G1 X95.65 Y177.121 E18.57349
G1 X93.648 Y177.32 E18.69126
G1 X92.726 Y177.371 E18.74531
G1 X91.804 Y177.343 E18.79931
G1 X90.804 Y177.227 E18.85824
G1 X89.783 Y177.019 E18.91924
G1 X88.898 Y176.758 E18.97325
G1 X87.681 Y176.254 E19.05036
G1 X86.378 Y175.615 E19.13531
G1 X85.364 Y175.09 E19.20215
G1 X84.98 Y174.882 E19.22772
G1 X84.041 Y174.346 E19.29101
G1 X82.934 Y173.669 E19.36697
G1 X81.833 Y172.943 E19.44417
G1 X81.082 Y172.415 E19.49791
G1 X80.274 Y171.817 E19.55675
G1 X79.494 Y171.208 E19.61468
G1 X78.627 Y170.49 E19.68057
G1 X77.582 Y169.567 E19.76219
G1 X76.712 Y168.745 E19.83226
G1 X75.923 Y167.953 E19.8977
G1 X75.181 Y167.163 E19.96114
G1 X74.394 Y166.274 E20.03064
G1 X73.758 Y165.512 E20.08875
G1 X73.123 Y164.713 E20.14849
G1 X72.161 Y163.41 E20.2433
G1 X71.644 Y162.657 E20.29677
G1 X70.921 Y161.539 E20.37471
G1 X70.415 Y160.702 E20.43196
G1 X69.892 Y159.783 E20.49386
G1 X69.344 Y158.753 E20.56215
G1 X68.819 Y157.685 E20.63182
G1 X68.342 Y156.637 E20.69922
G1 X67.962 Y155.735 E20.75652
G1 X67.6 Y154.814 E20.81444
G1 X67.138 Y153.517 E20.89504
G1 X66.883 Y152.736 E20.94313
G1 X66.775 Y152.381 E20.96486
G1 X66.416 Y151.122 E21.04149
G1 X66.178 Y150.175 E21.09865
G1 X65.956 Y149.191 E21.1577
G1 X65.773 Y148.272 E21.21255
G1 X65.539 Y146.861 E21.29628
G1 X65.387 Y145.72 E21.36366
G1 X65.271 Y144.58 E21.43074
G1 X65.189 Y143.449 E21.49712
G1 X65.143 Y142.354 E21.56127
G1 X65.127 Y141.527 E21.60969
G1 X65.127 Y141.136 E21.63258
G1 X65.153 Y139.814 E21.70998
G1 X65.179 Y139.226 E21.74444
G1 X65.286 Y137.758 E21.8306
G1 X65.365 Y136.972 E21.87684
G1 X65.511 Y135.836 E21.94389
G1 X65.741 Y134.413 E22.02827
G1 X65.972 Y133.239 E22.09831
G1 X66.23 Y132.11 E22.1661
G1 X66.491 Y131.106 E22.22683
G1 X66.819 Y129.975 E22.29576
G1 X67.166 Y128.903 E22.36172
G1 X67.559 Y127.799 E22.43032
G1 X67.966 Y126.76 E22.49564
G1 X68.422 Y125.688 E22.56383
G1 X68.778 Y124.909 E22.61397
G1 X69.243 Y123.954 E22.67615
G1 X69.401 Y123.645 E22.69646
G1 X69.952 Y122.617 E22.76474
G1 X70.507 Y121.648 E22.83011
G1 X70.948 Y120.925 E22.87968
G1 X71.513 Y120.043 E22.941
G1 X71.731 Y119.719 E22.96386
G1 X72.482 Y118.649 E23.04038
G1 X73.049 Y117.89 E23.09584
G1 X73.583 Y117.21 E23.14645
G1 X74.248 Y116.403 E23.20767
G1 X74.479 Y116.134 E23.22842
G1 X75.233 Y115.289 E23.29472
G1 X76.046 Y114.426 E23.36412
G1 X76.601 Y113.871 E23.41007
G1 X77.394 Y113.112 E23.47432
G1 X77.663 Y112.865 E23.4957
G1 X78.526 Y112.103 E23.56309
G1 X79.455 Y111.331 E23.6338
G1 X79.743 Y111.106 E23.65519
G0 F810 X80.254 Y110.706
G0 X81.194 Y110.01
G0 F6000 X81.21 Y110.54
G1 F900 X82.15 Y109.88 E23.72243
G1 X83.033 Y109.295 E23.78443
G1 X83.333 Y109.105 E23.80522
G1 X84.458 Y108.425 E23.88217
G1 X85.054 Y108.086 E23.92231
G1 X86.192 Y107.478 E23.99783
G1 X86.955 Y107.096 E24.04778
G1 X88.094 Y106.567 E24.1213
G1 X89.373 Y106.025 E24.20261
G1 X90.31 Y105.663 E24.26142
G1 X91.386 Y105.281 E24.32825
G1 X92.681 Y104.869 E24.4078
G1 X93.63 Y104.599 E24.46556
G1 X94.374 Y104.407 E24.51054
G1 X95.47 Y104.152 E24.57641
G1 X96.829 Y103.883 E24.65751
G1 X97.71 Y103.734 E24.70981
G1 X99 Y103.558 E24.78603
G1 X99.935 Y103.456 E24.84108
G1 X101.076 Y103.366 E24.90808
G1 X102.168 Y103.31 E24.97209
G1 X103.304 Y103.287 E25.0386
G1 X104.393 Y103.296 E25.10235
G1 X105.776 Y103.353 E25.18338
G1 X106.671 Y103.415 E25.2359
G1 X107.946 Y103.544 E25.31091
G1 X108.945 Y103.673 E25.36988
G1 X110.036 Y103.847 E25.43455
G1 X111.106 Y104.049 E25.49829
G1 X112.554 Y104.373 E25.58515
G1 X114.088 Y104.765 E25.67783
G1 X115.428 Y105.13 E25.75913
G1 X117.897 Y105.729 E25.90785
G1 X120.399 Y106.261 E26.05759
G1 X122.865 Y106.713 E26.20435
G1 X125.362 Y107.097 E26.35224
G1 X127.908 Y107.416 E26.50244
G1 X130.454 Y107.662 E26.65217
G1 X132.958 Y107.833 E26.79909
G1 X135.515 Y107.935 E26.94889
G1 X138.015 Y107.964 E27.09524
G1 X140.586 Y107.92 E27.24577
G1 X143.115 Y107.807 E27.39396
G1 X145.673 Y107.619 E27.5441
G1 X148.152 Y107.366 E27.68997
G1 X150.691 Y107.034 E27.83986
G1 X153.202 Y106.634 E27.9887
G1 X155.724 Y106.157 E28.13895
G1 X158.154 Y105.629 E28.28452
G1 X160.627 Y105.015 E28.43368
G1 X163.087 Y104.331 E28.58315
G1 X165.499 Y103.586 E28.73092
G1 X168.831 Y102.434 E28.9373
G1 X169.49 Y102.197 E28.97829
G1 X170.595 Y101.833 E29.0464
G1 X171.405 Y101.586 E29.09597
G1 X172.707 Y101.233 E29.17494
G1 X173.751 Y100.98 E29.23782
G1 X174.134 Y100.896 E29.26077
G1 X175.256 Y100.673 E29.32773
G1 X176.191 Y100.51 E29.38329
G1 X177.684 Y100.301 E29.47154
G1 X178.585 Y100.2 E29.52461
G1 X180.381 Y100.066 E29.63004
G1 X181.266 Y100.029 E29.68189
G1 X182.433 Y100.013 E29.75021
G1 X183.668 Y100.031 E29.82251
G1 X184.638 Y100.075 E29.87935
G1 X185.757 Y100.152 E29.94501
G1 X186.981 Y100.276 E30.01703
G1 X188.105 Y100.422 E30.08338
G1 X188.458 Y100.475 E30.10427
G1 X189.655 Y100.68 E30.17536
G1 X190.861 Y100.923 E30.24738
G1 X192.272 Y101.258 E30.33227
G1 X193.171 Y101.501 E30.38679
G1 X194.064 Y101.766 E30.44131
G1 X195.093 Y102.097 E30.50459
G1 X195.46 Y102.224 E30.52732
G1 X196.829 Y102.731 E30.61278
G1 X197.748 Y103.105 E30.67086
G1 X198.802 Y103.568 E30.73825
G1 X199.635 Y103.957 E30.79207
G1 X200.921 Y104.611 E30.87652
G1 X201.983 Y105.194 E30.94744
G1 X202.835 Y105.696 E31.00533
G1 X204.074 Y106.474 E31.09097
G1 X205.064 Y107.145 E31.16098
G1 X206 Y107.822 E31.2286
G1 X207.037 Y108.62 E31.3052
G1 X207.678 Y109.14 E31.35351
G1 X208.599 Y109.934 E31.4247
G1 X209.455 Y110.714 E31.49249
G1 X210.394 Y111.627 E31.56916
G1 X211.41 Y112.684 E31.65498
G1 X212.191 Y113.555 E31.72346
G1 X212.985 Y114.495 E31.79549
G1 X213.702 Y115.401 E31.86312
G1 X214.445 Y116.395 E31.93577
G1 X214.991 Y117.175 E31.9915
G1 X215.627 Y118.131 E32.05872
G1 X215.822 Y118.436 E32.07991
G1 X216.377 Y119.348 E32.1424
G1 X217.015 Y120.462 E32.21755
G1 X217.594 Y121.555 E32.28996
G1 X217.959 Y122.288 E32.33789
G1 X218.516 Y123.497 E32.41581
G1 X218.952 Y124.516 E32.48069
G1 X219.479 Y125.877 E32.56613
G1 X219.761 Y126.666 E32.61518
G1 X219.882 Y127.027 E32.63746
G1 X220.276 Y128.286 E32.71469
G1 X220.59 Y129.403 E32.78261
G1 X220.859 Y130.492 E32.84827
G1 X221.129 Y131.729 E32.92239
G1 X221.295 Y132.619 E32.97539
G1 X221.472 Y133.7 E33.03951
G1 X221.645 Y135.047 E33.11901
G1 X221.755 Y136.144 E33.18354
G1 X221.783 Y136.497 E33.20427
G1 X221.856 Y137.72 E33.27599
G1 X221.891 Y138.883 E33.3441
G1 X221.89 Y140.088 E33.41464
G1 X221.853 Y141.304 E33.48585
G1 X221.779 Y142.484 E33.55507
G1 X221.706 Y143.337 E33.60518
G1 X221.555 Y144.629 E33.68133
G1 X221.394 Y145.736 E33.74681
G1 X221.337 Y146.082 E33.76734
G1 X221.116 Y147.265 E33.83778
G1 X220.859 Y148.45 E33.90876
G1 X220.57 Y149.608 E33.97863
G1 X220.241 Y150.776 E34.04966
G1 X219.961 Y151.669 E34.10445
G1 X219.601 Y152.731 E34.17009
G1 X219.152 Y153.921 E34.24454
G1 X218.585 Y155.291 E34.33134
G1 X218.212 Y156.115 E34.38428
G1 X217.746 Y157.085 E34.44728
G1 X217.562 Y157.448 E34.4711
G1 X216.984 Y158.532 E34.54301
G1 X216.556 Y159.294 E34.59417
G1 X216.366 Y159.615 E34.61601
G1 X215.732 Y160.644 E34.68676
G1 X215.279 Y161.344 E34.73557
G1 X215.089 Y161.624 E34.75538
G1 X214.214 Y162.863 E34.84417
G1 X213.694 Y163.552 E34.8947
G1 X212.941 Y164.497 E34.96543
G1 X212.371 Y165.178 E35.01742
G1 X212.119 Y165.467 E35.03986
G1 X211.163 Y166.521 E35.12316
G1 X210.537 Y167.171 E35.17599
G1 X209.836 Y167.862 E35.2336
G1 X209.049 Y168.603 E35.29688
G1 X208.092 Y169.447 E35.37158
G1 X207.191 Y170.197 E35.4402
G1 X206.918 Y170.415 E35.46065
G1 X206.045 Y171.085 E35.52507
G1 X205.342 Y171.6 E35.57608
G1 X205.012 Y171.832 E35.5997
G1 X204.01 Y172.507 E35.67042
G1 X203.015 Y173.138 E35.73939
G1 X202.188 Y173.628 E35.79566
G1 X201.209 Y174.176 E35.86134
G1 X200.884 Y174.349 E35.88289
G1 X199.575 Y175.012 E35.96878
