;FLAVOR:Marlin
;TIME:9625
;Filament used: 4.96131m
;Layer height: 0.2
;MINX:26.865
;MINY:72.981
;MINZ:0.2
;MAXX:262.657
;MAXY:242.53
;MAXZ:7
;Generated with Cura_SteamEngine 5.2.1
M140 S60
M105
M190 S60
M104 S200
M105
M109 S200
M82 ;absolute extrusion mode
; Ender 3 Max Custom Start G-code
G92 E0 ; Reset Extruder
G28 ; Home all axes
G1 Z2.0 F3000 ; Move Z Axis up little to prevent scratching of Heat Bed
G1 X0.1 Y20 Z0.3 F5000.0 ; Move to start position
G1 X0.1 Y200.0 Z0.3 F1500.0 E15 ; Draw the first line
G1 X0.4 Y200.0 Z0.3 F5000.0 ; Move to side a little
G1 X0.4 Y20 Z0.3 F1500.0 E30 ; Draw the second line
G92 E0 ; Reset Extruder
G1 Z2.0 F3000 ; Move Z Axis up little to prevent scratching of Heat Bed
G1 X5 Y20 Z0.3 F5000.0 ; Move over to prevent blob squish
G92 E0
G92 E0
G1 F1500 E-6.5
;LAYER_COUNT:35
;LAYER:0
M107
G0 F6000 X33.12 Y74.737 Z0.2
;TYPE:SKIRT
G1 F1500 E0
G1 F1200 X33.982 Y74.368 E0.03119
G1 X34.873 Y74.074 E0.06239
G1 X35.785 Y73.856 E0.09358
G1 X36.712 Y73.718 E0.12475
G1 X37.648 Y73.658 E0.15595
G1 X38.586 Y73.679 E0.18715
G1 X39.519 Y73.779 E0.21836
G1 X40.483 Y73.97 E0.25105
G1 X42.924 Y74.566 E0.33462
G1 X45.443 Y75.106 E0.42031
G1 X47.9 Y75.561 E0.50342
G1 X50.378 Y75.949 E0.58684
G1 X52.867 Y76.266 E0.67029
G1 X55.39 Y76.515 E0.75462
G1 X57.904 Y76.691 E0.83844
G1 X60.39 Y76.795 E0.92119
G1 X62.914 Y76.829 E1.00515
G1 X65.437 Y76.791 E1.08908
G1 X67.968 Y76.682 E1.17333
G1 X70.467 Y76.504 E1.25666
G1 X72.945 Y76.256 E1.33949
G1 X75.488 Y75.93 E1.42477
G1 X77.953 Y75.541 E1.50777
G1 X80.438 Y75.077 E1.59185
G1 X82.874 Y74.55 E1.67474
G1 X85.263 Y73.968 E1.75652
G1 X86.183 Y73.785 E1.78772
G1 X87.115 Y73.681 E1.81891
G1 X88.053 Y73.657 E1.85012
G1 X88.989 Y73.712 E1.88131
G1 X89.587 Y73.79 E1.90137
G1 X91.885 Y74.153 E1.97875
G1 X94.347 Y74.477 E2.06134
G1 X96.878 Y74.736 E2.14596
G1 X99.374 Y74.92 E2.2292
G1 X101.93 Y75.037 E2.3143
G1 X104.422 Y75.08 E2.3972
G1 X106.907 Y75.054 E2.47986
G1 X109.462 Y74.954 E2.5649
G1 X111.978 Y74.783 E2.64878
G1 X114.469 Y74.543 E2.73201
G1 X116.991 Y74.229 E2.81654
G1 X118.961 Y73.941 E2.88276
G1 X119.894 Y73.845 E2.91395
G1 X120.832 Y73.829 E2.94516
G1 X121.768 Y73.892 E2.97636
G1 X122.695 Y74.035 E3.00756
G1 X123.161 Y74.139 E3.02344
G1 X125.63 Y74.742 E3.10797
G1 X128.094 Y75.272 E3.1918
G1 X130.608 Y75.736 E3.27683
G1 X133.056 Y76.119 E3.35924
G1 X135.553 Y76.437 E3.44296
G1 X138.075 Y76.686 E3.52725
G1 X140.591 Y76.862 E3.61113
G1 X143.076 Y76.966 E3.69386
G1 X145.6 Y77 E3.77781
G1 X148.124 Y76.962 E3.86177
G1 X150.654 Y76.853 E3.946
G1 X153.15 Y76.675 E4.02923
G1 X155.633 Y76.426 E4.11223
G1 X158.168 Y76.101 E4.19723
G1 X160.65 Y75.71 E4.2808
G1 X163.107 Y75.252 E4.36393
G1 X165.558 Y74.722 E4.44733
G1 X167.947 Y74.139 E4.52912
G1 X168.867 Y73.956 E4.56032
G1 X169.799 Y73.851 E4.59152
G1 X170.736 Y73.826 E4.62269
G1 X171.832 Y73.899 E4.65923
G1 X172.985 Y74.034 E4.69784
G1 X175.571 Y74.298 E4.7843
G1 X178.045 Y74.481 E4.86681
G1 X180.614 Y74.598 E4.95234
G1 X183.099 Y74.641 E5.035
G1 X185.589 Y74.613 E5.11783
G1 X188.135 Y74.513 E5.20257
G1 X190.67 Y74.341 E5.28708
G1 X193.153 Y74.101 E5.37005
G1 X195.62 Y73.794 E5.45274
G1 X198.628 Y73.325 E5.55399
G1 X199.707 Y73.14 E5.5904
G1 X200.637 Y73.02 E5.62159
G1 X201.574 Y72.981 E5.65278
G1 X202.511 Y73.021 E5.68398
G1 X203.441 Y73.142 E5.71517
G1 X204.175 Y73.294 E5.7401
G1 X206.655 Y73.899 E5.825
G1 X209.133 Y74.431 E5.9093
G1 X211.607 Y74.889 E5.99298
G1 X214.069 Y75.274 E6.07586
G1 X216.566 Y75.592 E6.15959
G1 X219.088 Y75.841 E6.24388
G1 X221.604 Y76.017 E6.32776
G1 X224.089 Y76.121 E6.41049
G1 X226.613 Y76.155 E6.49444
G1 X229.137 Y76.117 E6.5784
G1 X231.667 Y76.008 E6.66263
G1 X234.163 Y75.83 E6.74586
G1 X236.646 Y75.581 E6.82885
G1 X239.181 Y75.256 E6.91386
G1 X241.663 Y74.865 E6.99743
G1 X244.12 Y74.407 E7.08056
G1 X246.579 Y73.875 E7.16424
G1 X248.942 Y73.298 E7.24514
G1 X249.862 Y73.114 E7.27634
G1 X250.794 Y73.009 E7.30754
G1 X251.731 Y72.984 E7.33871
G1 X252.668 Y73.04 E7.36993
G1 X253.596 Y73.174 E7.40112
G1 X254.509 Y73.387 E7.4323
G1 X255.401 Y73.678 E7.46351
G1 X256.265 Y74.043 E7.4947
G1 X257.094 Y74.48 E7.52587
G1 X257.884 Y74.987 E7.55709
G1 X258.627 Y75.559 E7.58828
G1 X259.319 Y76.192 E7.61947
G1 X259.954 Y76.881 E7.65064
G1 X260.529 Y77.623 E7.68186
G1 X261.038 Y78.41 E7.71303
G1 X261.478 Y79.239 E7.74425
G1 X261.846 Y80.101 E7.77542
G1 X262.14 Y80.992 E7.80663
G1 X262.356 Y81.905 E7.83783
G1 X262.494 Y82.832 E7.86901
G1 X262.553 Y83.808 E7.90153
G1 X262.563 Y84.436 E7.92242
G1 X262.563 Y88.986 E8.07375
G1 X262.553 Y89.704 E8.09763
G1 X262.516 Y90.467 E8.12304
G1 X262.305 Y92.992 E8.20732
G1 X262.163 Y95.521 E8.29156
G1 X262.092 Y98.042 E8.37545
G1 X262.094 Y100.566 E8.45939
G1 X262.165 Y103.056 E8.54225
G1 X262.309 Y105.573 E8.6261
G1 X262.469 Y107.417 E8.68766
G1 X262.52 Y108.107 E8.71067
G1 X262.549 Y108.737 E8.73165
G1 X262.563 Y109.588 E8.75996
G1 X262.563 Y113.981 E8.90607
G1 X262.552 Y114.731 E8.93102
G1 X262.464 Y115.968 E8.97226
G1 X262.344 Y116.895 E9.00335
G1 X262.197 Y117.92 E9.03779
G1 X261.916 Y120.392 E9.12054
G1 X261.7 Y122.911 E9.20463
G1 X261.555 Y125.445 E9.28905
G1 X261.484 Y127.924 E9.37154
G1 X261.482 Y130.449 E9.45552
G1 X261.553 Y132.979 E9.5397
G1 X261.693 Y135.482 E9.62308
G1 X261.906 Y137.999 E9.70709
G1 X262.192 Y140.528 E9.79175
G1 X262.542 Y143.025 E9.87561
G1 X262.648 Y144.417 E9.92204
G1 X262.657 Y145.198 E9.94802
G1 X262.656 Y149.562 E10.09317
G1 X262.646 Y150.26 E10.11638
G1 X262.609 Y151.018 E10.14162
G1 X262.398 Y153.543 E10.2259
G1 X262.256 Y156.072 E10.31015
G1 X262.185 Y158.593 E10.39403
G1 X262.187 Y161.117 E10.47798
G1 X262.258 Y163.607 E10.56083
G1 X262.402 Y166.124 E10.64468
G1 X262.562 Y167.968 E10.70624
G1 X262.613 Y168.658 E10.72926
G1 X262.641 Y169.285 E10.75013
G1 X262.657 Y170.304 E10.78403
G1 X262.656 Y174.574 E10.92605
G1 X262.645 Y175.286 E10.94973
G1 X262.59 Y176.222 E10.98092
G1 X262.513 Y176.82 E11.00097
G1 X262.371 Y177.728 E11.03154
G1 X262 Y180.331 E11.11899
G1 X261.718 Y182.802 E11.20171
G1 X261.501 Y185.342 E11.2865
G1 X261.36 Y187.842 E11.36978
G1 X261.288 Y190.337 E11.4528
G1 X261.288 Y192.862 E11.53678
G1 X261.359 Y195.418 E11.62182
G1 X261.476 Y197.586 E11.69404
G1 X261.491 Y198.041 E11.70918
G1 X261.5 Y198.824 E11.73522
G1 X261.499 Y203.188 E11.88037
G1 X261.489 Y203.885 E11.90356
G1 X261.452 Y204.643 E11.9288
G1 X261.241 Y207.169 E12.0131
G1 X261.099 Y209.698 E12.09735
G1 X261.028 Y212.219 E12.18123
G1 X261.03 Y214.743 E12.26518
G1 X261.101 Y217.233 E12.34803
G1 X261.245 Y219.75 E12.43189
G1 X261.405 Y221.594 E12.49345
G1 X261.456 Y222.284 E12.51646
G1 X261.485 Y222.914 E12.53744
G1 X261.499 Y223.765 E12.56575
G1 X261.499 Y228.153 E12.71169
G1 X261.489 Y228.877 E12.73577
G1 X261.436 Y229.813 E12.76695
G1 X261.304 Y230.742 E12.79816
G1 X261.092 Y231.656 E12.82937
G1 X260.804 Y232.548 E12.86055
G1 X260.441 Y233.413 E12.89175
G1 X260.006 Y234.243 E12.92291
G1 X259.501 Y235.034 E12.95413
G1 X258.931 Y235.779 E12.98533
G1 X258.299 Y236.472 E13.01652
G1 X257.611 Y237.109 E13.04771
G1 X256.871 Y237.685 E13.0789
G1 X256.084 Y238.196 E13.11011
G1 X255.257 Y238.638 E13.14129
G1 X254.396 Y239.008 E13.17246
G1 X253.505 Y239.304 E13.20369
G1 X252.593 Y239.522 E13.23488
G1 X251.666 Y239.662 E13.26606
G1 X250.73 Y239.722 E13.29726
G1 X249.792 Y239.703 E13.32846
G1 X248.86 Y239.604 E13.35963
G1 X247.882 Y239.411 E13.39279
G1 X245.441 Y238.815 E13.47636
G1 X242.922 Y238.275 E13.56205
G1 X240.465 Y237.82 E13.64516
G1 X237.987 Y237.432 E13.72858
G1 X235.498 Y237.115 E13.81203
G1 X232.975 Y236.866 E13.89636
G1 X230.461 Y236.69 E13.98018
G1 X227.975 Y236.586 E14.06293
G1 X225.451 Y236.552 E14.14689
G1 X222.928 Y236.59 E14.23082
G1 X220.397 Y236.699 E14.31507
G1 X217.898 Y236.877 E14.3984
G1 X215.42 Y237.125 E14.48123
G1 X212.877 Y237.451 E14.56651
G1 X210.412 Y237.84 E14.64951
G1 X207.927 Y238.304 E14.73359
G1 X205.492 Y238.83 E14.81644
G1 X203.106 Y239.413 E14.89814
G1 X202.186 Y239.596 E14.92933
G1 X201.254 Y239.701 E14.96053
G1 X200.316 Y239.726 E14.99174
G1 X199.369 Y239.669 E15.02329
G1 X196.583 Y239.382 E15.11645
G1 X194.102 Y239.199 E15.19919
G1 X191.533 Y239.082 E15.28472
G1 X189.047 Y239.039 E15.36742
G1 X186.557 Y239.067 E15.45024
G1 X184.011 Y239.167 E15.53499
G1 X181.476 Y239.339 E15.6195
G1 X178.993 Y239.579 E15.70247
G1 X176.514 Y239.888 E15.78556
G1 X174.036 Y240.269 E15.86894
G1 X172.024 Y240.641 E15.937
G1 X171.316 Y240.763 E15.96089
G1 X170.386 Y240.882 E15.99208
G1 X169.449 Y240.921 E16.02327
G1 X168.512 Y240.88 E16.05446
G1 X167.582 Y240.76 E16.08565
G1 X166.848 Y240.607 E16.11059
G1 X164.365 Y240 E16.19561
G1 X161.876 Y239.467 E16.28027
G1 X159.404 Y239.011 E16.36387
G1 X156.919 Y238.623 E16.44753
G1 X154.43 Y238.306 E16.53098
G1 X151.931 Y238.061 E16.61449
G1 X149.43 Y237.885 E16.69788
G1 X146.886 Y237.78 E16.78257
G1 X144.39 Y237.746 E16.86559
G1 X141.874 Y237.784 E16.94929
G1 X139.343 Y237.894 E17.03355
G1 X136.832 Y238.074 E17.11728
G1 X134.338 Y238.324 E17.20064
G1 X131.834 Y238.646 E17.28461
G1 X129.349 Y239.038 E17.36829
G1 X126.896 Y239.496 E17.45128
G1 X124.426 Y240.029 E17.53533
G1 X122.072 Y240.605 E17.61593
G1 X121.152 Y240.789 E17.64714
G1 X120.22 Y240.894 E17.67833
G1 X119.282 Y240.919 E17.70954
G1 X118.652 Y240.89 E17.73052
G1 X115.937 Y240.69 E17.82106
G1 X113.364 Y240.573 E17.90673
G1 X110.884 Y240.531 E17.98923
G1 X108.36 Y240.559 E18.07318
G1 X105.875 Y240.658 E18.1559
G1 X103.308 Y240.832 E18.24147
G1 X100.832 Y241.071 E18.32421
G1 X98.335 Y241.384 E18.40791
G1 X95.862 Y241.764 E18.49112
G1 X92.728 Y242.346 E18.59714
G1 X91.799 Y242.478 E18.62835
G1 X90.863 Y242.53 E18.65953
G1 X89.925 Y242.502 E18.69074
G1 X88.993 Y242.395 E18.72195
G1 X88.112 Y242.217 E18.75184
G1 X85.656 Y241.618 E18.83592
G1 X83.152 Y241.08 E18.92111
G1 X80.678 Y240.622 E19.00479
G1 X78.216 Y240.237 E19.08767
G1 X75.719 Y239.919 E19.17139
G1 X73.197 Y239.67 E19.25568
G1 X70.681 Y239.494 E19.33957
G1 X68.196 Y239.39 E19.42229
G1 X65.672 Y239.356 E19.50625
G1 X63.148 Y239.394 E19.59021
G1 X60.618 Y239.503 E19.67443
G1 X58.122 Y239.681 E19.75766
G1 X55.639 Y239.93 E19.84066
G1 X53.104 Y240.255 E19.92567
G1 X50.622 Y240.646 E20.00924
G1 X48.165 Y241.104 E20.09236
G1 X45.706 Y241.636 E20.17604
G1 X43.343 Y242.213 E20.25695
G1 X42.423 Y242.397 E20.28815
G1 X41.491 Y242.502 E20.31934
G1 X40.554 Y242.527 E20.35052
G1 X39.617 Y242.471 E20.38174
G1 X38.689 Y242.337 E20.41293
G1 X37.776 Y242.124 E20.44411
G1 X36.884 Y241.833 E20.47532
G1 X36.02 Y241.468 E20.50651
G1 X35.191 Y241.031 E20.53768
G1 X34.401 Y240.524 E20.5689
G1 X33.658 Y239.952 E20.60009
G1 X32.966 Y239.319 E20.63128
G1 X32.331 Y238.63 E20.66245
G1 X31.756 Y237.888 E20.69367
G1 X31.247 Y237.101 E20.72484
G1 X30.807 Y236.272 E20.75606
G1 X30.439 Y235.41 E20.78723
G1 X30.145 Y234.519 E20.81844
G1 X29.929 Y233.606 E20.84964
G1 X29.791 Y232.679 E20.88081
G1 X29.732 Y231.686 E20.9139
G1 X29.722 Y230.989 E20.93708
G1 X29.722 Y226.5 E21.08639
G1 X29.732 Y225.802 E21.10961
G1 X29.769 Y225.043 E21.13488
G1 X29.981 Y222.511 E21.21939
G1 X30.121 Y220.043 E21.30161
G1 X30.192 Y217.492 E21.38649
G1 X30.192 Y214.968 E21.47044
G1 X30.12 Y212.472 E21.55349
G1 X29.978 Y209.964 E21.63704
G1 X29.816 Y208.097 E21.69937
G1 X29.765 Y207.41 E21.72228
G1 X29.736 Y206.777 E21.74336
G1 X29.722 Y205.927 E21.77163
G1 X29.722 Y201.503 E21.91877
G1 X29.734 Y200.653 E21.94705
G1 X29.804 Y198.19 E22.029
G1 X29.804 Y195.666 E22.11295
G1 X29.733 Y193.142 E22.19693
G1 X29.591 Y190.606 E22.28141
G1 X29.381 Y188.124 E22.36426
G1 X29.097 Y185.62 E22.44807
G1 X28.74 Y183.111 E22.53237
G1 X28.315 Y180.623 E22.61631
G1 X27.801 Y178.051 E22.70355
G1 X27.656 Y177.125 E22.73473
G1 X27.588 Y176.073 E22.76979
G1 X27.577 Y175.397 E22.79228
G1 X27.577 Y170.854 E22.94338
G1 X27.587 Y170.156 E22.96659
G1 X27.624 Y169.398 E22.99184
G1 X27.835 Y166.873 E23.07611
G1 X27.977 Y164.344 E23.16036
G1 X28.048 Y161.823 E23.24424
G1 X28.046 Y159.299 E23.32819
G1 X27.975 Y156.809 E23.41104
G1 X27.831 Y154.292 E23.49489
G1 X27.671 Y152.448 E23.55645
G1 X27.62 Y151.758 E23.57947
G1 X27.591 Y151.128 E23.60044
G1 X27.577 Y150.277 E23.62875
G1 X27.577 Y145.854 E23.77586
G1 X27.587 Y145.156 E23.79908
G1 X27.655 Y144.082 E23.83487
G1 X27.958 Y141.391 E23.92494
G1 X28.172 Y138.874 E24.00896
G1 X28.313 Y136.358 E24.09277
G1 X28.384 Y133.833 E24.17679
G1 X28.384 Y131.31 E24.2607
G1 X28.313 Y128.825 E24.34339
G1 X28.169 Y126.304 E24.42737
G1 X27.953 Y123.78 E24.51163
G1 X27.67 Y121.296 E24.59478
G1 X27.312 Y118.778 E24.67937
G1 X27.083 Y117.425 E24.72501
G1 X26.994 Y116.831 E24.74499
G1 X26.895 Y115.898 E24.7762
G1 X26.874 Y115.338 E24.79483
G1 X26.865 Y114.557 E24.82081
G1 X26.866 Y110.193 E24.96596
G1 X26.876 Y109.495 E24.98918
G1 X26.913 Y108.737 E25.01442
G1 X27.124 Y106.212 E25.09869
G1 X27.266 Y103.683 E25.18294
G1 X27.337 Y101.162 E25.26682
G1 X27.335 Y98.638 E25.35077
G1 X27.264 Y96.148 E25.43362
G1 X27.12 Y93.628 E25.51757
G1 X26.959 Y91.773 E25.5795
G1 X26.909 Y91.096 E25.60208
G1 X26.88 Y90.462 E25.62319
G1 X26.866 Y89.589 E25.65223
G1 X26.866 Y85.156 E25.79967
G1 X26.876 Y84.491 E25.82179
G1 X26.93 Y83.554 E25.85301
G1 X27.064 Y82.626 E25.8842
G1 X27.276 Y81.712 E25.9154
G1 X27.565 Y80.82 E25.94659
G1 X27.93 Y79.956 E25.97778
G1 X28.366 Y79.126 E26.00897
G1 X28.872 Y78.336 E26.04017
G1 X29.443 Y77.592 E26.07136
G1 X30.075 Y76.899 E26.10256
G1 X30.764 Y76.263 E26.13375
G1 X31.505 Y75.688 E26.16494
G1 X32.292 Y75.178 E26.19613
G1 X33.12 Y74.737 E26.22733
G0 F6000 X33.492 Y75.005
G1 F1200 X34.346 Y74.661 E26.25796
G1 X35.226 Y74.392 E26.28856
G1 X36.127 Y74.201 E26.3192
G1 X37.041 Y74.089 E26.34982
G1 X37.961 Y74.056 E26.38044
G1 X38.88 Y74.104 E26.41105
G1 X39.792 Y74.231 E26.44168
G1 X40.388 Y74.358 E26.46194
G1 X42.884 Y74.967 E26.5474
G1 X45.358 Y75.498 E26.63156
G1 X47.803 Y75.951 E26.71426
G1 X50.332 Y76.346 E26.7994
G1 X52.818 Y76.663 E26.88275
G1 X55.355 Y76.913 E26.96754
G1 X57.86 Y77.089 E27.05106
G1 X60.403 Y77.195 E27.13572
G1 X62.914 Y77.229 E27.21924
G1 X65.46 Y77.191 E27.30393
G1 X67.978 Y77.082 E27.38776
G1 X70.502 Y76.902 E27.47192
G1 X73 Y76.652 E27.55542
G1 X75.529 Y76.328 E27.64022
G1 X78.023 Y75.935 E27.72419
G1 X80.517 Y75.469 E27.80858
G1 X82.983 Y74.936 E27.89249
G1 X85.358 Y74.357 E27.9738
G1 X86.261 Y74.178 E28.00442
G1 X87.176 Y74.078 E28.03503
G1 X88.097 Y74.057 E28.06567
G1 X89.016 Y74.117 E28.0963
G1 X89.525 Y74.185 E28.11338
G1 X91.811 Y74.547 E28.19036
G1 X94.325 Y74.876 E28.27469
G1 X96.844 Y75.134 E28.35891
G1 X99.36 Y75.321 E28.44283
G1 X101.905 Y75.437 E28.52756
G1 X104.42 Y75.48 E28.61122
G1 X106.927 Y75.454 E28.69461
G1 X109.469 Y75.354 E28.77922
G1 X112.007 Y75.182 E28.86383
G1 X114.485 Y74.944 E28.94663
G1 X117.101 Y74.617 E29.03432
G1 X119.019 Y74.337 E29.09878
G1 X119.935 Y74.243 E29.12941
G1 X120.856 Y74.229 E29.16005
G1 X121.774 Y74.296 E29.19066
G1 X123.067 Y74.527 E29.23435
G1 X125.566 Y75.137 E29.3199
G1 X128.009 Y75.662 E29.40301
G1 X130.545 Y76.131 E29.48879
G1 X133.015 Y76.517 E29.57194
G1 X135.496 Y76.833 E29.65513
G1 X138.044 Y77.084 E29.74028
G1 X140.547 Y77.26 E29.82374
G1 X143.089 Y77.366 E29.90836
G1 X145.6 Y77.4 E29.99188
G1 X148.146 Y77.362 E30.07657
G1 X150.666 Y77.253 E30.16047
G1 X153.183 Y77.074 E30.24439
G1 X155.688 Y76.823 E30.32813
G1 X158.21 Y76.499 E30.4127
G1 X160.714 Y76.105 E30.49701
G1 X163.193 Y75.642 E30.58089
G1 X165.667 Y75.108 E30.66507
G1 X168.042 Y74.528 E30.74638
G1 X168.945 Y74.348 E30.77701
G1 X169.86 Y74.248 E30.80762
G1 X170.78 Y74.227 E30.83823
G1 X171.786 Y74.297 E30.87177
G1 X172.896 Y74.427 E30.90894
