;FLAVOR:Marlin
;TIME:9519
;Filament used: 4.25536m
;Layer height: 0.2
;MINX:118.416
;MINY:109.522
;MINZ:0.32
;MAXX:181.444
;MAXY:181.998
;MAXZ:64.92
;Generated with Cura_SteamEngine 5.2.1
M140 S60
M105
M190 S60
M104 S200
M105
M109 S200
M82 ;absolute extrusion mode
; Ender 3 Max Custom Start G-code
G92 E0 ; Reset Extruder
G28 ; Home all axes
G1 Z2.0 F3000 ; Move Z Axis up little to prevent scratching of Heat Bed
G1 X0.1 Y20 Z0.3 F5000.0 ; Move to start position
G1 X0.1 Y200.0 Z0.3 F1500.0 E15 ; Draw the first line
G1 X0.4 Y200.0 Z0.3 F5000.0 ; Move to side a little
G1 X0.4 Y20 Z0.3 F1500.0 E30 ; Draw the second line
G92 E0 ; Reset Extruder
G1 Z2.0 F3000 ; Move Z Axis up little to prevent scratching of Heat Bed
G1 X5 Y20 Z0.3 F5000.0 ; Move over to prevent blob squish
G92 E0
G92 E0
G1 F1500 E-6.5
;LAYER_COUNT:325
;LAYER:0
M107
G0 F6000 X122.478 Y117.702 Z0.32
;TYPE:SKIRT
G1 F1500 E0
G1 F900 X123.144 Y117.062 E0.05407
G1 X123.784 Y116.54 E0.10241
G1 X124.481 Y116.016 E0.15346
G1 X126.405 Y114.615 E0.29278
G1 X126.987 Y114.203 E0.33452
G1 X127.763 Y113.703 E0.38856
G1 X128.579 Y113.272 E0.44258
G1 X129.397 Y112.925 E0.4946
G1 X130.998 Y112.323 E0.59472
G1 X132.111 Y111.884 E0.66476
G1 X132.791 Y111.627 E0.70731
G1 X133.668 Y111.34 E0.76133
G1 X134.514 Y111.14 E0.81222
G1 X135.154 Y111.016 E0.85038
G1 X136.606 Y110.756 E0.93673
G1 X139.062 Y110.246 E1.08356
G1 X139.943 Y110.037 E1.13657
G1 X140.986 Y109.804 E1.19913
G1 X141.895 Y109.642 E1.25318
G1 X143.101 Y109.551 E1.32397
G1 X144.055 Y109.534 E1.37983
G1 X147.327 Y109.522 E1.57136
G1 X148.239 Y109.531 E1.62475
G1 X149.049 Y109.558 E1.6722
G1 X151.703 Y109.623 E1.8276
G1 X154.237 Y109.614 E1.97594
G1 X155.776 Y109.564 E2.06607
G1 X156.476 Y109.55 E2.10706
G1 X157.399 Y109.572 E2.16111
G1 X158.593 Y109.719 E2.23153
G1 X159.155 Y109.821 E2.26496
G1 X160.819 Y110.146 E2.36421
G1 X163.353 Y110.567 E2.51458
G1 X164.735 Y110.76 E2.59626
G1 X165.263 Y110.842 E2.62754
G1 X166.168 Y111.026 E2.6816
G1 X167.053 Y111.287 E2.73561
G1 X167.913 Y111.624 E2.78968
G1 X168.74 Y112.034 E2.84372
G1 X169.731 Y112.653 E2.91211
G1 X170.573 Y113.247 E2.97243
G1 X171.854 Y114.18 E3.0652
G1 X172.402 Y114.591 E3.1053
G1 X173.116 Y115.176 E3.15933
G1 X173.777 Y115.821 E3.2134
G1 X174.379 Y116.521 E3.26744
G1 X175.049 Y117.475 E3.33568
G1 X175.266 Y117.823 E3.35969
G1 X175.866 Y118.748 E3.42423
G1 X176.518 Y119.783 E3.49584
G1 X177.11 Y120.855 E3.56752
G1 X177.832 Y122.361 E3.66529
G1 X178.673 Y124.054 E3.77595
G1 X179.203 Y125.32 E3.85629
G1 X179.482 Y126.129 E3.90638
G1 X179.948 Y127.557 E3.99431
G1 X180.214 Y128.412 E4.04673
G1 X180.449 Y129.305 E4.10078
G1 X180.606 Y130.215 E4.15484
G1 X180.663 Y130.782 E4.1882
G1 X180.743 Y131.88 E4.25264
G1 X180.789 Y132.655 E4.29809
G1 X181.009 Y135.131 E4.4436
G1 X181.375 Y138.213 E4.62528
G1 X181.444 Y139.134 E4.67935
G1 X181.433 Y140.057 E4.73338
G1 X181.348 Y140.932 E4.78484
G1 X180.986 Y143.549 E4.93949
G1 X180.706 Y146.09 E5.08914
G1 X180.569 Y147.558 E5.17545
G1 X180.414 Y148.626 E5.23862
G1 X179.861 Y151.433 E5.40609
G1 X179.447 Y153.902 E5.55264
G1 X179.327 Y154.758 E5.60324
G1 X179.189 Y155.658 E5.65654
G1 X178.71 Y158.507 E5.82566
G1 X178.328 Y161.274 E5.98917
G1 X178.162 Y162.182 E6.0432
G1 X177.972 Y162.898 E6.08656
G1 X177.726 Y163.708 E6.13612
G1 X176.063 Y168.94 E6.45749
G1 X175.799 Y169.732 E6.50636
G1 X175.468 Y170.594 E6.56041
G1 X175.064 Y171.424 E6.61444
G1 X174.59 Y172.216 E6.66847
G1 X174.077 Y172.928 E6.71984
G1 X173.393 Y173.797 E6.78458
G1 X172.812 Y174.51 E6.83842
G1 X172.347 Y175.066 E6.88085
G1 X171.725 Y175.748 E6.93488
G1 X171.046 Y176.373 E6.98891
G1 X170.352 Y176.912 E7.04034
G1 X169.724 Y177.359 E7.08547
G1 X166.924 Y179.289 E7.28454
G1 X166.342 Y179.678 E7.32552
G1 X165.553 Y180.157 E7.37955
G1 X164.725 Y180.566 E7.43361
G1 X163.597 Y180.99 E7.50415
G1 X162.44 Y181.347 E7.57503
G1 X161.575 Y181.59 E7.62762
G1 X160.676 Y181.801 E7.68168
G1 X159.763 Y181.933 E7.73568
G1 X158.855 Y181.986 E7.78892
G1 X158.069 Y181.998 E7.83494
G1 X156.413 Y181.998 E7.93188
G1 X155.719 Y181.988 E7.97251
G1 X154.798 Y181.935 E8.02651
G1 X153.884 Y181.802 E8.08058
G1 X152.985 Y181.59 E8.13465
G1 X152.108 Y181.302 E8.18868
G1 X151.259 Y180.939 E8.24273
G1 X150.445 Y180.504 E8.29676
G1 X149.753 Y180.057 E8.34498
G1 X148.864 Y179.432 E8.4086
G1 X147.892 Y178.724 E8.47899
G1 X147.185 Y178.194 E8.53071
G1 X146.265 Y177.419 E8.60113
G1 X145.432 Y176.632 E8.66821
G1 X143.496 Y174.856 E8.82201
G1 X141.554 Y173.174 E8.9724
G1 X139.627 Y171.595 E9.11823
G1 X137.565 Y170.002 E9.27076
G1 X135.851 Y168.731 E9.39567
G1 X135.133 Y168.15 E9.44974
G1 X134.469 Y167.509 E9.50377
G1 X133.849 Y166.795 E9.55912
G1 X132.914 Y165.617 E9.64716
G1 X132.372 Y164.87 E9.70118
G1 X131.897 Y164.078 E9.75524
G1 X131.64 Y163.575 E9.78831
G1 X130.67 Y161.54 E9.92028
G1 X129.775 Y159.751 E10.03737
G1 X129.241 Y158.713 E10.10571
G1 X128.854 Y157.874 E10.15979
G1 X128.464 Y156.742 E10.22988
G1 X128.047 Y155.27 E10.31944
G1 X127.327 Y152.798 E10.47016
G1 X126.543 Y150.367 E10.61968
G1 X125.694 Y147.964 E10.76887
G1 X124.806 Y145.667 E10.91303
G1 X123.811 Y143.291 E11.06381
G1 X122.768 Y140.985 E11.21197
G1 X121.807 Y139.002 E11.34096
G1 X120.711 Y136.857 E11.48197
G1 X120.327 Y136.017 E11.53603
G1 X120.127 Y135.485 E11.5693
G1 X119.793 Y134.512 E11.62952
G1 X119.086 Y132.335 E11.76351
G1 X118.884 Y131.683 E11.80347
G1 X118.65 Y130.79 E11.85751
G1 X118.493 Y129.88 E11.91156
G1 X118.416 Y128.96 E11.96561
G1 X118.418 Y128.037 E12.01964
G1 X118.501 Y127.117 E12.07371
G1 X118.662 Y126.208 E12.12775
G1 X118.873 Y125.411 E12.17601
G1 X119.183 Y124.404 E12.23769
G1 X119.884 Y122.255 E12.37001
G1 X120.101 Y121.619 E12.40935
G1 X120.437 Y120.759 E12.4634
G1 X120.846 Y119.931 E12.51746
G1 X121.325 Y119.142 E12.57149
G1 X121.342 Y119.119 E12.57316
G0 F810 X121.87 Y118.397
G0 X122.478 Y117.702
G0 F6000 X122.862 Y117.938
G1 F900 X123.52 Y117.318 E12.62609
G1 X124.049 Y116.892 E12.66584
G1 X124.871 Y116.275 E12.72601
G1 X126.548 Y115.054 E12.84744
G1 X127.241 Y114.563 E12.89716
G1 X128.001 Y114.073 E12.95009
G1 X128.802 Y113.653 E13.00304
G1 X129.551 Y113.337 E13.05062
G1 X131.161 Y112.732 E13.1513
G1 X132.273 Y112.293 E13.22129
G1 X132.945 Y112.039 E13.26334
G1 X133.805 Y111.758 E13.3163
G1 X134.598 Y111.572 E13.36398
G1 X135.388 Y111.42 E13.41108
G1 X136.666 Y111.192 E13.48707
G1 X139.188 Y110.668 E13.63785
G1 X140.183 Y110.433 E13.6977
G1 X141.081 Y110.233 E13.75156
G1 X141.971 Y110.076 E13.80446
G1 X143.109 Y109.991 E13.87126
G1 X144.057 Y109.974 E13.92676
G1 X147.329 Y109.962 E14.1183
G1 X148.515 Y109.977 E14.18773
G1 X149.096 Y109.999 E14.22177
G1 X151.694 Y110.063 E14.37389
G1 X154.218 Y110.054 E14.52164
G1 X155.658 Y110.007 E14.60598
G1 X156.485 Y109.99 E14.6544
G1 X157.388 Y110.012 E14.70728
G1 X158.514 Y110.152 E14.7737
G1 X159.076 Y110.254 E14.80714
G1 X160.735 Y110.578 E14.90609
G1 X163.299 Y111.004 E15.05823
G1 X164.674 Y111.196 E15.1395
G1 X165.194 Y111.277 E15.17031
G1 X166.08 Y111.457 E15.22324
G1 X166.946 Y111.715 E15.27613
G1 X167.786 Y112.049 E15.32905
G1 X168.594 Y112.456 E15.38201
G1 X169.478 Y113.012 E15.44314
G1 X170.183 Y113.508 E15.4936
G1 X171.59 Y114.532 E15.59547
G1 X172.138 Y114.943 E15.63556
G1 X172.836 Y115.517 E15.68846
G1 X173.482 Y116.15 E15.74141
G1 X174.068 Y116.838 E15.79431
G1 X174.676 Y117.708 E15.85644
G1 X175.42 Y118.868 E15.93711
G1 X176.145 Y120.018 E16.01669
G1 X176.713 Y121.046 E16.08545
G1 X177.435 Y122.551 E16.18316
G1 X178.278 Y124.249 E16.29413
G1 X178.787 Y125.463 E16.37119
G1 X179.123 Y126.442 E16.43178
G1 X179.53 Y127.693 E16.50879
G1 X179.794 Y128.542 E16.56083
G1 X180.023 Y129.417 E16.61378
G1 X180.174 Y130.308 E16.66668
G1 X180.224 Y130.815 E16.6965
G1 X180.304 Y131.906 E16.76054
G1 X180.351 Y132.686 E16.80628
G1 X180.573 Y135.188 E16.95332
G1 X180.938 Y138.265 E17.1347
G1 X181.004 Y139.166 E17.18759
G1 X180.991 Y140.07 E17.24051
G1 X180.912 Y140.872 E17.28768
G1 X180.551 Y143.478 E17.44169
G1 X180.267 Y146.063 E17.59392
G1 X180.131 Y147.517 E17.67941
G1 X179.982 Y148.54 E17.73992
G1 X179.431 Y151.335 E17.90669
G1 X179.011 Y153.841 E18.05543
G1 X178.892 Y154.691 E18.10567
G1 X178.754 Y155.591 E18.15897
G1 X178.275 Y158.445 E18.32837
G1 X177.892 Y161.213 E18.49195
G1 X177.729 Y162.102 E18.54486
G1 X177.551 Y162.771 E18.58538
G1 X177.307 Y163.575 E18.63457
G1 X175.644 Y168.807 E18.95593
G1 X175.382 Y169.593 E19.00443
G1 X175.057 Y170.436 E19.05732
G1 X174.659 Y171.248 E19.11026
G1 X174.191 Y172.021 E19.16315
G1 X173.731 Y172.657 E19.2091
G1 X173.162 Y173.382 E19.26305
G1 X172.475 Y174.228 E19.32685
G1 X172.01 Y174.784 E19.36928
G1 X171.4 Y175.451 E19.42219
G1 X170.733 Y176.061 E19.4751
G1 X170.096 Y176.553 E19.52221
G1 X169.342 Y177.089 E19.57637
G1 X166.8 Y178.841 E19.75709
G1 X166.097 Y179.312 E19.80662
G1 X165.324 Y179.78 E19.85952
G1 X164.513 Y180.179 E19.91243
G1 X163.466 Y180.57 E19.97785
G1 X162.605 Y180.839 E20.03066
G1 X161.456 Y181.166 E20.10059
G1 X160.576 Y181.372 E20.15349
G1 X159.681 Y181.499 E20.20641
G1 X158.848 Y181.546 E20.25525
G1 X158.062 Y181.558 E20.30127
G1 X156.42 Y181.558 E20.39738
G1 X155.726 Y181.548 E20.43801
G1 X154.823 Y181.495 E20.49096
G1 X153.929 Y181.362 E20.54387
G1 X153.05 Y181.151 E20.59679
G1 X152.193 Y180.864 E20.64969
G1 X151.365 Y180.501 E20.70262
G1 X150.572 Y180.067 E20.75554
G1 X150.005 Y179.697 E20.79517
G1 X149.272 Y179.183 E20.84757
G1 X148.151 Y178.368 E20.92871
G1 X147.449 Y177.842 E20.98005
G1 X146.567 Y177.099 E21.04756
G1 X145.721 Y176.301 E21.11564
G1 X143.787 Y174.526 E21.26931
G1 X141.867 Y172.862 E21.41804
G1 X139.882 Y171.236 E21.56824
G1 X137.84 Y169.658 E21.71931
G1 X136.113 Y168.378 E21.84514
G1 X135.411 Y167.808 E21.89808
G1 X134.762 Y167.178 E21.95102
G1 X134.194 Y166.522 E22.00182
G1 X133.259 Y165.344 E22.08986
G1 X132.729 Y164.611 E22.14281
G1 X132.266 Y163.835 E22.1957
G1 X132.038 Y163.386 E22.22518
G1 X131.068 Y161.351 E22.35715
G1 X130.201 Y159.617 E22.47063
G1 X129.632 Y158.511 E22.54344
G1 X129.255 Y157.69 E22.59633
G1 X128.887 Y156.622 E22.66245
G1 X128.47 Y155.15 E22.75201
G1 X127.74 Y152.647 E22.90463
G1 X126.963 Y150.236 E23.05292
G1 X126.112 Y147.829 E23.20236
G1 X125.203 Y145.477 E23.34997
G1 X124.211 Y143.108 E23.50031
G1 X123.171 Y140.807 E23.64813
G1 X122.201 Y138.806 E23.7783
G1 X121.103 Y136.657 E23.91957
G1 X120.728 Y135.834 E23.97251
G1 X120.543 Y135.341 E24.00333
G1 X120.27 Y134.55 E24.05232
G1 X119.55 Y132.34 E24.18838
G1 X119.305 Y131.552 E24.23668
G1 X119.076 Y130.678 E24.28957
G1 X118.925 Y129.787 E24.34247
G1 X118.853 Y128.886 E24.39538
G1 X118.862 Y127.982 E24.4483
G1 X118.95 Y127.082 E24.50124
G1 X119.117 Y126.194 E24.55413
G1 X119.294 Y125.54 E24.59379
G1 X119.601 Y124.54 E24.65503
G1 X120.256 Y122.53 E24.77878
G1 X120.518 Y121.761 E24.82634
G1 X120.847 Y120.919 E24.87925
G1 X121.25 Y120.11 E24.93216
G1 X121.717 Y119.348 E24.98448
G0 F810 X121.722 Y119.339
G0 X122.261 Y118.613
G0 X122.862 Y117.938
G1 F1500 E18.48448
G0 F6000 X143.999 Y124.521
G0 X144.326 Y124.626
G1 F1500 E24.98448
G1 F900 X144.676 Y124.372 E25.00979
G1 X146.977 Y124.363 E25.14449
G1 X147.083 Y124.411 E25.1513
G1 X147.638 Y124.573 E25.18514
G1 X148.21 Y124.657 E25.21899
G1 X148.608 Y124.668 E25.24229
G1 X153.708 Y124.569 E25.54089
G1 X155.447 Y124.462 E25.64288
G1 X155.739 Y124.675 E25.66404
G1 X155.824 Y124.794 E25.6726
G1 X155.034 Y125.329 E25.72845
G1 X149.903 Y125.369 E26.02882
G1 X149.327 Y125.414 E26.06264
G1 X148.763 Y125.537 E26.09643
G1 X148.22 Y125.737 E26.13031
G1 X147.787 Y125.969 E26.15906
G1 X146.668 Y125.946 E26.22458
G1 X146.091 Y125.975 E26.2584
G1 X145.512 Y126.088 E26.29293
G1 X145.339 Y125.861 E26.30964
G1 X145.304 Y125.826 E26.31254
G0 F810 X144.93 Y125.453
G0 X144.534 Y125.14
G0 X144.143 Y124.896
G0 X144.326 Y124.626
G0 F6000 X143.975 Y124.338
G1 F900 X144.533 Y123.932 E26.35293
G1 X147.073 Y123.923 E26.50162
G1 X147.291 Y124.018 E26.51554
G1 X147.819 Y124.161 E26.54756
G1 X148.6 Y124.228 E26.59345
G1 X153.681 Y124.13 E26.89093
G1 X155.577 Y124.013 E27.00213
G1 X156.077 Y124.377 E27.03833
G1 X156.161 Y124.52 E27.04804
G1 X156.5 Y124.939 E27.07959
G1 X156.005 Y125.202 E27.1124
G1 X155.169 Y125.768 E27.1715
G1 X149.907 Y125.809 E27.47954
G1 X149.362 Y125.853 E27.51155
G1 X148.829 Y125.976 E27.54357
G1 X148.32 Y126.176 E27.57558
G1 X147.885 Y126.425 E27.60492
G1 X147.722 Y126.405 E27.61453
G1 X146.66 Y126.386 E27.67671
G1 X146.114 Y126.416 E27.70872
G1 X145.579 Y126.525 E27.74068
G1 X145.342 Y126.611 E27.75544
G1 X145.131 Y126.298 E27.77754
G1 X144.762 Y125.895 E27.80952
G1 X144.298 Y125.509 E27.84485
G0 F810 X144.296 Y125.508
G0 X143.739 Y125.163
G0 X143.473 Y125.048
G0 X143.833 Y124.588
G0 X143.975 Y124.338
G0 F6000 X143.651 Y124.03
G1 F900 X144.388 Y123.493 E27.89823
G1 X147.162 Y123.483 E28.06062
G1 X147.496 Y123.623 E28.08182
G1 X147.995 Y123.745 E28.11189
G1 X148.592 Y123.788 E28.14693
G1 X153.654 Y123.691 E28.4433
G1 X155.709 Y123.565 E28.56382
G1 X156.409 Y124.075 E28.61452
G1 X156.559 Y124.32 E28.63134
G1 X156.891 Y124.712 E28.66141
G1 X157.34 Y125.099 E28.69611
G1 X157.066 Y125.167 E28.71263
G1 X156.592 Y125.365 E28.7427
G1 X156.252 Y125.567 E28.76585
G1 X155.306 Y126.207 E28.83271
G1 X149.91 Y126.249 E29.14859
G1 X149.399 Y126.293 E29.17862
G1 X148.9 Y126.416 E29.2087
G1 X148.427 Y126.614 E29.23872
G1 X148.009 Y126.872 E29.26747
G1 X147.714 Y126.845 E29.28481
G1 X146.652 Y126.826 E29.34699
G1 X146.14 Y126.856 E29.37701
G1 X145.638 Y126.966 E29.4071
G1 X145.154 Y127.157 E29.43755
G1 X144.887 Y126.707 E29.46818
G1 X144.559 Y126.313 E29.49819
G1 X144.048 Y125.87 E29.53778
G1 X143.508 Y125.539 E29.57486
G1 X143.034 Y125.342 E29.60491
G1 X142.785 Y125.28 E29.61993
G0 F810 X142.59 Y125.233
G0 X143.03 Y124.868
G0 X143.368 Y124.482
G0 X143.651 Y124.03
G0 F6000 X143.199 Y123.943
G1 F900 X143.284 Y123.752 E29.63217
G1 X144.244 Y123.054 E29.70165
G1 X147.244 Y123.042 E29.87726
G1 X147.697 Y123.225 E29.90586
G1 X148.164 Y123.325 E29.93382
G1 X148.583 Y123.349 E29.95838
G1 X153.505 Y123.257 E30.24656
G1 X155.841 Y123.116 E30.38355
G1 X156.733 Y123.766 E30.44816
G1 X156.955 Y124.116 E30.47242
G1 X157.274 Y124.471 E30.50036
G1 X157.649 Y124.769 E30.5284
G1 X158.067 Y125 E30.55636
G1 X158.518 Y125.158 E30.58433
G1 X158.989 Y125.238 E30.6123
G1 X159.467 Y125.24 E30.64028
G1 X159.938 Y125.161 E30.66823
G1 X160.39 Y125.005 E30.69622
G1 X160.918 Y124.702 E30.73186
G1 X161.576 Y124.223 E30.7795
G1 X162.681 Y124.223 E30.84419
G1 X163.578 Y124.876 E30.90914
G1 X163.763 Y125.314 E30.93697
G1 X164.092 Y125.81 E30.97181
G1 X165.005 Y126.915 E31.05572
G1 X166.03 Y129.532 E31.22024
G1 X166.241 Y129.961 E31.24823
G1 X166.52 Y130.349 E31.2762
G1 X166.689 Y130.505 E31.28967
G1 X167.034 Y131.566 E31.35498
G1 X166.716 Y132.545 E31.41523
G1 X166.258 Y132.878 E31.44838
G1 X165.897 Y133.191 E31.47635
G1 X165.593 Y133.559 E31.50429
G1 X165.354 Y133.973 E31.53227
G1 X165.187 Y134.421 E31.56026
G1 X165.118 Y134.784 E31.58189
G1 X165.06 Y134.422 E31.60335
G1 X164.906 Y133.969 E31.63136
G1 X164.679 Y133.549 E31.65931
G1 X164.436 Y133.229 E31.68283
G1 X163.904 Y132.622 E31.73008
G1 X161.502 Y128.606 E32.004
G1 X160.627 Y126.958 E32.11323
G1 X160.368 Y126.556 E32.14122
G1 X160.046 Y126.203 E32.16919
G1 X159.67 Y125.909 E32.19713
G1 X159.25 Y125.681 E32.22511
G1 X158.797 Y125.526 E32.25313
G1 X158.326 Y125.449 E32.28107
G1 X157.848 Y125.451 E32.30905
G1 X157.377 Y125.533 E32.33704
G1 X156.926 Y125.692 E32.36503
G1 X156.498 Y125.931 E32.39373
G1 X155.442 Y126.646 E32.46838
G1 X149.914 Y126.689 E32.79199
G1 X149.438 Y126.733 E32.81997
G1 X148.976 Y126.855 E32.84794
