;FLAVOR:Marlin
;TIME:9843
;Filament used: 5.84323m
;Layer height: 0.2
;MINX:60.893
;MINY:57.497
;MINZ:0.2
;MAXX:227.861
;MAXY:252.433
;MAXZ:14.6
;Generated with Cura_SteamEngine 5.2.1
M140 S60
M105
M190 S60
M104 S200
M105
M109 S200
M82 ;absolute extrusion mode
; Ender 3 Max Custom Start G-code
G92 E0 ; Reset Extruder
G28 ; Home all axes
G1 Z2.0 F3000 ; Move Z Axis up little to prevent scratching of Heat Bed
G1 X0.1 Y20 Z0.3 F5000.0 ; Move to start position
G1 X0.1 Y200.0 Z0.3 F1500.0 E15 ; Draw the first line
G1 X0.4 Y200.0 Z0.3 F5000.0 ; Move to side a little
G1 X0.4 Y20 Z0.3 F1500.0 E30 ; Draw the second line
G92 E0 ; Reset Extruder
G1 Z2.0 F3000 ; Move Z Axis up little to prevent scratching of Heat Bed
G1 X5 Y20 Z0.3 F5000.0 ; Move over to prevent blob squish
G92 E0
G92 E0
G1 F1500 E-6.5
;LAYER_COUNT:73
;LAYER:0
M107
G0 F6000 X79.452 Y68.809 Z0.2
;TYPE:SKIRT
G1 F1500 E0
G1 F1200 X80.092 Y68.123 E0.0312
G1 X80.788 Y67.495 E0.06238
G1 X81.535 Y66.928 E0.09358
G1 X82.328 Y66.427 E0.12477
G1 X82.851 Y66.146 E0.14452
G1 X83.945 Y65.595 E0.18526
G1 X84.483 Y65.333 E0.20516
G1 X86.67 Y64.192 E0.28721
G1 X88.902 Y62.946 E0.37223
G1 X91.006 Y61.691 E0.45371
G1 X93.654 Y59.998 E0.55825
G1 X94.646 Y59.341 E0.59782
G1 X95.449 Y58.857 E0.62901
G1 X96.291 Y58.443 E0.66021
G1 X97.164 Y58.103 E0.69137
G1 X98.064 Y57.837 E0.72259
G1 X98.983 Y57.65 E0.75378
G1 X99.914 Y57.542 E0.78495
G1 X100.528 Y57.514 E0.8054
G1 X101.582 Y57.497 E0.84046
G1 X104.946 Y57.499 E0.95234
G1 X105.619 Y57.509 E0.97473
G1 X106.401 Y57.549 E1.00077
G1 X109.206 Y57.791 E1.09442
G1 X111.732 Y57.935 E1.17857
G1 X114.221 Y58.006 E1.26138
G1 X116.745 Y58.008 E1.34533
G1 X119.266 Y57.937 E1.42922
G1 X121.834 Y57.793 E1.51476
G1 X123.637 Y57.647 E1.57493
G1 X124.667 Y57.554 E1.60932
G1 X125.273 Y57.516 E1.62952
G1 X125.876 Y57.501 E1.64958
G1 X129.728 Y57.497 E1.7777
G1 X130.569 Y57.508 E1.80567
G1 X131.506 Y57.562 E1.83689
G1 X132.434 Y57.696 E1.86807
G1 X133.18 Y57.863 E1.8935
G1 X135.854 Y58.56 E1.98541
G1 X138.33 Y59.13 E2.06992
G1 X140.784 Y59.623 E2.15317
G1 X143.267 Y60.049 E2.23696
G1 X145.748 Y60.402 E2.32031
G1 X148.267 Y60.688 E2.40463
G1 X150.759 Y60.901 E2.48782
G1 X153.257 Y61.043 E2.57103
G1 X155.804 Y61.115 E2.65578
G1 X158.291 Y61.115 E2.7385
G1 X160.819 Y61.043 E2.82261
G1 X162.495 Y60.943 E2.87846
G1 X163.843 Y60.881 E2.92334
G1 X165.154 Y60.859 E2.96695
G1 X171.6 Y60.86 E3.18134
G1 X172.301 Y60.87 E3.20466
G1 X173.237 Y60.923 E3.23584
G1 X174.166 Y61.056 E3.26706
G1 X175.079 Y61.268 E3.29823
G1 X175.972 Y61.556 E3.32944
G1 X176.836 Y61.92 E3.36062
G1 X177.667 Y62.356 E3.39184
G1 X178.457 Y62.861 E3.42302
G1 X179.201 Y63.431 E3.45419
G1 X179.894 Y64.063 E3.48539
G1 X180.531 Y64.752 E3.5166
G1 X181.107 Y65.492 E3.54779
G1 X181.586 Y66.226 E3.57694
G1 X182.176 Y67.214 E3.61521
G1 X183.595 Y69.517 E3.70518
G1 X184.951 Y71.584 E3.78741
G1 X186.387 Y73.642 E3.87087
G1 X187.906 Y75.693 E3.95576
G1 X189.435 Y77.64 E4.0381
G1 X191.075 Y79.61 E4.12335
G1 X192.716 Y81.474 E4.20595
G1 X194.446 Y83.331 E4.29037
G1 X196.203 Y85.11 E4.37353
G1 X198.03 Y86.86 E4.45767
G1 X199.892 Y88.544 E4.54118
G1 X201.807 Y90.181 E4.62497
G1 X203.772 Y91.767 E4.70896
G1 X205.772 Y93.288 E4.79253
G1 X207.859 Y94.786 E4.87797
G1 X209.143 Y95.671 E4.92984
G1 X209.892 Y96.236 E4.96105
G1 X210.59 Y96.862 E4.99223
G1 X211.232 Y97.546 E5.02343
G1 X211.813 Y98.282 E5.05462
G1 X212.352 Y99.102 E5.08726
G1 X212.799 Y99.854 E5.11635
G1 X226.124 Y122.938 E6.00286
G1 X226.453 Y123.524 E6.02522
G1 X226.877 Y124.361 E6.05642
G1 X227.228 Y125.23 E6.08759
G1 X227.503 Y126.127 E6.1188
G1 X227.702 Y127.043 E6.14998
G1 X227.821 Y127.974 E6.18119
G1 X227.861 Y128.911 E6.21239
G1 X227.821 Y129.848 E6.24358
G1 X227.701 Y130.778 E6.27477
G1 X227.587 Y131.349 E6.29413
G1 X227.421 Y132.072 E6.31881
G1 X227.058 Y133.557 E6.36965
G1 X226.52 Y136.069 E6.4551
G1 X226.065 Y138.528 E6.53827
G1 X225.681 Y140.994 E6.62128
G1 X225.362 Y143.501 E6.70533
G1 X225.117 Y146 E6.78885
G1 X224.941 Y148.501 E6.87224
G1 X224.836 Y151.044 E6.95689
G1 X224.802 Y153.542 E7.03998
G1 X224.84 Y156.057 E7.12364
G1 X224.95 Y158.589 E7.20794
G1 X225.13 Y161.099 E7.29163
G1 X225.38 Y163.593 E7.375
G1 X225.702 Y166.097 E7.45897
G1 X226.094 Y168.582 E7.54264
G1 X226.552 Y171.035 E7.62564
G1 X227.087 Y173.512 E7.70993
G1 X227.553 Y175.44 E7.7759
G1 X227.734 Y176.36 E7.80708
G1 X227.837 Y177.293 E7.8383
G1 X227.859 Y178.23 E7.86948
G1 X227.802 Y179.166 E7.90067
G1 X227.665 Y180.094 E7.93187
G1 X227.449 Y181.007 E7.96307
G1 X227.157 Y181.898 E7.99426
G1 X226.789 Y182.761 E8.02546
G1 X226.477 Y183.367 E8.04813
G1 X226.118 Y184.01 E8.07262
G1 X212.798 Y207.085 E8.95879
G1 X212.347 Y207.843 E8.98813
G1 X211.832 Y208.627 E9.01933
G1 X211.253 Y209.365 E9.05053
G1 X210.613 Y210.05 E9.08171
G1 X209.917 Y210.678 E9.11288
G1 X209.169 Y211.245 E9.1441
G1 X208.377 Y211.746 E9.17527
G1 X207.544 Y212.178 E9.20648
G1 X206.678 Y212.537 E9.23766
G1 X205.784 Y212.822 E9.26887
G1 X204.65 Y213.066 E9.30745
G1 X203.973 Y213.173 E9.33025
G1 X202.35 Y213.404 E9.38477
G1 X199.879 Y213.829 E9.46817
G1 X197.418 Y214.322 E9.55165
G1 X194.922 Y214.898 E9.63685
G1 X192.538 Y215.52 E9.71879
G1 X190.077 Y216.235 E9.80403
G1 X187.682 Y217.007 E9.88772
G1 X185.342 Y217.833 E9.97026
G1 X182.978 Y218.744 E10.05452
G1 X180.679 Y219.705 E10.1374
G1 X178.357 Y220.756 E10.22217
G1 X176.084 Y221.861 E10.30623
G1 X173.876 Y223.014 E10.38908
G1 X171.658 Y224.253 E10.47358
G1 X169.499 Y225.541 E10.5572
G1 X167.378 Y226.889 E10.64078
G1 X165.294 Y228.296 E10.72442
G1 X163.253 Y229.762 E10.808
G1 X161.236 Y231.298 E10.89232
G1 X159.295 Y232.864 E10.97527
G1 X157.375 Y234.505 E11.05928
G1 X155.516 Y236.188 E11.14268
G1 X153.687 Y237.942 E11.22697
G1 X151.906 Y239.747 E11.3113
G1 X150.293 Y241.472 E11.38985
G1 X149.624 Y242.129 E11.42104
G1 X148.901 Y242.727 E11.45225
G1 X148.13 Y243.261 E11.48344
G1 X147.214 Y243.78 E11.51846
G1 X146.113 Y244.335 E11.55947
G1 X145.575 Y244.597 E11.57937
G1 X143.388 Y245.738 E11.66141
G1 X141.156 Y246.984 E11.74643
G1 X139.052 Y248.239 E11.82792
G1 X136.404 Y249.932 E11.93245
G1 X135.412 Y250.589 E11.97203
G1 X134.609 Y251.073 E12.00321
G1 X133.767 Y251.487 E12.03442
G1 X132.894 Y251.827 E12.06558
G1 X131.994 Y252.093 E12.09679
G1 X131.075 Y252.28 E12.12799
G1 X130.144 Y252.388 E12.15916
G1 X129.53 Y252.416 E12.1796
G1 X128.476 Y252.433 E12.21466
G1 X125.112 Y252.431 E12.32655
G1 X124.439 Y252.421 E12.34894
G1 X123.657 Y252.381 E12.37498
G1 X120.852 Y252.139 E12.46862
G1 X118.326 Y251.995 E12.55277
G1 X115.837 Y251.924 E12.63559
G1 X113.313 Y251.922 E12.71954
G1 X110.792 Y251.993 E12.80342
G1 X108.224 Y252.137 E12.88897
G1 X106.421 Y252.283 E12.94913
G1 X105.391 Y252.376 E12.98353
G1 X104.785 Y252.414 E13.00372
G1 X104.182 Y252.429 E13.02379
G1 X100.153 Y252.432 E13.15779
G1 X99.493 Y252.422 E13.17974
G1 X98.557 Y252.368 E13.21093
G1 X97.629 Y252.234 E13.24211
G1 X96.715 Y252.022 E13.27332
G1 X95.823 Y251.732 E13.30452
G1 X94.959 Y251.368 E13.3357
G1 X94.129 Y250.931 E13.3669
G1 X93.64 Y250.629 E13.38601
G1 X92.643 Y249.976 E13.42565
G1 X92.119 Y249.622 E13.44669
G1 X89.995 Y248.275 E13.53034
G1 X87.839 Y246.992 E13.61378
G1 X85.651 Y245.77 E13.69714
G1 X83.341 Y244.566 E13.78378
G1 X81.808 Y243.801 E13.84076
G1 X80.988 Y243.347 E13.87194
G1 X80.209 Y242.824 E13.90314
G1 X79.478 Y242.237 E13.93433
G1 X78.799 Y241.59 E13.96552
G1 X78.178 Y240.887 E13.99672
G1 X77.619 Y240.134 E14.02791
G1 X77.285 Y239.61 E14.04858
G1 X76.769 Y238.746 E14.08205
G1 X62.711 Y214.372 E15.01791
G1 X62.285 Y213.609 E15.04697
G1 X61.864 Y212.771 E15.07816
G1 X61.515 Y211.9 E15.10937
G1 X61.243 Y211.003 E15.14055
G1 X61.047 Y210.085 E15.17177
G1 X60.931 Y209.155 E15.20294
G1 X60.894 Y208.218 E15.23413
G1 X60.912 Y207.622 E15.25396
G1 X61.013 Y206 E15.30801
G1 X61.124 Y203.444 E15.39311
G1 X61.163 Y200.919 E15.4771
G1 X61.13 Y198.428 E15.55996
G1 X60.991 Y195.304 E15.66397
G1 X60.911 Y194.001 E15.70738
G1 X60.893 Y193.063 E15.73859
G1 X60.955 Y192.127 E15.76979
G1 X61.097 Y191.2 E15.80098
G1 X61.317 Y190.289 E15.83215
G1 X61.741 Y189.081 E15.87473
G1 X62.316 Y187.704 E15.92436
G1 X63.263 Y185.315 E16.00984
G1 X64.132 Y182.931 E16.09423
G1 X64.92 Y180.561 E16.1773
G1 X65.646 Y178.152 E16.26099
G1 X66.307 Y175.711 E16.3451
G1 X66.898 Y173.253 E16.42918
G1 X67.418 Y170.79 E16.51291
G1 X67.862 Y168.34 E16.59572
G1 X68.245 Y165.836 E16.67997
G1 X68.552 Y163.347 E16.76339
G1 X68.79 Y160.841 E16.84711
G1 X68.958 Y158.312 E16.93141
G1 X69.055 Y155.791 E17.01532
G1 X69.079 Y153.302 E17.09811
G1 X69.033 Y150.779 E17.18204
G1 X68.915 Y148.261 E17.26588
G1 X68.727 Y145.76 E17.3493
G1 X68.466 Y143.236 E17.43369
G1 X68.138 Y140.752 E17.51703
G1 X67.737 Y138.264 E17.60085
G1 X67.265 Y135.79 E17.68462
G1 X66.735 Y133.37 E17.76702
G1 X66.11 Y130.87 E17.85273
G1 X65.441 Y128.482 E17.93521
G1 X64.686 Y126.05 E18.01991
G1 X63.871 Y123.667 E18.10367
G1 X63.114 Y121.628 E18.17601
G1 X62.694 Y120.535 E18.21496
G1 X62.395 Y119.646 E18.24615
G1 X62.173 Y118.735 E18.27734
G1 X62.029 Y117.808 E18.30854
G1 X61.965 Y116.872 E18.33975
G1 X61.978 Y115.969 E18.36978
G1 X62.038 Y114.904 E18.40526
G1 X62.087 Y114.21 E18.4284
G1 X62.194 Y111.701 E18.51193
G1 X62.23 Y109.184 E18.59565
G1 X62.194 Y106.672 E18.67921
G1 X62.058 Y103.61 E18.78115
G1 X61.98 Y102.334 E18.82367
G1 X61.962 Y101.397 E18.85484
G1 X62.025 Y100.461 E18.88604
G1 X62.167 Y99.534 E18.91723
G1 X62.388 Y98.622 E18.94845
G1 X62.685 Y97.733 E18.97962
G1 X63.057 Y96.872 E19.01082
G1 X63.347 Y96.314 E19.03173
G1 X63.854 Y95.406 E19.06632
G1 X77.937 Y71.037 E20.00245
G1 X78.358 Y70.33 E20.02982
G1 X78.872 Y69.546 E20.061
G1 X79.452 Y68.809 E20.09219
G0 F6000 X79.777 Y69.044
G1 F1200 X80.408 Y68.373 E20.12283
G1 X81.095 Y67.76 E20.15345
G1 X81.833 Y67.209 E20.18408
G1 X82.615 Y66.724 E20.21469
G1 X83.031 Y66.503 E20.23036
G1 X84.12 Y65.955 E20.2709
G1 X84.636 Y65.704 E20.28999
G1 X86.871 Y64.538 E20.37383
G1 X89.096 Y63.295 E20.4586
G1 X91.244 Y62.014 E20.54179
G1 X93.868 Y60.337 E20.64536
G1 X94.867 Y59.675 E20.68522
G1 X95.655 Y59.2 E20.71582
G1 X96.483 Y58.796 E20.74647
G1 X97.342 Y58.465 E20.77708
G1 X98.226 Y58.21 E20.80769
G1 X99.13 Y58.032 E20.83833
G1 X100.045 Y57.934 E20.86894
G1 X100.535 Y57.914 E20.88525
G1 X101.582 Y57.897 E20.92008
G1 X104.94 Y57.899 E21.03176
G1 X105.613 Y57.909 E21.05415
G1 X106.366 Y57.947 E21.07923
G1 X109.182 Y58.19 E21.17324
G1 X111.697 Y58.333 E21.25702
G1 X114.245 Y58.406 E21.3418
G1 X116.756 Y58.408 E21.42532
G1 X119.299 Y58.337 E21.50993
G1 X121.81 Y58.195 E21.59358
G1 X123.697 Y58.043 E21.65655
G1 X124.703 Y57.952 E21.69014
G1 X125.287 Y57.916 E21.7096
G1 X125.876 Y57.901 E21.7292
G1 X129.728 Y57.897 E21.85732
G1 X130.563 Y57.908 E21.88509
G1 X131.482 Y57.962 E21.91571
G1 X132.393 Y58.095 E21.94633
G1 X133.08 Y58.25 E21.96976
G1 X135.777 Y58.953 E22.06246
G1 X138.232 Y59.519 E22.14625
G1 X140.709 Y60.016 E22.23028
G1 X143.209 Y60.445 E22.31464
G1 X145.718 Y60.802 E22.39894
G1 X148.189 Y61.082 E22.48165
G1 X150.739 Y61.3 E22.56677
G1 X153.257 Y61.443 E22.65065
G1 X155.793 Y61.515 E22.73504
G1 X158.302 Y61.515 E22.81848
G1 X160.823 Y61.444 E22.90237
G1 X162.515 Y61.342 E22.95875
G1 X163.507 Y61.292 E22.99178
G1 X165.154 Y61.259 E23.04657
G1 X171.594 Y61.26 E23.26077
G1 X172.295 Y61.27 E23.28408
G1 X173.214 Y61.323 E23.3147
G1 X174.125 Y61.456 E23.34532
G1 X175.021 Y61.667 E23.37594
G1 X175.896 Y61.955 E23.40658
G1 X176.742 Y62.318 E23.4372
G1 X177.553 Y62.753 E23.46781
G1 X178.324 Y63.257 E23.49844
G1 X179.048 Y63.826 E23.52907
G1 X179.72 Y64.455 E23.55968
G1 X180.335 Y65.14 E23.5903
G1 X180.888 Y65.876 E23.62092
G1 X181.243 Y66.431 E23.64283
G1 X181.884 Y67.504 E23.6844
G1 X183.237 Y69.699 E23.77017
G1 X184.632 Y71.826 E23.85477
G1 X186.07 Y73.886 E23.93833
G1 X187.569 Y75.911 E24.02212
G1 X189.146 Y77.919 E24.10704
G1 X190.765 Y79.865 E24.19124
G1 X192.424 Y81.748 E24.27471
G1 X194.152 Y83.602 E24.359
G1 X195.924 Y85.397 E24.4429
G1 X197.749 Y87.145 E24.52695
G1 X199.629 Y88.845 E24.61125
G1 X201.563 Y90.498 E24.69587
G1 X203.519 Y92.077 E24.77948
G1 X205.525 Y93.603 E24.86331
G1 X207.621 Y95.107 E24.94911
G1 X208.916 Y96 E25.00143
G1 X209.65 Y96.555 E25.03204
G1 X210.334 Y97.172 E25.06268
G1 X210.962 Y97.845 E25.09329
G1 X211.528 Y98.571 E25.12391
G1 X212.009 Y99.307 E25.15315
G1 X212.381 Y99.932 E25.17734
G1 X225.775 Y123.134 E26.0684
G1 X226.104 Y123.72 E26.09075
G1 X226.519 Y124.541 E26.12135
G1 X226.862 Y125.396 E26.15199
G1 X227.129 Y126.277 E26.18261
G1 X227.319 Y127.178 E26.21323
G1 X227.429 Y128.092 E26.24385
G1 X227.461 Y129.012 E26.27447
G1 X227.412 Y129.931 E26.30508
G1 X227.197 Y131.26 E26.34986
G1 X227.033 Y131.977 E26.37432
G1 X226.657 Y133.518 E26.42708
G1 X226.137 Y135.943 E26.50957
G1 X225.669 Y138.471 E26.59508
G1 X225.284 Y140.949 E26.67849
G1 X224.966 Y143.449 E26.76231
G1 X224.718 Y145.969 E26.84653
G1 X224.541 Y148.49 E26.93058
G1 X224.436 Y151.024 E27.01494
G1 X224.402 Y153.542 E27.09869
G1 X224.44 Y156.073 E27.18288
G1 X224.549 Y158.601 E27.26704
G1 X224.731 Y161.132 E27.35144
G1 X224.983 Y163.648 E27.43554
G1 X225.303 Y166.139 E27.51908
G1 X225.699 Y168.646 E27.60349
G1 X226.161 Y171.12 E27.6872
G1 X226.699 Y173.612 E27.77199
G1 X227.164 Y175.534 E27.83776
G1 X227.341 Y176.438 E27.8684
G1 X227.44 Y177.353 E27.89901
G1 X227.458 Y178.274 E27.92965
G1 X227.397 Y179.192 E27.96025
G1 X227.256 Y180.102 E27.99088
G1 X227.036 Y180.996 E28.0215
G1 X226.74 Y181.868 E28.05213
G1 X226.369 Y182.71 E28.08273
G1 X226.127 Y183.173 E28.10011
G1 X225.771 Y183.81 E28.12438
G1 X212.451 Y206.885 E29.01055
G1 X212.003 Y207.638 E29.03969
G1 X211.498 Y208.407 E29.07029
G1 X210.927 Y209.13 E29.10093
G1 X210.296 Y209.8 E29.13154
G1 X209.609 Y210.413 E29.16217
G1 X208.872 Y210.964 E29.19277
G1 X208.089 Y211.45 E29.22342
G1 X207.268 Y211.865 E29.25402
G1 X206.413 Y212.207 E29.28465
G1 X205.532 Y212.474 E29.31527
G1 X204.587 Y212.671 E29.34737
G1 X204.109 Y212.748 E29.36348
G1 X202.297 Y213.007 E29.42436
G1 X199.769 Y213.442 E29.50967
G1 X197.354 Y213.926 E29.59159
G1 X194.836 Y214.507 E29.67754
G1 X192.406 Y215.141 E29.76107
G1 X189.98 Y215.846 E29.8451
G1 X187.563 Y216.625 E29.92956
G1 X185.202 Y217.458 E30.01283
G1 X182.828 Y218.373 E30.09745
G1 X180.497 Y219.348 E30.18149
G1 X178.196 Y220.389 E30.26549
G1 X175.903 Y221.504 E30.35029
G1 X173.674 Y222.668 E30.43393
G1 X171.464 Y223.903 E30.51813
G1 X169.301 Y225.193 E30.6019
G1 X167.145 Y226.563 E30.68686
G1 X165.066 Y227.967 E30.7703
G1 X163.039 Y229.422 E30.85329
G1 X160.988 Y230.985 E30.93906
G1 X159.03 Y232.565 E31.02274
G1 X157.11 Y234.205 E31.10672
G1 X155.236 Y235.902 E31.19081
G1 X153.426 Y237.638 E31.27422
G1 X151.612 Y239.476 E31.36012
G1 X150.001 Y241.199 E31.43857
G1 X149.344 Y241.844 E31.46919
G1 X148.633 Y242.429 E31.49982
G1 X147.874 Y242.95 E31.53044
G1 X147.034 Y243.423 E31.5625
G1 X145.938 Y243.975 E31.60331
G1 X145.422 Y244.226 E31.6224
G1 X143.187 Y245.392 E31.70624
G1 X140.962 Y246.635 E31.79101
G1 X138.814 Y247.916 E31.8742
G1 X136.19 Y249.593 E31.97777
G1 X135.191 Y250.255 E32.01763
G1 X134.403 Y250.73 E32.04823
G1 X133.575 Y251.134 E32.07888
G1 X132.716 Y251.465 E32.10949
G1 X131.832 Y251.72 E32.1401
G1 X130.928 Y251.898 E32.17074
G1 X130.013 Y251.996 E32.20135
G1 X129.523 Y252.016 E32.21766
G1 X128.476 Y252.033 E32.25249
G1 X125.118 Y252.031 E32.36417
G1 X124.445 Y252.021 E32.38656
G1 X123.692 Y251.983 E32.41164
G1 X120.876 Y251.74 E32.50565
G1 X118.361 Y251.597 E32.58943
G1 X115.813 Y251.524 E32.67421
G1 X113.302 Y251.522 E32.75773
G1 X110.759 Y251.593 E32.84234
