;FLAVOR:Marlin
;TIME:10028
;Filament used: 8.55458m
;Layer height: 0.2
;MINX:116.345
;MINY:114.061
;MINZ:0.2
;MAXX:183.656
;MAXY:181.225
;MAXZ:61
;Generated with Cura_SteamEngine 5.2.1
M140 S60
M105
M190 S60
M104 S200
M105
M109 S200
M82 ;absolute extrusion mode
; Ender 3 Max Custom Start G-code
G92 E0 ; Reset Extruder
G28 ; Home all axes
G1 Z2.0 F3000 ; Move Z Axis up little to prevent scratching of Heat Bed
G1 X0.1 Y20 Z0.3 F5000.0 ; Move to start position
G1 X0.1 Y200.0 Z0.3 F1500.0 E15 ; Draw the first line
G1 X0.4 Y200.0 Z0.3 F5000.0 ; Move to side a little
G1 X0.4 Y20 Z0.3 F1500.0 E30 ; Draw the second line
G92 E0 ; Reset Extruder
G1 Z2.0 F3000 ; Move Z Axis up little to prevent scratching of Heat Bed
G1 X5 Y20 Z0.3 F5000.0 ; Move over to prevent blob squish
G92 E0
G92 E0
G1 F1500 E-6.5
;LAYER_COUNT:305
;LAYER:0
M107
G0 F6000 X121.593 Y120.062 Z0.2
;TYPE:SKIRT
G1 F1500 E0
G1 F1200 X122.325 Y119.371 E0.03348
G1 X123.144 Y118.72 E0.06828
G1 X123.925 Y118.2 E0.09949
G1 X124.386 Y117.936 E0.11715
G1 X124.846 Y117.687 E0.13455
G1 X125.481 Y117.364 E0.15825
G1 X125.9 Y117.166 E0.17366
G1 X126.865 Y116.739 E0.20876
G1 X128.249 Y116.167 E0.25857
G1 X129.457 Y115.707 E0.30156
G1 X130.263 Y115.421 E0.33
G1 X131.811 Y114.916 E0.38416
G1 X132.627 Y114.67 E0.41251
G1 X133.234 Y114.5 E0.43347
G1 X134.148 Y114.29 E0.46467
G1 X134.889 Y114.179 E0.48959
G1 X135.322 Y114.129 E0.50408
G1 X136.258 Y114.061 E0.5353
G1 X137.195 Y114.073 E0.56647
G1 X137.909 Y114.136 E0.59031
G1 X140.46 Y114.446 E0.67578
G1 X142.941 Y114.677 E0.75865
G1 X145.454 Y114.84 E0.84241
G1 X147.986 Y114.933 E0.92668
G1 X150.507 Y114.954 E1.01053
G1 X153.025 Y114.904 E1.0943
G1 X155.522 Y114.783 E1.17745
G1 X158.028 Y114.591 E1.26104
G1 X160.557 Y114.325 E1.34562
G1 X162.116 Y114.134 E1.39786
G1 X163.052 Y114.064 E1.42908
G1 X164.311 Y114.095 E1.47097
G1 X164.65 Y114.123 E1.48228
G1 X165.581 Y114.24 E1.51349
G1 X166.558 Y114.452 E1.54674
G1 X167.301 Y114.653 E1.57234
G1 X168.377 Y114.976 E1.60971
G1 X169.809 Y115.449 E1.65986
G1 X171.231 Y115.963 E1.71016
G1 X171.903 Y116.225 E1.73415
G1 X172.91 Y116.642 E1.7704
G1 X173.999 Y117.129 E1.81007
G1 X175.15 Y117.687 E1.85262
G1 X175.975 Y118.132 E1.88379
G1 X176.76 Y118.645 E1.91498
G1 X177.681 Y119.376 E1.95409
G1 X178.442 Y120.103 E1.9891
G1 X179.063 Y120.806 E2.0203
G1 X179.561 Y121.465 E2.04777
G1 X180.081 Y122.245 E2.07895
G1 X180.532 Y123.067 E2.11013
G1 X180.912 Y123.925 E2.14134
G1 X181.218 Y124.811 E2.17252
G1 X181.507 Y126.035 E2.21435
G1 X181.557 Y126.318 E2.22391
G1 X181.681 Y127.248 E2.25511
G1 X181.725 Y128.185 E2.28631
G1 X181.696 Y129.034 E2.31457
G1 X181.489 Y131.867 E2.40904
G1 X181.381 Y134.326 E2.49091
G1 X181.341 Y136.884 E2.576
G1 X181.373 Y139.374 E2.65882
G1 X181.476 Y141.892 E2.74264
G1 X181.652 Y144.415 E2.82676
G1 X181.926 Y147.193 E2.91961
G1 X182.044 Y148.256 E2.95518
G1 X182.104 Y149.081 E2.98269
G1 X182.116 Y149.419 E2.99394
G1 X182.092 Y150.633 E3.03433
G1 X182.014 Y151.446 E3.06149
G1 X181.964 Y151.829 E3.07434
G1 X181.869 Y152.431 E3.09461
G1 X181.753 Y153.05 E3.11556
G1 X181.578 Y153.825 E3.14198
G1 X181.499 Y154.125 E3.1523
G1 X181.257 Y154.921 E3.17997
G1 X181.02 Y155.588 E3.20351
G1 X180.781 Y156.192 E3.22512
G1 X180.231 Y157.477 E3.27161
G1 X179.757 Y158.507 E3.30932
G1 X178.967 Y160.146 E3.36983
G1 X177.972 Y162.116 E3.44324
G1 X177.352 Y163.296 E3.48758
G1 X176.378 Y165.071 E3.55492
G1 X175.534 Y166.533 E3.61106
G1 X174.357 Y168.493 E3.6871
G1 X172.653 Y171.218 E3.794
G1 X171.803 Y172.49 E3.84488
G1 X171.174 Y173.339 E3.88003
G1 X170.749 Y173.859 E3.90236
G1 X170.125 Y174.559 E3.93355
G1 X169.615 Y175.052 E3.95715
G1 X169.192 Y175.435 E3.97612
G1 X168.471 Y176.034 E4.0073
G1 X167.514 Y176.686 E4.04582
G1 X167.181 Y176.888 E4.05877
G1 X166.359 Y177.34 E4.08997
G1 X165.822 Y177.588 E4.10964
G1 X165.071 Y177.911 E4.13684
G1 X164.57 Y178.112 E4.15479
G1 X163.22 Y178.612 E4.20267
G1 X161.954 Y179.046 E4.24718
G1 X160.864 Y179.393 E4.28523
G1 X160.153 Y179.601 E4.30987
G1 X159.498 Y179.78 E4.33245
G1 X158.57 Y180.013 E4.36428
G1 X157.308 Y180.292 E4.40727
G1 X155.705 Y180.592 E4.46151
G1 X154.044 Y180.849 E4.51741
G1 X152.503 Y181.055 E4.56912
G1 X151.657 Y181.147 E4.59742
G1 X151.063 Y181.191 E4.61723
G1 X150.624 Y181.212 E4.63185
G1 X149.865 Y181.225 E4.6571
G1 X149.203 Y181.205 E4.67913
G1 X148.722 Y181.176 E4.69516
G1 X147.826 Y181.097 E4.72507
G1 X147.415 Y181.05 E4.73883
G1 X146.331 Y180.905 E4.77521
G1 X144.807 Y180.68 E4.82644
G1 X143.721 Y180.494 E4.86309
G1 X142.619 Y180.281 E4.90042
G1 X141.671 Y180.07 E4.93272
G1 X140.48 Y179.772 E4.97356
G1 X140.039 Y179.652 E4.98876
G1 X139.103 Y179.376 E5.02122
G1 X137.464 Y178.849 E5.07848
G1 X136.557 Y178.534 E5.11041
G1 X135.649 Y178.203 E5.14256
G1 X134.953 Y177.931 E5.16741
G1 X134.245 Y177.628 E5.19302
G1 X133.127 Y177.061 E5.23472
G1 X132.666 Y176.793 E5.25245
G1 X131.876 Y176.287 E5.28366
G1 X130.793 Y175.421 E5.32978
G1 X130.329 Y174.999 E5.35064
G1 X129.663 Y174.339 E5.38182
G1 X129.228 Y173.84 E5.40384
G1 X128.953 Y173.505 E5.41826
G1 X128.508 Y172.925 E5.44257
G1 X128.062 Y172.29 E5.46838
G1 X127.159 Y170.926 E5.52279
G1 X126.453 Y169.804 E5.56688
G1 X125.489 Y168.245 E5.62784
G1 X124.744 Y167.007 E5.6759
G1 X124.192 Y166.064 E5.71224
G1 X123.473 Y164.804 E5.76049
G1 X122.544 Y163.102 E5.82499
G1 X121.943 Y161.956 E5.86803
G1 X121.194 Y160.467 E5.92346
G1 X120.464 Y158.971 E5.97883
G1 X119.984 Y157.954 E6.01623
G1 X119.711 Y157.343 E6.03849
G1 X119.184 Y156.102 E6.08333
G1 X118.885 Y155.337 E6.11065
G1 X118.567 Y154.364 E6.1447
G1 X118.458 Y153.969 E6.15833
G1 X118.252 Y153.081 E6.18865
G1 X118.147 Y152.524 E6.2075
G1 X118.036 Y151.801 E6.23183
G1 X117.971 Y151.261 E6.24992
G1 X117.898 Y150.3 E6.28197
G1 X117.888 Y149.989 E6.29232
G1 X117.898 Y149.051 E6.32352
G1 X117.951 Y148.408 E6.34498
G1 X118.033 Y147.681 E6.36931
G1 X118.305 Y145.054 E6.45716
G1 X118.494 Y142.544 E6.54088
G1 X118.613 Y140.013 E6.62515
G1 X118.659 Y137.494 E6.70895
G1 X118.636 Y135.008 E6.79163
G1 X118.539 Y132.478 E6.87584
G1 X118.4 Y130.304 E6.9483
G1 X118.306 Y129.053 E6.99003
G1 X118.276 Y128.116 E7.02121
G1 X118.325 Y127.18 E7.05238
G1 X118.401 Y126.569 E7.07286
G1 X118.443 Y126.294 E7.08211
G1 X118.624 Y125.374 E7.1133
G1 X118.883 Y124.473 E7.14448
G1 X119.217 Y123.596 E7.17569
G1 X119.625 Y122.752 E7.20687
G1 X120.318 Y121.618 E7.25107
G1 X120.966 Y120.759 E7.28686
G1 X121.593 Y120.062 E7.31804
G0 F6000 X121.903 Y120.317
G1 F1200 X122.589 Y119.672 E7.34936
G1 X123.393 Y119.033 E7.38352
G1 X124.161 Y118.525 E7.41414
G1 X124.576 Y118.288 E7.43004
G1 X125.036 Y118.039 E7.44744
G1 X125.659 Y117.722 E7.47069
G1 X126.063 Y117.531 E7.48555
G1 X127.019 Y117.108 E7.52032
G1 X128.393 Y116.541 E7.56976
G1 X129.591 Y116.084 E7.6124
G1 X130.66 Y115.709 E7.65008
G1 X131.926 Y115.299 E7.69434
G1 X132.742 Y115.053 E7.72269
G1 X133.34 Y114.886 E7.74334
G1 X134.237 Y114.68 E7.77395
G1 X134.935 Y114.576 E7.79742
G1 X135.368 Y114.526 E7.81192
G1 X136.286 Y114.46 E7.84253
G1 X137.207 Y114.474 E7.87317
G1 X137.861 Y114.533 E7.89501
G1 X140.411 Y114.842 E7.98044
G1 X142.914 Y115.076 E8.06406
G1 X145.449 Y115.24 E8.14855
G1 X147.968 Y115.333 E8.23239
G1 X150.512 Y115.354 E8.317
G1 X153.017 Y115.304 E8.40034
G1 X155.574 Y115.18 E8.48548
G1 X158.065 Y114.989 E8.56858
G1 X160.615 Y114.721 E8.65386
G1 X162.163 Y114.531 E8.70573
G1 X163.081 Y114.463 E8.73635
G1 X164.279 Y114.494 E8.77621
G1 X164.618 Y114.522 E8.78752
G1 X165.531 Y114.638 E8.81813
G1 X166.456 Y114.838 E8.84961
G1 X166.887 Y114.952 E8.86443
G1 X167.97 Y115.269 E8.90197
G1 X169.391 Y115.729 E8.95164
G1 X171.085 Y116.336 E9.01149
G1 X171.98 Y116.688 E9.04348
G1 X172.992 Y117.112 E9.07998
G1 X173.824 Y117.489 E9.11036
G1 X174.975 Y118.047 E9.1529
G1 X175.785 Y118.484 E9.18351
G1 X176.555 Y118.99 E9.21416
G1 X177.419 Y119.679 E9.25091
G1 X178.165 Y120.392 E9.28523
G1 X178.773 Y121.084 E9.31587
G1 X179.238 Y121.701 E9.34157
G1 X179.747 Y122.467 E9.37216
G1 X180.189 Y123.275 E9.40279
G1 X180.559 Y124.118 E9.43341
G1 X180.854 Y124.99 E9.46403
G1 X181.113 Y126.105 E9.5021
G1 X181.163 Y126.388 E9.51166
G1 X181.284 Y127.3 E9.54226
G1 X181.325 Y128.22 E9.57289
G1 X181.297 Y129.005 E9.59901
G1 X181.091 Y131.82 E9.69289
G1 X180.981 Y134.338 E9.77672
G1 X180.941 Y136.883 E9.86138
G1 X180.973 Y139.395 E9.94493
G1 X181.077 Y141.938 E10.02959
G1 X181.249 Y144.411 E10.11204
G1 X181.532 Y147.277 E10.20782
G1 X181.646 Y148.3 E10.24206
G1 X181.704 Y149.095 E10.26857
G1 X181.716 Y149.433 E10.27982
G1 X181.693 Y150.603 E10.31874
G1 X181.618 Y151.394 E10.34517
G1 X181.568 Y151.777 E10.35802
G1 X181.476 Y152.357 E10.37755
G1 X181.36 Y152.976 E10.39849
G1 X181.192 Y153.723 E10.42396
G1 X181.113 Y154.023 E10.43428
G1 X180.879 Y154.79 E10.46095
G1 X180.77 Y155.105 E10.47204
G1 X180.546 Y155.704 E10.49331
G1 X180.412 Y156.036 E10.50521
G1 X179.867 Y157.309 E10.55127
G1 X179.308 Y158.519 E10.5956
G1 X178.523 Y160.14 E10.65551
G1 X177.618 Y161.93 E10.72222
G1 X177.001 Y163.104 E10.76633
G1 X176.151 Y164.658 E10.82524
G1 X175.187 Y166.333 E10.88952
G1 X174.018 Y168.281 E10.96508
G1 X172.504 Y170.711 E11.06031
G1 X171.47 Y172.267 E11.12245
G1 X170.864 Y173.086 E11.15633
G1 X170.439 Y173.606 E11.17867
G1 X169.826 Y174.293 E11.20929
G1 X169.347 Y174.756 E11.23145
G1 X168.924 Y175.139 E11.25043
G1 X168.215 Y175.726 E11.28105
G1 X167.307 Y176.344 E11.31758
G1 X166.974 Y176.546 E11.33053
G1 X166.166 Y176.989 E11.36118
G1 X165.664 Y177.221 E11.37957
G1 X164.913 Y177.544 E11.40676
G1 X164.431 Y177.737 E11.42403
G1 X163.09 Y178.233 E11.47159
G1 X161.598 Y178.742 E11.52402
G1 X160.95 Y178.948 E11.54664
G1 X160.264 Y179.153 E11.57045
G1 X159.392 Y179.394 E11.60054
G1 X158.168 Y179.696 E11.64247
G1 X156.931 Y179.96 E11.68454
G1 X155.643 Y180.197 E11.7281
G1 X153.991 Y180.453 E11.7837
G1 X152.45 Y180.659 E11.83541
G1 X151.616 Y180.749 E11.86331
G1 X151.043 Y180.792 E11.88242
G1 X150.604 Y180.813 E11.89704
G1 X149.865 Y180.825 E11.92162
G1 X149.227 Y180.806 E11.94285
G1 X148.746 Y180.777 E11.95888
G1 X147.864 Y180.699 E11.98833
G1 X147.468 Y180.654 E12.00158
G1 X146.389 Y180.509 E12.03779
G1 X145.113 Y180.323 E12.08068
G1 X143.796 Y180.101 E12.1251
G1 X142.704 Y179.89 E12.1621
G1 X141.768 Y179.682 E12.19399
G1 X140.577 Y179.384 E12.23482
G1 X140.152 Y179.268 E12.24947
G1 X138.967 Y178.916 E12.29059
G1 X137.814 Y178.545 E12.33087
G1 X136.694 Y178.158 E12.37029
G1 X135.786 Y177.827 E12.40243
G1 X135.1 Y177.559 E12.42693
G1 X134.405 Y177.262 E12.45206
G1 X133.328 Y176.715 E12.49224
G1 X132.867 Y176.447 E12.50998
G1 X132.091 Y175.95 E12.54063
G1 X131.062 Y175.125 E12.58449
G1 X130.598 Y174.703 E12.60535
G1 X129.944 Y174.054 E12.636
G1 X129.537 Y173.587 E12.6566
G1 X129.262 Y173.252 E12.67102
G1 X128.833 Y172.692 E12.69448
G1 X128.395 Y172.069 E12.71981
G1 X127.637 Y170.928 E12.76537
G1 X126.793 Y169.594 E12.81787
G1 X125.897 Y168.146 E12.87451
G1 X125.089 Y166.805 E12.92658
G1 X124.595 Y165.963 E12.95905
G1 X123.824 Y164.613 E13.01076
G1 X122.898 Y162.916 E13.07506
G1 X122.39 Y161.951 E13.11133
G1 X121.495 Y160.174 E13.17751
G1 X120.825 Y158.8 E13.22835
G1 X120.429 Y157.964 E13.25912
G1 X120.079 Y157.186 E13.28749
G1 X119.552 Y155.945 E13.33233
G1 X119.259 Y155.196 E13.35908
G1 X118.953 Y154.258 E13.3919
G1 X118.844 Y153.863 E13.40553
G1 X118.645 Y153.007 E13.43476
G1 X118.54 Y152.45 E13.45361
G1 X118.433 Y151.753 E13.47706
G1 X118.368 Y151.213 E13.49515
G1 X118.297 Y150.287 E13.52604
G1 X118.287 Y149.976 E13.53639
G1 X118.298 Y149.055 E13.56703
G1 X118.348 Y148.453 E13.58712
G1 X118.704 Y145.093 E13.6995
G1 X118.894 Y142.557 E13.78408
G1 X119.013 Y140.039 E13.86793
G1 X119.059 Y137.533 E13.95129
G1 X119.034 Y134.954 E14.03707
G1 X118.938 Y132.435 E14.12091
G1 X118.808 Y130.396 E14.18887
G1 X118.705 Y129.024 E14.23463
G1 X118.676 Y128.103 E14.26528
G1 X118.727 Y127.184 E14.29589
G1 X118.839 Y126.355 E14.32371
G1 X119.017 Y125.451 E14.35436
G1 X119.273 Y124.567 E14.38497
G1 X119.605 Y123.708 E14.4156
G1 X120.01 Y122.882 E14.4462
G1 X120.65 Y121.841 E14.48684
G1 X121.286 Y121.001 E14.52188
G1 X121.903 Y120.317 E14.55252
G0 F6000 X122.212 Y120.573
G1 F1200 X122.856 Y119.971 E14.58184
G1 X123.642 Y119.347 E14.61522
G1 X124.766 Y118.64 E14.65939
G1 X125.226 Y118.391 E14.67678
G1 X125.837 Y118.08 E14.69959
G1 X126.226 Y117.896 E14.7139
G1 X126.931 Y117.581 E14.73958
G1 X128.536 Y116.914 E14.79739
G1 X129.725 Y116.461 E14.83971
G1 X130.783 Y116.089 E14.87701
G1 X131.827 Y115.749 E14.91353
G1 X132.858 Y115.436 E14.94937
G1 X133.446 Y115.271 E14.96968
G1 X134.326 Y115.071 E14.99969
G1 X134.981 Y114.973 E15.02172
G1 X135.414 Y114.923 E15.03622
G1 X136.315 Y114.86 E15.06626
G1 X137.218 Y114.876 E15.0963
G1 X137.813 Y114.93 E15.11617
G1 X140.362 Y115.239 E15.20157
G1 X142.887 Y115.475 E15.28592
G1 X145.445 Y115.641 E15.37118
G1 X147.95 Y115.733 E15.45455
G1 X150.517 Y115.754 E15.53993
G1 X153.045 Y115.704 E15.62403
G1 X155.586 Y115.581 E15.70864
G1 X158.104 Y115.388 E15.79264
G1 X160.633 Y115.122 E15.87722
G1 X162.21 Y114.928 E15.93006
G1 X163.111 Y114.862 E15.96011
G1 X164.246 Y114.893 E15.99787
G1 X164.585 Y114.921 E16.00919
G1 X165.48 Y115.035 E16.0392
G1 X166.353 Y115.225 E16.06891
G1 X167.074 Y115.42 E16.09375
G1 X167.857 Y115.652 E16.12092
G1 X169.539 Y116.202 E16.17977
G1 X170.677 Y116.61 E16.21998
G1 X171.827 Y117.057 E16.26102
G1 X172.603 Y117.38 E16.28898
G1 X173.65 Y117.849 E16.32713
G1 X174.801 Y118.407 E16.36968
G1 X175.595 Y118.836 E16.3997
G1 X176.348 Y119.334 E16.42972
G1 X177.156 Y119.981 E16.46415
G1 X177.889 Y120.681 E16.49786
G1 X178.752 Y121.714 E16.54263
G1 X178.914 Y121.936 E16.55177
G1 X179.414 Y122.689 E16.58183
G1 X179.845 Y123.482 E16.61185
G1 X180.204 Y124.311 E16.6419
G1 X180.489 Y125.168 E16.67194
G1 X180.719 Y126.174 E16.70626
G1 X180.769 Y126.457 E16.71582
G1 X180.887 Y127.353 E16.74588
G1 X180.925 Y128.255 E16.77591
G1 X180.898 Y128.976 E16.7999
G1 X180.691 Y131.808 E16.89435
G1 X180.581 Y134.313 E16.97775
G1 X180.541 Y136.853 E17.06224
G1 X180.573 Y139.417 E17.14752
G1 X180.677 Y141.946 E17.23171
G1 X180.851 Y144.446 E17.31506
G1 X181.131 Y147.281 E17.40981
G1 X181.249 Y148.345 E17.44542
G1 X181.305 Y149.109 E17.4709
G1 X181.317 Y149.447 E17.48214
G1 X181.294 Y150.573 E17.5196
G1 X181.221 Y151.342 E17.5453
G1 X181.171 Y151.725 E17.55814
G1 X181.082 Y152.284 E17.57697
G1 X180.966 Y152.903 E17.59792
G1 X180.805 Y153.621 E17.62239
G1 X180.726 Y153.921 E17.63271
G1 X180.501 Y154.659 E17.65837
G1 X180.273 Y155.301 E17.68103
G1 X180.044 Y155.88 E17.70174
G1 X179.504 Y157.142 E17.74739
G1 X179.03 Y158.172 E17.7851
G1 X178.166 Y159.96 E17.85115
G1 X177.264 Y161.744 E17.91764
G1 X176.65 Y162.912 E17.96153
G1 X175.685 Y164.671 E18.02826
G1 X174.841 Y166.133 E18.08441
G1 X173.767 Y167.925 E18.15389
G1 X172.164 Y170.5 E18.25478
G1 X171.138 Y172.045 E18.31646
G1 X170.555 Y172.833 E18.34907
G1 X170.13 Y173.353 E18.3714
G1 X169.528 Y174.026 E18.40144
G1 X169.078 Y174.459 E18.42221
G1 X168.655 Y174.842 E18.44119
G1 X167.959 Y175.418 E18.47123
G1 X167.099 Y176.002 E18.50581
G1 X166.766 Y176.204 E18.51876
G1 X165.974 Y176.638 E18.5488
G1 X165.506 Y176.853 E18.56593
G1 X164.755 Y177.176 E18.59312
G1 X164.291 Y177.362 E18.60975
G1 X162.961 Y177.855 E18.65693
G1 X161.477 Y178.361 E18.70907
G1 X160.637 Y178.626 E18.73837
G1 X160.151 Y178.77 E18.75523
G1 X159.055 Y179.069 E18.79301
G1 X158.378 Y179.237 E18.81621
G1 X157.138 Y179.51 E18.85844
G1 X155.582 Y179.802 E18.9111
G1 X154.162 Y180.024 E18.9589
G1 X152.397 Y180.262 E19.01814
G1 X151.576 Y180.351 E19.04561
G1 X151.024 Y180.392 E19.06402
