;FLAVOR:Marlin
;TIME:10507
;Filament used: 7.35243m
;Layer height: 0.2
;MINX:24.307
;MINY:57.713
;MINZ:0.2
;MAXX:255.543
;MAXY:275.633
;MAXZ:3.2
;Generated with Cura_SteamEngine 5.2.1
M140 S60
M105
M190 S60
M104 S215
M105
M109 S215
M82 ;absolute extrusion mode
; Ender 3 Max Custom Start G-code
G92 E0 ; Reset Extruder
G28 ; Home all axes
G1 Z2.0 F3000 ; Move Z Axis up little to prevent scratching of Heat Bed
G1 X0.1 Y20 Z0.3 F5000.0 ; Move to start position
G1 X0.1 Y200.0 Z0.3 F1500.0 E15 ; Draw the first line
G1 X0.4 Y200.0 Z0.3 F5000.0 ; Move to side a little
G1 X0.4 Y20 Z0.3 F1500.0 E30 ; Draw the second line
G92 E0 ; Reset Extruder
G1 Z2.0 F3000 ; Move Z Axis up little to prevent scratching of Heat Bed
G1 X5 Y20 Z0.3 F5000.0 ; Move over to prevent blob squish
G92 E0
G92 E0
G1 F1500 E-6.5
;LAYER_COUNT:16
;LAYER:0
M107
G0 F6000 X47.806 Y66.181 Z0.2
;TYPE:SKIRT
G1 F1500 E0
G1 F1200 X48.609 Y65.696 E0.0312
G1 X49.45 Y65.282 E0.06238
G1 X50.324 Y64.941 E0.09358
G1 X51.223 Y64.675 E0.12476
G1 X52.142 Y64.487 E0.15596
G1 X53.073 Y64.378 E0.18714
G1 X54.011 Y64.349 E0.21835
G1 X55.054 Y64.41 E0.2531
G1 X57.824 Y64.706 E0.34576
G1 X60.331 Y64.902 E0.4294
G1 X62.848 Y65.026 E0.51321
G1 X65.375 Y65.08 E0.59728
G1 X67.896 Y65.063 E0.68113
G1 X70.382 Y64.975 E0.76387
G1 X72.934 Y64.812 E0.84892
G1 X75.469 Y64.578 E0.93359
G1 X77.12 Y64.397 E0.98883
G1 X78.056 Y64.334 E1.02004
G1 X78.993 Y64.352 E1.05121
G1 X79.928 Y64.449 E1.08247
G1 X80.632 Y64.553 E1.10614
G1 X83.223 Y64.974 E1.19345
G1 X85.836 Y65.362 E1.28131
G1 X88.315 Y65.658 E1.36435
G1 X90.829 Y65.887 E1.44831
G1 X93.344 Y66.043 E1.53212
G1 X95.866 Y66.129 E1.61605
G1 X98.392 Y66.144 E1.70007
G1 X100.878 Y66.088 E1.78277
G1 X103.41 Y65.959 E1.8671
G1 X105.914 Y65.761 E1.95064
G1 X108.423 Y65.49 E2.03458
G1 X110.914 Y65.15 E2.11819
G1 X113.398 Y64.74 E2.20193
G1 X115.875 Y64.258 E2.28586
G1 X118.3 Y63.715 E2.36851
G1 X120.756 Y63.091 E2.4528
G1 X122.205 Y62.67 E2.50298
G1 X122.377 Y62.628 E2.50887
G1 X123.663 Y62.265 E2.55332
G1 X124.575 Y62.049 E2.58449
G1 X125.503 Y61.912 E2.61569
G1 X126.439 Y61.854 E2.64688
G1 X127.819 Y61.914 E2.69282
G1 X130.588 Y62.21 E2.78544
G1 X133.095 Y62.406 E2.86908
G1 X135.612 Y62.53 E2.9529
G1 X138.139 Y62.584 E3.03697
G1 X140.66 Y62.567 E3.12082
G1 X143.146 Y62.479 E3.20355
G1 X145.698 Y62.316 E3.28861
G1 X148.22 Y62.083 E3.37285
G1 X149.88 Y61.901 E3.42839
G1 X150.816 Y61.838 E3.45959
G1 X151.754 Y61.856 E3.49079
G1 X152.691 Y61.953 E3.52213
G1 X153.462 Y62.067 E3.54805
G1 X160.569 Y63.223 E3.78753
G1 X163.171 Y63.609 E3.87502
G1 X165.649 Y63.905 E3.95803
G1 X168.164 Y64.134 E4.04202
G1 X170.679 Y64.29 E4.12583
G1 X173.2 Y64.376 E4.20973
G1 X175.73 Y64.39 E4.29388
G1 X178.211 Y64.335 E4.37642
G1 X180.744 Y64.206 E4.46078
G1 X183.249 Y64.008 E4.54435
G1 X185.758 Y63.737 E4.62829
G1 X188.264 Y63.395 E4.71241
G1 X190.714 Y62.989 E4.79501
G1 X193.21 Y62.504 E4.87958
G1 X195.635 Y61.961 E4.96223
G1 X198.094 Y61.336 E5.04662
G1 X200.535 Y60.641 E5.13103
G1 X202.926 Y59.888 E5.21441
G1 X205.333 Y59.054 E5.29914
G1 X207.078 Y58.404 E5.36107
G1 X207.97 Y58.114 E5.39227
G1 X208.884 Y57.902 E5.42347
G1 X209.812 Y57.768 E5.45466
G1 X210.748 Y57.713 E5.48585
G1 X211.686 Y57.739 E5.51706
G1 X212.618 Y57.844 E5.54825
G1 X213.537 Y58.029 E5.57943
G1 X214.623 Y58.355 E5.61714
G1 X215.516 Y58.676 E5.6487
G1 X232.462 Y65.086 E6.2513
G1 X233.246 Y65.394 E6.27932
G1 X234.103 Y65.775 E6.31051
G1 X234.924 Y66.227 E6.34169
G1 X235.705 Y66.747 E6.37289
G1 X236.438 Y67.332 E6.40409
G1 X237.118 Y67.978 E6.43528
G1 X237.741 Y68.679 E6.46647
G1 X238.302 Y69.43 E6.49765
G1 X238.797 Y70.227 E6.52886
G1 X239.274 Y71.179 E6.56427
G1 X240.362 Y73.638 E6.65371
G1 X241.459 Y75.94 E6.73852
G1 X242.603 Y78.173 E6.82197
G1 X243.828 Y80.407 E6.90671
G1 X245.089 Y82.559 E6.98967
G1 X246.413 Y84.68 E7.07283
G1 X247.808 Y86.778 E7.15663
G1 X249.308 Y88.904 E7.24317
G1 X250.306 Y90.262 E7.29922
G1 X250.828 Y91.041 E7.33041
G1 X251.283 Y91.861 E7.3616
G1 X251.667 Y92.721 E7.39293
G1 X251.938 Y93.405 E7.4174
G1 X254.584 Y100.383 E7.66561
G1 X254.885 Y101.21 E7.69488
G1 X255.166 Y102.104 E7.72605
G1 X255.371 Y103.02 E7.75727
G1 X255.497 Y103.949 E7.78845
G1 X255.543 Y104.886 E7.81965
G1 X255.509 Y105.823 E7.85084
G1 X255.395 Y106.754 E7.88204
G1 X255.203 Y107.672 E7.91323
G1 X254.843 Y108.82 E7.95325
G1 X254.561 Y109.572 E7.97996
G1 X253.709 Y111.943 E8.06375
G1 X252.934 Y114.311 E8.14663
G1 X252.211 Y116.746 E8.23111
G1 X251.555 Y119.21 E8.31592
G1 X250.984 Y121.63 E8.39862
G1 X250.478 Y124.081 E8.48186
G1 X250.033 Y126.594 E8.56674
G1 X249.668 Y129.055 E8.64949
G1 X249.366 Y131.587 E8.7343
G1 X249.142 Y134.057 E8.81679
G1 X248.985 Y136.586 E8.90107
G1 X248.899 Y139.107 E8.98496
G1 X248.886 Y141.622 E9.06861
G1 X248.942 Y144.121 E9.15175
G1 X249.072 Y146.675 E9.23681
G1 X249.269 Y149.153 E9.31949
G1 X249.535 Y151.61 E9.40168
G1 X250.068 Y155.344 E9.52714
G1 X251.028 Y161.227 E9.72539
G1 X251.137 Y161.95 E9.74971
G1 X251.237 Y162.883 E9.78092
G1 X251.258 Y163.82 E9.81209
G1 X251.198 Y164.756 E9.84329
G1 X251.059 Y165.684 E9.8745
G1 X250.845 Y166.582 E9.9052
G1 X250.684 Y167.152 E9.9249
G1 X250.01 Y169.663 E10.01138
G1 X249.422 Y172.133 E10.09582
G1 X248.904 Y174.617 E10.18022
G1 X248.464 Y177.069 E10.26308
G1 X248.092 Y179.545 E10.34635
G1 X247.791 Y182.032 E10.42967
G1 X247.553 Y184.585 E10.51496
G1 X247.395 Y187.049 E10.59708
G1 X247.304 Y189.581 E10.68135
G1 X247.284 Y192.106 E10.76533
G1 X247.336 Y194.621 E10.849
G1 X247.46 Y197.152 E10.93328
G1 X247.653 Y199.643 E11.01638
G1 X247.916 Y202.137 E11.09979
G1 X248.255 Y204.657 E11.18436
G1 X248.656 Y207.103 E11.2668
G1 X249.138 Y209.608 E11.35165
G1 X249.674 Y212.03 E11.43415
G1 X250.3 Y214.51 E11.51922
G1 X250.978 Y216.909 E11.60214
G1 X251.731 Y219.314 E11.68596
G1 X252.558 Y221.717 E11.77048
G1 X253.439 Y224.058 E11.85368
G1 X254.607 Y226.915 E11.95634
G1 X254.925 Y227.797 E11.98752
G1 X255.166 Y228.703 E12.0187
G1 X255.329 Y229.627 E12.04991
G1 X255.413 Y230.561 E12.0811
G1 X255.417 Y231.499 E12.1123
G1 X255.341 Y232.434 E12.1435
G1 X255.186 Y233.359 E12.17469
G1 X254.952 Y234.267 E12.20588
G1 X254.773 Y234.808 E12.22483
G1 X254.517 Y235.518 E12.24993
G1 X248.058 Y252.595 E12.85719
G1 X247.757 Y253.361 E12.88456
G1 X247.376 Y254.218 E12.91575
G1 X246.924 Y255.039 E12.94693
G1 X246.403 Y255.819 E12.97812
G1 X245.817 Y256.552 E13.00934
G1 X245.171 Y257.232 E13.04053
G1 X244.47 Y257.854 E13.0717
G1 X243.718 Y258.415 E13.10291
G1 X242.921 Y258.91 E13.13411
G1 X241.979 Y259.382 E13.16916
G1 X239.447 Y260.503 E13.26126
G1 X237.168 Y261.592 E13.34527
G1 X234.952 Y262.729 E13.42811
G1 X232.733 Y263.947 E13.5123
G1 X230.545 Y265.231 E13.59668
G1 X228.437 Y266.548 E13.67935
G1 X226.332 Y267.949 E13.76345
G1 X224.242 Y269.427 E13.84859
G1 X222.898 Y270.415 E13.90407
G1 X222.119 Y270.937 E13.93526
G1 X221.299 Y271.392 E13.96645
G1 X220.443 Y271.775 E13.99764
G1 X219.994 Y271.942 E14.01357
G1 X217.391 Y272.847 E14.10523
G1 X215.047 Y273.736 E14.18861
G1 X212.419 Y274.815 E14.2831
G1 X211.537 Y275.134 E14.31429
G1 X210.631 Y275.377 E14.34549
G1 X209.708 Y275.542 E14.37668
G1 X208.774 Y275.627 E14.40787
G1 X207.836 Y275.633 E14.43907
G1 X206.901 Y275.558 E14.47027
G1 X205.976 Y275.405 E14.50145
G1 X204.66 Y275.041 E14.54687
G1 X202.105 Y274.162 E14.63673
G1 X199.69 Y273.405 E14.72091
G1 X197.285 Y272.727 E14.80402
G1 X194.8 Y272.102 E14.88925
G1 X192.359 Y271.561 E14.9724
G1 X189.91 Y271.089 E15.05536
G1 X187.42 Y270.682 E15.13927
G1 X184.909 Y270.344 E15.22354
G1 X182.441 Y270.084 E15.30608
G1 X179.897 Y269.888 E15.39095
G1 X177.399 Y269.766 E15.47413
G1 X174.876 Y269.714 E15.55806
G1 X172.353 Y269.734 E15.64198
G1 X169.831 Y269.825 E15.72592
G1 X167.35 Y269.985 E15.80861
G1 X164.807 Y270.221 E15.89355
G1 X162.339 Y270.522 E15.97625
G1 X159.842 Y270.897 E16.06023
G1 X157.364 Y271.342 E16.14396
G1 X154.902 Y271.855 E16.22761
G1 X152.52 Y272.421 E16.30904
G1 X151.675 Y272.634 E16.33803
G1 X150.756 Y272.824 E16.36924
G1 X149.825 Y272.935 E16.40042
G1 X148.888 Y272.967 E16.43161
G1 X147.819 Y272.905 E16.46722
G1 X145.051 Y272.609 E16.55981
G1 X142.54 Y272.413 E16.64358
G1 X140.023 Y272.289 E16.7274
G1 X137.496 Y272.235 E16.81146
G1 X134.975 Y272.252 E16.89532
G1 X132.489 Y272.34 E16.97805
G1 X129.937 Y272.503 E17.0631
G1 X127.415 Y272.736 E17.14734
G1 X125.755 Y272.918 E17.20289
G1 X124.819 Y272.981 E17.23409
G1 X123.881 Y272.963 E17.26529
G1 X122.949 Y272.866 E17.29646
G1 X122.062 Y272.734 E17.32628
G1 X112.354 Y271.156 E17.65341
G1 X109.837 Y270.819 E17.73787
G1 X107.333 Y270.557 E17.82161
G1 X104.824 Y270.365 E17.90531
G1 X102.326 Y270.245 E17.98849
G1 X99.807 Y270.196 E18.07228
G1 X97.28 Y270.218 E18.15634
G1 X94.756 Y270.311 E18.24034
G1 X92.244 Y270.474 E18.32407
G1 X89.734 Y270.71 E18.40792
G1 X87.28 Y271.01 E18.49015
G1 X84.218 Y271.489 E18.59323
G1 X65.552 Y274.538 E19.22229
G1 X64.828 Y274.646 E19.24663
G1 X63.895 Y274.744 E19.27784
G1 X62.958 Y274.763 E19.30901
G1 X62.022 Y274.702 E19.34021
G1 X61.094 Y274.562 E19.37142
G1 X60.182 Y274.343 E19.40262
G1 X59.293 Y274.047 E19.43378
G1 X58.431 Y273.676 E19.46499
G1 X57.604 Y273.233 E19.4962
G1 X56.726 Y272.655 E19.53116
G1 X54.468 Y271.009 E19.6241
G1 X52.392 Y269.585 E19.70783
G1 X50.28 Y268.221 E19.79145
G1 X48.14 Y266.925 E19.87466
G1 X45.934 Y265.672 E19.95904
G1 X43.727 Y264.5 E20.04216
G1 X41.454 Y263.373 E20.12654
G1 X39.127 Y262.302 E20.21174
G1 X37.609 Y261.635 E20.26689
G1 X36.768 Y261.221 E20.29806
G1 X35.964 Y260.738 E20.32926
G1 X35.207 Y260.188 E20.36038
G1 X34.53 Y259.651 E20.38912
G1 X28.855 Y255.016 E20.63283
G1 X28.208 Y254.471 E20.66096
G1 X27.518 Y253.836 E20.69215
G1 X26.884 Y253.144 E20.72337
G1 X26.312 Y252.401 E20.75456
G1 X25.805 Y251.612 E20.78575
G1 X25.367 Y250.783 E20.81693
G1 X25.002 Y249.919 E20.84813
G1 X24.711 Y249.028 E20.8793
G1 X24.497 Y248.114 E20.91053
G1 X24.362 Y247.186 E20.94172
G1 X24.307 Y246.25 E20.9729
G1 X24.331 Y245.313 E21.00408
G1 X24.435 Y244.38 E21.0353
G1 X24.618 Y243.461 E21.06647
G1 X24.955 Y242.342 E21.10534
G1 X25.296 Y241.398 E21.13872
G1 X28.695 Y232.41 E21.45832
G1 X29.557 Y230.034 E21.54239
G1 X30.355 Y227.618 E21.62702
G1 X31.077 Y225.209 E21.71066
G1 X31.733 Y222.764 E21.79486
G1 X32.315 Y220.331 E21.87806
G1 X32.832 Y217.853 E21.96226
G1 X33.275 Y215.387 E22.04559
G1 X33.654 Y212.874 E22.13012
G1 X33.956 Y210.393 E22.21324
G1 X34.189 Y207.898 E22.29659
G1 X34.35 Y205.4 E22.37985
G1 X34.442 Y202.867 E22.46415
G1 X34.463 Y200.343 E22.5481
G1 X34.412 Y197.82 E22.63203
G1 X34.291 Y195.335 E22.71478
G1 X34.097 Y192.808 E22.79908
G1 X33.83 Y190.267 E22.88406
G1 X33.505 Y187.843 E22.9654
G1 X33.089 Y185.297 E23.0512
G1 X32.618 Y182.846 E23.13422
G1 X32.235 Y181.076 E23.19445
G1 X32.076 Y180.152 E23.22563
G1 X31.996 Y179.217 E23.25685
G1 X31.996 Y178.279 E23.28804
G1 X32.049 Y177.572 E23.31162
G1 X32.344 Y174.832 E23.40328
G1 X32.539 Y172.343 E23.48632
G1 X32.664 Y169.823 E23.57024
G1 X32.718 Y167.335 E23.65301
G1 X32.701 Y164.768 E23.73839
G1 X32.615 Y162.291 E23.82083
G1 X32.455 Y159.772 E23.90478
G1 X32.218 Y157.188 E23.99108
G1 X32.034 Y155.529 E24.0466
G1 X31.97 Y154.593 E24.0778
G1 X31.987 Y153.655 E24.10901
G1 X32.084 Y152.721 E24.14024
G1 X32.213 Y151.848 E24.16959
G1 X33.383 Y144.662 E24.41174
G1 X33.646 Y143.18 E24.46181
G1 X33.975 Y141.464 E24.51992
G1 X34.378 Y138.985 E24.60345
G1 X34.708 Y136.509 E24.68654
G1 X34.973 Y133.987 E24.77088
G1 X35.166 Y131.455 E24.85534
G1 X35.285 Y128.983 E24.93765
G1 X35.334 Y126.426 E25.02271
G1 X35.312 Y123.927 E25.10583
G1 X35.219 Y121.383 E25.1905
G1 X35.057 Y118.914 E25.2728
G1 X34.82 Y116.388 E25.35718
G1 X34.515 Y113.9 E25.44056
G1 X34.138 Y111.398 E25.52471
G1 X33.693 Y108.932 E25.60806
G1 X33.182 Y106.496 E25.69084
G1 X32.588 Y104.011 E25.77582
G1 X31.938 Y101.601 E25.85884
G1 X31.202 Y99.147 E25.94405
G1 X30.431 Y96.82 E26.02559
G1 X29.505 Y94.269 E26.11585
G1 X28.701 Y92.147 E26.19133
G1 X28.447 Y91.446 E26.21612
G1 X28.165 Y90.552 E26.2473
G1 X27.961 Y89.636 E26.27852
G1 X27.835 Y88.707 E26.3097
G1 X27.789 Y87.77 E26.3409
G1 X27.823 Y86.833 E26.37208
G1 X27.937 Y85.902 E26.40328
G1 X28.129 Y84.984 E26.43447
G1 X28.399 Y84.086 E26.46566
G1 X28.745 Y83.214 E26.49687
G1 X29.163 Y82.375 E26.52804
G1 X29.652 Y81.574 E26.55926
G1 X30.207 Y80.818 E26.59045
G1 X30.824 Y80.112 E26.62163
G1 X31.688 Y79.298 E26.66112
G1 X32.425 Y78.677 E26.69317
G1 X46.353 Y67.284 E27.29166
G1 X47.047 Y66.732 E27.32115
G1 X47.806 Y66.181 E27.35235
G0 F6000 X48.041 Y66.505
G1 F1200 X48.83 Y66.031 E27.38296
G1 X49.658 Y65.627 E27.4136
G1 X50.517 Y65.297 E27.44421
G1 X51.402 Y65.043 E27.47483
G1 X52.305 Y64.866 E27.50544
G1 X53.221 Y64.769 E27.53608
G1 X54.141 Y64.751 E27.56668
G1 X55.011 Y64.808 E27.59568
G1 X57.786 Y65.105 E27.6885
G1 X60.311 Y65.302 E27.77274
G1 X62.82 Y65.426 E27.85629
G1 X65.369 Y65.48 E27.94109
G1 X67.913 Y65.463 E28.02571
G1 X70.385 Y65.375 E28.10798
G1 X72.96 Y65.211 E28.1938
G1 X75.492 Y64.977 E28.27837
G1 X77.163 Y64.794 E28.33428
G1 X78.082 Y64.734 E28.36491
G1 X79.002 Y64.753 E28.39552
G1 X79.869 Y64.845 E28.42451
G1 X80.725 Y64.972 E28.4533
G1 X83.237 Y65.38 E28.53794
G1 X85.767 Y65.756 E28.62301
G1 X88.303 Y66.059 E28.70796
G1 X90.804 Y66.287 E28.79149
G1 X93.304 Y66.442 E28.8748
G1 X95.851 Y66.529 E28.95956
G1 X98.399 Y66.544 E29.04431
G1 X100.906 Y66.487 E29.12772
G1 X103.425 Y66.359 E29.21161
G1 X105.955 Y66.159 E29.29602
G1 X108.484 Y65.886 E29.38062
G1 X110.962 Y65.548 E29.4638
G1 X113.474 Y65.133 E29.54848
G1 X115.96 Y64.649 E29.63272
G1 X118.389 Y64.106 E29.7155
G1 X120.84 Y63.483 E29.79962
G1 X122.316 Y63.054 E29.85074
G1 X122.486 Y63.013 E29.85656
G1 X123.771 Y62.65 E29.90097
G1 X124.667 Y62.439 E29.93159
G1 X125.578 Y62.306 E29.96221
G1 X126.498 Y62.253 E29.99286
G1 X127.777 Y62.312 E30.03544
G1 X130.554 Y62.609 E30.12833
G1 X133.075 Y62.806 E30.21244
G1 X135.584 Y62.93 E30.29599
G1 X138.133 Y62.984 E30.38079
G1 X140.677 Y62.967 E30.4654
G1 X143.149 Y62.879 E30.54767
G1 X145.724 Y62.715 E30.63349
G1 X148.249 Y62.482 E30.71783
G1 X149.924 Y62.298 E30.77388
G1 X150.843 Y62.238 E30.80451
G1 X151.763 Y62.257 E30.83511
G1 X152.632 Y62.349 E30.86418
G1 X153.403 Y62.463 E30.8901
G1 X160.523 Y63.62 E31.13002
G1 X163.097 Y64.002 E31.21657
G1 X165.637 Y64.306 E31.30165
G1 X168.139 Y64.534 E31.38521
G1 X170.639 Y64.689 E31.46852
G1 X173.185 Y64.776 E31.55325
G1 X175.736 Y64.79 E31.6381
G1 X178.239 Y64.734 E31.72137
G1 X180.762 Y64.606 E31.80539
G1 X183.287 Y64.406 E31.88964
G1 X185.818 Y64.133 E31.97431
G1 X188.277 Y63.797 E32.05686
G1 X190.825 Y63.376 E32.14275
G1 X193.295 Y62.895 E32.22645
G1 X195.724 Y62.352 E32.30923
G1 X198.197 Y61.723 E32.3941
G1 X200.65 Y61.025 E32.47893
G1 X203.04 Y60.272 E32.56227
G1 X205.439 Y59.441 E32.64671
G1 X207.218 Y58.778 E32.70986
G1 X208.094 Y58.495 E32.74048
G1 X208.991 Y58.288 E32.7711
G1 X209.903 Y58.161 E32.80172
G1 X210.822 Y58.112 E32.83233
G1 X211.742 Y58.144 E32.86295
G1 X212.656 Y58.256 E32.89358
G1 X213.557 Y58.446 E32.9242
G1 X214.488 Y58.732 E32.9566
G1 X215.374 Y59.051 E32.98792
G1 X232.454 Y65.512 E33.59529
G1 X233.099 Y65.766 E33.61834
G1 X233.94 Y66.14 E33.64896
G1 X234.746 Y66.586 E33.67959
G1 X235.509 Y67.1 E33.71019
G1 X236.226 Y67.679 E33.74084
G1 X236.889 Y68.317 E33.77145
G1 X237.495 Y69.01 E33.80207
G1 X238.038 Y69.754 E33.8327
G1 X238.514 Y70.542 E33.86332
G1 X238.909 Y71.34 E33.89294
G1 X240.026 Y73.864 E33.98474
G1 X241.082 Y76.081 E34.06641
G1 X242.246 Y78.354 E34.15135
G1 X243.475 Y80.595 E34.23636
G1 X244.747 Y82.767 E34.32008
G1 X246.074 Y84.891 E34.40338
