;FLAVOR:Marlin
;TIME:10385
;Filament used: 7.75511m
;Layer height: 0.2
;MINX:98.062
;MINY:77.948
;MINZ:0.2
;MAXX:210.295
;MAXY:205.315
;MAXZ:7
;Generated with Cura_SteamEngine 5.2.1
M140 S60
M105
M190 S60
M104 S215
M105
M109 S215
M82 ;absolute extrusion mode
; Ender 3 Max Custom Start G-code
G92 E0 ; Reset Extruder
G28 ; Home all axes
G1 Z2.0 F3000 ; Move Z Axis up little to prevent scratching of Heat Bed
G1 X0.1 Y20 Z0.3 F5000.0 ; Move to start position
G1 X0.1 Y200.0 Z0.3 F1500.0 E15 ; Draw the first line
G1 X0.4 Y200.0 Z0.3 F5000.0 ; Move to side a little
G1 X0.4 Y20 Z0.3 F1500.0 E30 ; Draw the second line
G92 E0 ; Reset Extruder
G1 Z2.0 F3000 ; Move Z Axis up little to prevent scratching of Heat Bed
G1 X5 Y20 Z0.3 F5000.0 ; Move over to prevent blob squish
G92 E0
G92 E0
G1 F1500 E-6.5
;LAYER_COUNT:35
;LAYER:0
M107
G0 F6000 X100.873 Y81.893 Z0.2
;TYPE:SKIRT
G1 F1500 E0
G1 F1200 X101.505 Y81.2 E0.03119
G1 X102.194 Y80.564 E0.06238
G1 X102.935 Y79.989 E0.09358
G1 X103.722 Y79.479 E0.12477
G1 X104.55 Y79.038 E0.15597
G1 X105.412 Y78.669 E0.18716
G1 X106.303 Y78.375 E0.21836
G1 X107.215 Y78.157 E0.24955
G1 X108.142 Y78.019 E0.28072
G1 X108.996 Y77.961 E0.30919
G1 X109.625 Y77.948 E0.33012
G1 X198.746 Y77.949 E3.29429
G1 X199.444 Y77.959 E3.31751
G1 X200.38 Y78.013 E3.3487
G1 X201.308 Y78.145 E3.37987
G1 X202.222 Y78.357 E3.41108
G1 X203.114 Y78.646 E3.44227
G1 X203.979 Y79.009 E3.47347
G1 X204.809 Y79.445 E3.50465
G1 X205.6 Y79.95 E3.53586
G1 X206.344 Y80.521 E3.56706
G1 X207.037 Y81.153 E3.59825
G1 X207.674 Y81.841 E3.62944
G1 X208.249 Y82.582 E3.66063
G1 X208.76 Y83.368 E3.69181
G1 X209.202 Y84.196 E3.72303
G1 X209.571 Y85.058 E3.75422
G1 X209.866 Y85.948 E3.7854
G1 X210.084 Y86.86 E3.81659
G1 X210.224 Y87.788 E3.8478
G1 X210.282 Y88.649 E3.87651
G1 X210.295 Y89.278 E3.89743
G1 X210.294 Y116.641 E4.80753
G1 X210.284 Y117.342 E4.83085
G1 X210.231 Y118.278 E4.86203
G1 X210.098 Y119.207 E4.89324
G1 X209.972 Y119.789 E4.91305
G1 X209.726 Y120.8 E4.94765
G1 X209.141 Y123.34 E5.03435
G1 X208.64 Y125.834 E5.11895
G1 X208.216 Y128.306 E5.20237
G1 X207.859 Y130.814 E5.28663
G1 X207.579 Y133.269 E5.36881
G1 X207.362 Y135.825 E5.45413
G1 X207.221 Y138.301 E5.53662
G1 X207.149 Y140.848 E5.62137
G1 X207.149 Y143.337 E5.70415
G1 X207.221 Y145.868 E5.78837
G1 X207.364 Y148.408 E5.87298
G1 X207.573 Y150.868 E5.9551
G1 X207.859 Y153.387 E6.03942
G1 X208.214 Y155.886 E6.12337
G1 X208.643 Y158.385 E6.2077
G1 X209.134 Y160.834 E6.29078
G1 X209.774 Y163.624 E6.38598
G1 X209.945 Y164.546 E6.41717
G1 X210.051 Y165.893 E6.46211
G1 X210.062 Y166.601 E6.48566
G1 X210.061 Y193.73 E7.38798
G1 X210.051 Y194.457 E7.41216
G1 X209.998 Y195.394 E7.44337
G1 X209.866 Y196.322 E7.47455
G1 X209.655 Y197.236 E7.50575
G1 X209.366 Y198.128 E7.53693
G1 X209.003 Y198.993 E7.56813
G1 X208.568 Y199.824 E7.59933
G1 X208.063 Y200.614 E7.63052
G1 X207.493 Y201.359 E7.66172
G1 X206.862 Y202.053 E7.69291
G1 X206.173 Y202.69 E7.72412
G1 X205.433 Y203.266 E7.75531
G1 X204.647 Y203.777 E7.78649
G1 X203.82 Y204.219 E7.81768
G1 X202.958 Y204.589 E7.84888
G1 X202.068 Y204.884 E7.88007
G1 X201.156 Y205.103 E7.91126
G1 X200.229 Y205.243 E7.94244
G1 X199.361 Y205.302 E7.97138
G1 X198.732 Y205.315 E7.99231
G1 X109.627 Y205.314 E10.95595
G1 X108.929 Y205.305 E10.97917
G1 X107.993 Y205.253 E11.01035
G1 X107.064 Y205.121 E11.04156
G1 X106.15 Y204.911 E11.07275
G1 X105.257 Y204.624 E11.10395
G1 X104.392 Y204.261 E11.13515
G1 X103.561 Y203.827 E11.16633
G1 X102.77 Y203.323 E11.19752
G1 X102.025 Y202.753 E11.22872
G1 X101.331 Y202.122 E11.25992
G1 X100.694 Y201.435 E11.29108
G1 X100.117 Y200.695 E11.32229
G1 X99.605 Y199.909 E11.35349
G1 X99.162 Y199.082 E11.38469
G1 X98.791 Y198.221 E11.41588
G1 X98.495 Y197.331 E11.44707
G1 X98.276 Y196.419 E11.47827
G1 X98.135 Y195.492 E11.50946
G1 X98.075 Y194.603 E11.53909
G1 X98.062 Y193.973 E11.56005
G1 X98.063 Y166.608 E12.47021
G1 X98.074 Y165.902 E12.4937
G1 X98.129 Y164.965 E12.52492
G1 X98.263 Y164.037 E12.5561
G1 X98.386 Y163.467 E12.5755
G1 X98.64 Y162.426 E12.61114
G1 X99.216 Y159.923 E12.69656
G1 X99.717 Y157.429 E12.78117
G1 X100.141 Y154.957 E12.86459
G1 X100.498 Y152.449 E12.94885
G1 X100.778 Y149.994 E13.03103
G1 X100.995 Y147.438 E13.11635
G1 X101.136 Y144.962 E13.19883
G1 X101.208 Y142.415 E13.28358
G1 X101.208 Y139.926 E13.36637
G1 X101.136 Y137.393 E13.45065
G1 X100.993 Y134.856 E13.53516
G1 X100.784 Y132.395 E13.61731
G1 X100.498 Y129.88 E13.7015
G1 X100.142 Y127.372 E13.78575
G1 X99.715 Y124.884 E13.86971
G1 X99.221 Y122.42 E13.9533
G1 X98.751 Y120.348 E14.02396
G1 X98.604 Y119.733 E14.04499
G1 X98.425 Y118.813 E14.07617
G1 X98.326 Y117.88 E14.10737
G1 X98.306 Y117.373 E14.12425
G1 X98.295 Y116.662 E14.1479
G1 X98.296 Y89.457 E15.05274
G1 X98.306 Y88.792 E15.07486
G1 X98.36 Y87.855 E15.10608
G1 X98.494 Y86.927 E15.13726
G1 X98.706 Y86.013 E15.16847
G1 X98.995 Y85.121 E15.19966
G1 X99.36 Y84.257 E15.23085
G1 X99.796 Y83.427 E15.26203
G1 X100.302 Y82.637 E15.29324
G1 X100.873 Y81.893 E15.32443
G0 F6000 X101.267 Y82.047
G1 F1200 X101.897 Y81.375 E15.35507
G1 X102.583 Y80.761 E15.38569
G1 X103.319 Y80.209 E15.41629
G1 X104.101 Y79.722 E15.44693
G1 X104.922 Y79.306 E15.47754
G1 X105.776 Y78.962 E15.50816
G1 X106.656 Y78.693 E15.53877
G1 X107.557 Y78.502 E15.5694
G1 X108.471 Y78.39 E15.60003
G1 X109.007 Y78.361 E15.61788
G1 X109.625 Y78.348 E15.63844
G1 X198.74 Y78.349 E18.60242
G1 X199.438 Y78.359 E18.62564
G1 X200.357 Y78.412 E18.65625
G1 X201.268 Y78.545 E18.68688
G1 X202.164 Y78.756 E18.71749
G1 X203.038 Y79.044 E18.7481
G1 X203.885 Y79.407 E18.77875
G1 X204.696 Y79.842 E18.80936
G1 X205.466 Y80.346 E18.83997
G1 X206.19 Y80.915 E18.87059
G1 X206.862 Y81.545 E18.90123
G1 X207.477 Y82.23 E18.93185
G1 X208.03 Y82.966 E18.96247
G1 X208.517 Y83.747 E18.99308
G1 X208.934 Y84.568 E19.02371
G1 X209.279 Y85.422 E19.05434
G1 X209.548 Y86.302 E19.08495
G1 X209.74 Y87.203 E19.11559
G1 X209.853 Y88.116 E19.14619
G1 X209.882 Y88.66 E19.1643
G1 X209.895 Y89.278 E19.18486
G1 X209.894 Y116.635 E20.09476
G1 X209.884 Y117.336 E20.11808
G1 X209.831 Y118.255 E20.1487
G1 X209.698 Y119.166 E20.17932
G1 X209.584 Y119.694 E20.19728
G1 X209.317 Y120.79 E20.2348
G1 X208.752 Y123.242 E20.31849
G1 X208.248 Y125.753 E20.40368
G1 X207.819 Y128.254 E20.48807
G1 X207.464 Y130.749 E20.57189
G1 X207.178 Y133.261 E20.65598
G1 X206.965 Y135.769 E20.7397
G1 X206.821 Y138.301 E20.82405
G1 X206.749 Y140.837 E20.90843
G1 X206.749 Y143.348 E20.99195
G1 X206.821 Y145.903 E21.07696
G1 X206.962 Y148.395 E21.15998
G1 X207.179 Y150.946 E21.24513
G1 X207.459 Y153.417 E21.32784
G1 X207.822 Y155.972 E21.41368
G1 X208.244 Y158.431 E21.49666
G1 X208.744 Y160.923 E21.58119
G1 X209.384 Y163.713 E21.6764
G1 X209.551 Y164.619 E21.70704
G1 X209.651 Y165.9 E21.74978
G1 X209.662 Y166.601 E21.7731
G1 X209.661 Y193.725 E22.67524
G1 X209.651 Y194.452 E22.69943
G1 X209.598 Y195.371 E22.73004
G1 X209.466 Y196.282 E22.76066
G1 X209.255 Y197.178 E22.79128
G1 X208.968 Y198.053 E22.8219
G1 X208.605 Y198.899 E22.85252
G1 X208.171 Y199.711 E22.88315
G1 X207.667 Y200.482 E22.91378
G1 X207.099 Y201.206 E22.94439
G1 X206.47 Y201.878 E22.975
G1 X205.785 Y202.493 E23.00562
G1 X205.049 Y203.046 E23.03624
G1 X204.268 Y203.534 E23.06687
G1 X203.448 Y203.952 E23.09748
G1 X202.594 Y204.297 E23.12812
G1 X201.714 Y204.566 E23.15872
G1 X200.813 Y204.759 E23.18937
G1 X199.9 Y204.872 E23.21997
G1 X199.35 Y204.902 E23.23829
G1 X198.732 Y204.915 E23.25885
G1 X109.632 Y204.914 E26.22233
G1 X108.934 Y204.905 E26.24554
G1 X108.015 Y204.853 E26.27616
G1 X107.104 Y204.722 E26.30677
G1 X106.208 Y204.512 E26.33738
G1 X105.333 Y204.225 E26.36801
G1 X104.486 Y203.863 E26.39864
G1 X103.674 Y203.429 E26.42927
G1 X102.903 Y202.927 E26.45987
G1 X102.178 Y202.359 E26.4905
G1 X101.505 Y201.73 E26.52114
G1 X100.89 Y201.046 E26.55173
G1 X100.336 Y200.311 E26.58234
G1 X99.848 Y199.53 E26.61297
G1 X99.429 Y198.71 E26.6436
G1 X99.083 Y197.857 E26.67422
G1 X98.813 Y196.977 E26.70483
G1 X98.62 Y196.076 E26.73548
G1 X98.506 Y195.163 E26.76608
G1 X98.475 Y194.592 E26.7851
G1 X98.462 Y193.973 E26.80569
G1 X98.463 Y166.614 E27.71566
G1 X98.474 Y165.908 E27.73914
G1 X98.529 Y164.989 E27.76976
G1 X98.662 Y164.078 E27.80039
G1 X98.775 Y163.562 E27.81795
G1 X99.026 Y162.532 E27.85321
G1 X99.605 Y160.021 E27.93892
G1 X100.109 Y157.51 E28.0241
G1 X100.538 Y155.009 E28.1085
G1 X100.893 Y152.514 E28.19232
G1 X101.179 Y150.002 E28.27641
G1 X101.392 Y147.494 E28.36013
G1 X101.536 Y144.962 E28.44448
G1 X101.608 Y142.426 E28.52886
G1 X101.608 Y139.915 E28.61238
G1 X101.536 Y137.36 E28.69739
G1 X101.396 Y134.87 E28.78034
G1 X101.178 Y132.314 E28.86566
G1 X100.898 Y129.85 E28.94814
G1 X100.538 Y127.314 E29.03333
G1 X100.108 Y124.809 E29.11787
G1 X99.611 Y122.331 E29.20193
G1 X99.155 Y120.32 E29.27051
G1 X98.993 Y119.641 E29.29373
G1 X98.818 Y118.737 E29.32436
G1 X98.706 Y117.366 E29.37011
G1 X98.695 Y116.662 E29.39353
G1 X98.696 Y89.463 E30.29817
G1 X98.706 Y88.798 E30.32029
G1 X98.76 Y87.879 E30.35091
G1 X98.893 Y86.968 E30.38153
G1 X99.105 Y86.072 E30.41215
G1 X99.394 Y85.197 E30.4428
G1 X99.758 Y84.352 E30.4734
G1 X100.193 Y83.541 E30.50401
G1 X100.698 Y82.77 E30.53467
G1 X101.267 Y82.047 E30.56527
G0 F6000 X101.661 Y82.204
G1 F1200 X102.288 Y81.554 E30.59531
G1 X102.97 Y80.962 E30.62534
G1 X103.702 Y80.433 E30.65538
G1 X104.478 Y79.971 E30.68542
G1 X105.292 Y79.58 E30.71545
G1 X106.137 Y79.261 E30.7455
G1 X107.007 Y79.019 E30.77553
G1 X107.895 Y78.855 E30.80557
G1 X109.018 Y78.761 E30.84305
G1 X109.625 Y78.748 E30.86324
G1 X198.734 Y78.749 E33.82702
G1 X199.432 Y78.759 E33.85024
G1 X200.334 Y78.812 E33.88029
G1 X201.227 Y78.944 E33.91031
G1 X202.105 Y79.155 E33.94035
G1 X202.961 Y79.443 E33.97038
G1 X203.788 Y79.805 E34.00041
G1 X204.58 Y80.24 E34.03046
G1 X205.331 Y80.742 E34.06051
G1 X206.034 Y81.309 E34.09055
G1 X206.684 Y81.936 E34.12059
G1 X207.276 Y82.618 E34.15062
G1 X207.806 Y83.349 E34.18066
G1 X208.268 Y84.125 E34.21069
G1 X208.661 Y84.938 E34.24073
G1 X208.979 Y85.783 E34.27076
G1 X209.222 Y86.653 E34.3008
G1 X209.387 Y87.541 E34.33084
G1 X209.482 Y88.671 E34.36856
G1 X209.495 Y89.278 E34.38875
G1 X209.494 Y116.629 E35.29845
G1 X209.484 Y117.33 E35.32177
G1 X209.431 Y118.232 E35.35182
G1 X209.299 Y119.125 E35.38184
G1 X209.195 Y119.599 E35.39798
G1 X208.958 Y120.571 E35.43126
G1 X208.349 Y123.213 E35.52144
G1 X207.854 Y125.678 E35.60506
G1 X207.428 Y128.166 E35.68901
G1 X207.07 Y130.679 E35.77344
G1 X206.777 Y133.253 E35.85961
G1 X206.565 Y135.748 E35.94289
G1 X206.421 Y138.266 E36.02677
G1 X206.349 Y140.826 E36.11195
G1 X206.349 Y143.359 E36.1962
G1 X206.421 Y145.9 E36.28075
G1 X206.565 Y148.452 E36.36577
G1 X206.778 Y150.953 E36.44925
G1 X207.065 Y153.481 E36.53387
G1 X207.427 Y156.03 E36.6195
G1 X207.85 Y158.5 E36.70285
G1 X208.35 Y160.993 E36.78742
G1 X208.995 Y163.803 E36.88331
G1 X209.157 Y164.691 E36.91333
G1 X209.251 Y165.906 E36.95387
G1 X209.262 Y166.601 E36.97698
G1 X209.261 Y193.719 E37.87893
G1 X209.251 Y194.446 E37.90311
G1 X209.199 Y195.348 E37.93317
G1 X209.067 Y196.241 E37.96319
G1 X208.856 Y197.12 E37.99326
G1 X208.569 Y197.976 E38.02328
G1 X208.207 Y198.803 E38.05331
G1 X207.773 Y199.595 E38.08335
G1 X207.271 Y200.346 E38.11339
G1 X206.705 Y201.049 E38.14341
G1 X206.078 Y201.7 E38.17347
G1 X205.397 Y202.292 E38.20348
G1 X204.666 Y202.822 E38.23352
G1 X203.89 Y203.285 E38.26357
G1 X203.077 Y203.678 E38.2936
G1 X202.232 Y203.998 E38.32366
G1 X201.363 Y204.241 E38.35367
G1 X200.475 Y204.406 E38.38371
G1 X199.339 Y204.502 E38.42163
G1 X198.732 Y204.515 E38.44182
G1 X109.637 Y204.514 E41.40513
G1 X108.939 Y204.505 E41.42835
G1 X108.038 Y204.454 E41.45837
G1 X107.144 Y204.322 E41.48842
G1 X106.266 Y204.113 E41.51844
G1 X105.409 Y203.826 E41.5485
G1 X104.582 Y203.465 E41.57851
G1 X103.789 Y203.032 E41.60856
G1 X103.038 Y202.531 E41.63859
G1 X102.334 Y201.965 E41.66864
G1 X101.683 Y201.339 E41.69867
G1 X101.09 Y200.658 E41.72871
G1 X100.56 Y199.927 E41.75874
G1 X100.096 Y199.152 E41.78878
G1 X99.702 Y198.339 E41.81883
G1 X99.382 Y197.495 E41.84885
G1 X99.138 Y196.625 E41.87891
G1 X98.972 Y195.737 E41.90895
G1 X98.875 Y194.582 E41.9475
G1 X98.862 Y193.973 E41.96776
G1 X98.863 Y166.62 E42.87753
G1 X98.874 Y165.914 E42.90101
G1 X98.928 Y165.013 E42.93103
G1 X99.062 Y164.119 E42.9611
G1 X99.163 Y163.657 E42.97683
G1 X99.411 Y162.638 E43.01171
G1 X100.008 Y160.05 E43.10005
G1 X100.503 Y157.585 E43.18367
G1 X100.929 Y155.097 E43.26763
G1 X101.287 Y152.584 E43.35205
G1 X101.58 Y150.01 E43.43822
G1 X101.792 Y147.515 E43.5215
G1 X101.936 Y144.997 E43.60539
G1 X102.008 Y142.437 E43.69057
G1 X102.008 Y139.904 E43.77481
G1 X101.936 Y137.36 E43.85946
G1 X101.793 Y134.815 E43.94424
G1 X101.579 Y132.307 E44.02796
G1 X101.288 Y129.746 E44.11369
G1 X100.936 Y127.267 E44.19697
G1 X100.507 Y124.762 E44.2815
G1 X100.003 Y122.25 E44.36671
G1 X99.541 Y120.215 E44.43612
G1 X99.382 Y119.548 E44.45892
G1 X99.212 Y118.661 E44.48896
G1 X99.106 Y117.359 E44.53241
G1 X99.095 Y116.662 E44.5556
G1 X99.096 Y89.469 E45.46004
G1 X99.106 Y88.804 E45.48216
G1 X99.16 Y87.902 E45.51221
G1 X99.293 Y87.009 E45.54224
G1 X99.504 Y86.131 E45.57228
G1 X99.793 Y85.275 E45.60233
G1 X100.156 Y84.448 E45.63237
G1 X100.59 Y83.657 E45.66237
G1 X101.093 Y82.906 E45.69244
G1 X101.661 Y82.204 E45.72247
G1 F1500 E39.22247
;MESH:card_stand_dragon.stl
G0 F6000 X108.63 Y89.368
G0 X153.545 Y126.318
;TYPE:WALL-INNER
G1 F1500 E45.72247
G1 F1200 X154.285 Y126.347 E45.7471
G1 X155.032 Y126.319 E45.77197
G1 X155.764 Y126.232 E45.79648
G1 X156.616 Y126.059 E45.8254
G1 X198.695 Y116.709 E47.25909
G1 X198.695 Y104.619 E47.6612
G1 X198.695 Y89.548 E48.16247
G1 X109.896 Y89.549 E51.11593
G1 X109.896 Y116.709 E52.01928
G1 X152.084 Y126.084 E53.45668
G1 X152.815 Y126.23 E53.48148
G1 X153.545 Y126.318 E53.50593
G0 F6000 X153.513 Y126.717
;TYPE:WALL-OUTER
G1 F1200 X154.285 Y126.747 E53.53163
G1 X155.063 Y126.718 E53.55752
G1 X155.827 Y126.627 E53.58311
G1 X156.577 Y126.477 E53.60855
G1 X199.095 Y117.03 E55.05719
G1 X199.095 Y104.619 E55.46999
G1 X199.095 Y89.148 E55.98455
G1 X109.496 Y89.149 E58.96463
G1 X109.496 Y117.03 E59.89195
G1 X152.002 Y126.476 E61.3402
G1 X152.752 Y126.625 E61.36563
G1 X153.513 Y126.717 E61.39113
G0 F6000 X153.574 Y125.958
;TYPE:SKIN
G1 F1200 X154.286 Y125.986 E61.41483
G1 X155.003 Y125.959 E61.43869
G1 X155.705 Y125.876 E61.4622
G1 X156.529 Y125.709 E61.49016
G1 X198.335 Y116.42 E62.91455
G1 X198.335 Y104.619 E63.30705
G1 X198.335 Y89.908 E63.79634
G1 X110.257 Y89.91 E66.72583
G1 X110.257 Y116.42 E67.60755
G1 X152.159 Y125.732 E69.03522
G1 X152.872 Y125.874 E69.0594
G1 X153.574 Y125.958 E69.08291
G1 F1500 E62.58291
G0 F6000 X153.565 Y126.218
G0 X110.065 Y116.574
G0 X109.996 Y116.113
G1 F1500 E69.08291
G0 F6000 X110.456 Y116.113
G1 F1200 X110.643 Y116.3 E69.09171
G0 F6000 X111.371 Y116.462
G1 F1200 X110.456 Y115.547 E69.13475
G0 F6000 X110.456 Y114.981
G1 F1200 X112.099 Y116.624 E69.21203
G0 F6000 X112.825 Y116.785
G1 F1200 X110.456 Y114.416 E69.32346
G0 F6000 X110.456 Y113.85
G1 F1200 X113.553 Y116.947 E69.46913
G0 F6000 X114.28 Y117.108
G1 F1200 X110.456 Y113.284 E69.649
G0 F6000 X110.456 Y112.719
G1 F1200 X115.008 Y117.27 E69.86309
G0 F6000 X115.734 Y117.432
G1 F1200 X110.456 Y112.153 E70.11138
G0 F6000 X110.456 Y111.587
G1 F1200 X116.462 Y117.593 E70.39388
G0 F6000 X117.19 Y117.755
G1 F1200 X110.456 Y111.022 E70.7106
G0 F6000 X110.456 Y110.456
G1 F1200 X117.917 Y117.917 E71.06155
G0 F6000 X118.644 Y118.079
G1 F1200 X110.456 Y109.89 E71.44671
G0 F6000 X110.456 Y109.325
G1 F1200 X119.371 Y118.24 E71.86604
