;FLAVOR:Marlin
;TIME:10577
;Filament used: 6.84304m
;Layer height: 0.16
;MINX:115.299
;MINY:124.799
;MINZ:0.2
;MAXX:184.701
;MAXY:175.201
;MAXZ:20
;Generated with Cura_SteamEngine 5.2.1
M140 S60
M105
M190 S60
M104 S215
M105
M109 S215
M82 ;absolute extrusion mode
; Ender 3 Max Custom Start G-code
G92 E0 ; Reset Extruder
G28 ; Home all axes
G1 Z2.0 F3000 ; Move Z Axis up little to prevent scratching of Heat Bed
G1 X0.1 Y20 Z0.3 F5000.0 ; Move to start position
G1 X0.1 Y200.0 Z0.3 F1500.0 E15 ; Draw the first line
G1 X0.4 Y200.0 Z0.3 F5000.0 ; Move to side a little
G1 X0.4 Y20 Z0.3 F1500.0 E30 ; Draw the second line
G92 E0 ; Reset Extruder
G1 Z2.0 F3000 ; Move Z Axis up little to prevent scratching of Heat Bed
G1 X5 Y20 Z0.3 F5000.0 ; Move over to prevent blob squish
G92 E0
G92 E0
G1 F1500 E-6.5
;LAYER_COUNT:103
;LAYER:0
M107
G0 F6000 X119.269 Y128.592 Z0.2
;TYPE:SKIRT
G1 F1500 E0
G1 F1200 X119.957 Y127.955 E0.03119
G1 X120.89 Y127.244 E0.0702
G1 X121.275 Y126.982 E0.08569
G1 X122.073 Y126.488 E0.1169
G1 X123.324 Y125.885 E0.16309
G1 X123.74 Y125.716 E0.17803
G1 X124.623 Y125.4 E0.20922
G1 X125.651 Y125.135 E0.24453
G1 X126.057 Y125.051 E0.25832
G1 X126.983 Y124.9 E0.28953
G1 X128.05 Y124.826 E0.3251
G1 X129.405 Y124.799 E0.37018
G1 X171.139 Y124.803 E1.75826
G1 X171.76 Y124.812 E1.77891
G1 X172.697 Y124.866 E1.81013
G1 X173.397 Y124.959 E1.83361
G1 X173.977 Y125.055 E1.85317
G1 X174.895 Y125.247 E1.88436
G1 X175.793 Y125.517 E1.91555
G1 X176.665 Y125.863 E1.94675
G1 X177.1 Y126.068 E1.96275
G1 X177.712 Y126.374 E1.9855
G1 X178.533 Y126.829 E2.01672
G1 X179.311 Y127.352 E2.0479
G1 X180.042 Y127.94 E2.07911
G1 X180.539 Y128.403 E2.1017
G1 X180.908 Y128.769 E2.11898
G1 X181.545 Y129.457 E2.15017
G1 X182.256 Y130.39 E2.18919
G1 X182.518 Y130.775 E2.20467
G1 X183.012 Y131.573 E2.23589
G1 X183.619 Y132.832 E2.28238
G1 X183.788 Y133.249 E2.29734
G1 X184.102 Y134.133 E2.32854
G1 X184.364 Y135.147 E2.36338
G1 X184.448 Y135.552 E2.37713
G1 X184.599 Y136.478 E2.40834
G1 X184.674 Y137.548 E2.44402
G1 X184.701 Y138.894 E2.48879
G1 X184.697 Y161.643 E3.24543
G1 X184.688 Y162.258 E3.26588
G1 X184.634 Y163.194 E3.29707
G1 X184.544 Y163.878 E3.32001
G1 X184.448 Y164.463 E3.33973
G1 X184.257 Y165.381 E3.37092
G1 X183.988 Y166.28 E3.40213
G1 X183.485 Y167.494 E3.44584
G1 X183.288 Y167.899 E3.46081
G1 X183.01 Y168.438 E3.48099
G1 X182.536 Y169.247 E3.51217
G1 X181.995 Y170.013 E3.54336
G1 X181.097 Y171.039 E3.58871
G1 X180.731 Y171.408 E3.606
G1 X180.043 Y172.045 E3.63718
G1 X179.11 Y172.756 E3.6762
G1 X178.725 Y173.018 E3.69169
G1 X177.927 Y173.512 E3.7229
G1 X176.676 Y174.115 E3.76909
G1 X176.26 Y174.284 E3.78403
G1 X175.377 Y174.6 E3.81522
G1 X174.349 Y174.865 E3.85053
G1 X173.943 Y174.949 E3.86432
G1 X173.017 Y175.1 E3.89552
G1 X171.95 Y175.174 E3.9311
G1 X170.595 Y175.201 E3.97618
G1 X128.86 Y175.197 E5.36429
G1 X128.24 Y175.188 E5.38491
G1 X127.304 Y175.134 E5.41609
G1 X126.607 Y175.042 E5.43948
G1 X126.026 Y174.946 E5.45906
G1 X125.108 Y174.754 E5.49026
G1 X124.21 Y174.484 E5.52145
G1 X123.338 Y174.139 E5.55264
G1 X122.9 Y173.932 E5.56875
G1 X122.288 Y173.626 E5.59151
G1 X121.467 Y173.171 E5.62273
G1 X120.689 Y172.648 E5.65391
G1 X119.958 Y172.06 E5.68511
G1 X119.461 Y171.597 E5.7077
G1 X119.092 Y171.231 E5.72499
G1 X118.455 Y170.543 E5.75617
G1 X117.744 Y169.61 E5.79519
G1 X117.482 Y169.225 E5.81068
G1 X116.988 Y168.427 E5.84189
G1 X116.381 Y167.168 E5.88838
G1 X116.212 Y166.751 E5.90334
G1 X115.898 Y165.867 E5.93455
G1 X115.636 Y164.853 E5.96938
G1 X115.552 Y164.448 E5.98314
G1 X115.401 Y163.522 E6.01434
G1 X115.326 Y162.45 E6.05008
G1 X115.299 Y161.096 E6.09513
G1 X115.303 Y138.358 E6.8514
G1 X115.312 Y137.739 E6.87199
G1 X115.366 Y136.803 E6.90317
G1 X115.458 Y136.106 E6.92655
G1 X115.554 Y135.525 E6.94614
G1 X115.746 Y134.607 E6.97733
G1 X116.016 Y133.709 E7.00852
G1 X116.361 Y132.837 E7.03971
G1 X116.572 Y132.392 E7.05609
G1 X116.878 Y131.781 E7.07882
G1 X117.333 Y130.961 E7.11001
G1 X117.856 Y130.183 E7.14119
G1 X118.444 Y129.452 E7.17239
G1 X118.903 Y128.961 E7.19475
G1 X119.269 Y128.592 E7.21203
G0 F6000 X119.553 Y128.873
G1 F1200 X120.229 Y128.248 E7.24265
G1 X121.115 Y127.575 E7.27966
G1 X121.5 Y127.313 E7.29515
G1 X122.283 Y126.828 E7.32578
G1 X123.474 Y126.255 E7.36974
G1 X123.89 Y126.086 E7.38468
G1 X124.758 Y125.777 E7.41532
G1 X125.732 Y125.527 E7.44877
G1 X126.138 Y125.443 E7.46256
G1 X127.047 Y125.296 E7.49318
G1 X128.059 Y125.225 E7.52692
G1 X129.177 Y125.201 E7.56412
G1 X171.134 Y125.203 E8.95961
G1 X171.755 Y125.212 E8.98027
G1 X172.674 Y125.265 E9.01089
G1 X173.332 Y125.353 E9.03297
G1 X173.912 Y125.449 E9.05252
G1 X174.813 Y125.639 E9.08315
G1 X175.694 Y125.906 E9.11377
G1 X176.921 Y126.426 E9.15809
G1 X177.533 Y126.732 E9.18085
G1 X178.338 Y127.179 E9.21147
G1 X179.101 Y127.694 E9.24209
G1 X179.817 Y128.274 E9.27274
G1 X180.258 Y128.687 E9.29283
G1 X180.627 Y129.053 E9.31012
G1 X181.252 Y129.729 E9.34074
G1 X181.925 Y130.615 E9.37775
G1 X182.187 Y131 E9.39323
G1 X182.672 Y131.783 E9.42387
G1 X183.248 Y132.983 E9.46814
G1 X183.417 Y133.4 E9.48311
G1 X183.725 Y134.267 E9.51371
G1 X183.972 Y135.228 E9.54671
G1 X184.056 Y135.633 E9.56047
G1 X184.204 Y136.542 E9.5911
G1 X184.275 Y137.556 E9.62491
G1 X184.299 Y138.663 E9.66173
G1 X184.297 Y161.637 E10.42585
G1 X184.288 Y162.252 E10.44631
G1 X184.234 Y163.171 E10.47693
G1 X184.149 Y163.814 E10.4985
G1 X184.053 Y164.399 E10.51822
G1 X183.865 Y165.3 E10.54883
G1 X183.599 Y166.181 E10.57944
G1 X183.125 Y167.319 E10.62044
G1 X182.928 Y167.724 E10.63542
G1 X182.656 Y168.251 E10.65515
G1 X182.191 Y169.045 E10.68575
G1 X181.658 Y169.796 E10.71638
G1 X180.813 Y170.758 E10.75897
G1 X180.447 Y171.127 E10.77625
G1 X179.771 Y171.752 E10.80687
G1 X178.885 Y172.425 E10.84388
G1 X178.5 Y172.687 E10.85937
G1 X177.717 Y173.172 E10.89
G1 X176.526 Y173.745 E10.93396
G1 X176.11 Y173.914 E10.9489
G1 X175.242 Y174.223 E10.97954
G1 X174.268 Y174.473 E11.01299
G1 X173.862 Y174.557 E11.02678
G1 X172.953 Y174.704 E11.0574
G1 X171.941 Y174.775 E11.09114
G1 X170.823 Y174.799 E11.12834
G1 X128.866 Y174.797 E12.52383
G1 X128.246 Y174.788 E12.54446
G1 X127.327 Y174.735 E12.57507
G1 X126.672 Y174.647 E12.59705
G1 X126.091 Y174.551 E12.61664
G1 X125.19 Y174.362 E12.64726
G1 X124.309 Y174.095 E12.67788
G1 X123.079 Y173.574 E12.72231
G1 X122.467 Y173.268 E12.74506
G1 X121.662 Y172.821 E12.77569
G1 X120.899 Y172.306 E12.80631
G1 X120.183 Y171.726 E12.83695
G1 X119.742 Y171.313 E12.85705
G1 X119.373 Y170.947 E12.87434
G1 X118.748 Y170.271 E12.90496
G1 X118.075 Y169.385 E12.94196
G1 X117.813 Y169 E12.95745
G1 X117.328 Y168.217 E12.98809
G1 X116.752 Y167.017 E13.03236
G1 X116.583 Y166.6 E13.04732
G1 X116.275 Y165.733 E13.07793
G1 X116.028 Y164.772 E13.11093
G1 X115.944 Y164.367 E13.12468
G1 X115.796 Y163.458 E13.15532
G1 X115.725 Y162.442 E13.18919
G1 X115.701 Y161.325 E13.22635
G1 X115.703 Y138.364 E13.99004
G1 X115.712 Y137.745 E14.01063
G1 X115.765 Y136.826 E14.04124
G1 X115.853 Y136.171 E14.06322
G1 X115.949 Y135.59 E14.08281
G1 X116.138 Y134.689 E14.11343
G1 X116.405 Y133.808 E14.14405
G1 X116.929 Y132.571 E14.18873
G1 X117.235 Y131.96 E14.21146
G1 X117.683 Y131.156 E14.24207
G1 X118.199 Y130.393 E14.27271
G1 X118.779 Y129.678 E14.30333
G1 X119.187 Y129.242 E14.32319
G1 X119.553 Y128.873 E14.34048
G0 F6000 X119.837 Y129.155
G1 F1200 X120.501 Y128.543 E14.37051
G1 X121.34 Y127.905 E14.40557
G1 X121.725 Y127.643 E14.42106
G1 X122.494 Y127.169 E14.4511
G1 X123.625 Y126.626 E14.49283
G1 X124.041 Y126.457 E14.50776
G1 X124.892 Y126.155 E14.5378
G1 X125.813 Y125.919 E14.56942
G1 X126.219 Y125.835 E14.58321
G1 X127.111 Y125.691 E14.61326
G1 X128.067 Y125.625 E14.64513
G1 X129.185 Y125.601 E14.68233
G1 X171.128 Y125.603 E16.07736
G1 X171.749 Y125.612 E16.09801
G1 X172.65 Y125.665 E16.12803
G1 X173.267 Y125.748 E16.14874
G1 X173.847 Y125.844 E16.16829
G1 X174.73 Y126.031 E16.19831
G1 X175.594 Y126.295 E16.22836
G1 X176.743 Y126.784 E16.26989
G1 X177.355 Y127.09 E16.29265
G1 X178.144 Y127.529 E16.32268
G1 X178.891 Y128.036 E16.35271
G1 X179.59 Y128.608 E16.38275
G1 X179.976 Y128.971 E16.40037
G1 X180.345 Y129.337 E16.41766
G1 X180.957 Y130.001 E16.44769
G1 X181.595 Y130.84 E16.48275
G1 X181.857 Y131.225 E16.49824
G1 X182.331 Y131.994 E16.52829
G1 X182.877 Y133.133 E16.5703
G1 X183.046 Y133.55 E16.58526
G1 X183.348 Y134.401 E16.6153
G1 X183.58 Y135.31 E16.6465
G1 X183.664 Y135.715 E16.66026
G1 X183.809 Y136.606 E16.69028
G1 X183.875 Y137.565 E16.72225
G1 X183.899 Y138.672 E16.75908
G1 X183.897 Y161.631 E17.5227
G1 X183.888 Y162.246 E17.54316
G1 X183.835 Y163.148 E17.57321
G1 X183.754 Y163.749 E17.59338
G1 X183.658 Y164.334 E17.6131
G1 X183.473 Y165.218 E17.64314
G1 X183.21 Y166.082 E17.67317
G1 X182.765 Y167.144 E17.71147
G1 X182.568 Y167.549 E17.72645
G1 X182.303 Y168.063 E17.74569
G1 X181.845 Y168.842 E17.77574
G1 X181.321 Y169.577 E17.80576
G1 X180.529 Y170.476 E17.84561
G1 X180.163 Y170.845 E17.8629
G1 X179.499 Y171.457 E17.89293
G1 X178.66 Y172.095 E17.92799
G1 X178.275 Y172.357 E17.94348
G1 X177.506 Y172.831 E17.97353
G1 X176.375 Y173.374 E18.01525
G1 X175.959 Y173.543 E18.03019
G1 X175.108 Y173.845 E18.06022
G1 X174.187 Y174.081 E18.09184
G1 X173.781 Y174.165 E18.10563
G1 X172.889 Y174.309 E18.13569
G1 X171.933 Y174.375 E18.16756
G1 X170.815 Y174.399 E18.20475
G1 X128.872 Y174.397 E19.59978
G1 X128.252 Y174.388 E19.6204
G1 X127.35 Y174.335 E19.65046
G1 X126.737 Y174.253 E19.67103
G1 X126.156 Y174.157 E19.69061
G1 X125.273 Y173.97 E19.72063
G1 X124.409 Y173.706 E19.75068
G1 X123.257 Y173.216 E19.79232
G1 X122.645 Y172.91 E19.81508
G1 X121.856 Y172.471 E19.84511
G1 X121.109 Y171.964 E19.87514
G1 X120.41 Y171.392 E19.90518
G1 X120.024 Y171.029 E19.9228
G1 X119.655 Y170.663 E19.94009
G1 X119.043 Y169.999 E19.97012
G1 X118.405 Y169.16 E20.00518
G1 X118.143 Y168.775 E20.02067
G1 X117.669 Y168.006 E20.05071
G1 X117.123 Y166.867 E20.09272
G1 X116.954 Y166.45 E20.10769
G1 X116.652 Y165.599 E20.13772
G1 X116.42 Y164.69 E20.16893
G1 X116.336 Y164.285 E20.18268
G1 X116.191 Y163.394 E20.21271
G1 X116.125 Y162.433 E20.24475
G1 X116.101 Y161.316 E20.28191
G1 X116.103 Y138.37 E21.04509
G1 X116.112 Y137.751 E21.06568
G1 X116.165 Y136.849 E21.09573
G1 X116.247 Y136.236 E21.1163
G1 X116.343 Y135.655 E21.13589
G1 X116.53 Y134.772 E21.16591
G1 X116.794 Y133.908 E21.19596
G1 X117.287 Y132.75 E21.23782
G1 X117.593 Y132.139 E21.26055
G1 X118.033 Y131.351 E21.29057
G1 X118.54 Y130.604 E21.32059
G1 X119.112 Y129.905 E21.35063
G1 X119.471 Y129.524 E21.36805
G1 X119.837 Y129.155 E21.38533
G1 F1500 E14.88533
;MESH:SD_Card_Holder.STL
G0 F6000 X125.655 Y137.657
G0 X126.721 Y137.853
G0 X127.497 Y162.255
G0 X127.72 Y162.635
G0 X128.131 Y163.145
;TYPE:WALL-INNER
G1 F1500 E21.38533
G1 F1200 X128.412 Y163.198 E21.39484
G1 X171.688 Y163.201 E22.83421
G1 X172.044 Y163.064 E22.8469
G1 X172.249 Y162.93 E22.85504
G1 X172.475 Y162.704 E22.86567
G1 X172.646 Y162.369 E22.87818
G1 X172.698 Y162.09 E22.88762
G1 X172.7 Y138.041 E23.68749
G1 X172.658 Y137.702 E23.69885
G1 X172.565 Y137.456 E23.7076
G1 X172.43 Y137.25 E23.71579
G1 X172.206 Y137.027 E23.72631
G1 X171.869 Y136.855 E23.73889
G1 X171.588 Y136.802 E23.7484
G1 X128.31 Y136.8 E25.18783
G1 X127.956 Y136.935 E25.20044
G1 X127.75 Y137.07 E25.20863
G1 X127.525 Y137.295 E25.21921
G1 X127.354 Y137.631 E25.23175
G1 X127.303 Y137.91 E25.24118
G1 X127.299 Y162.186 E26.04861
G1 X127.434 Y162.541 E26.06124
G1 X127.57 Y162.75 E26.06953
G1 X127.793 Y162.973 E26.08002
G1 X128.131 Y163.145 E26.09263
G0 F6000 X128.375 Y163.598
G1 F1200 X171.608 Y163.601 E27.53057
G1 X171.908 Y163.544 E27.54073
G1 X172.227 Y163.423 E27.55207
G1 X172.503 Y163.242 E27.56305
G1 X172.803 Y162.942 E27.57716
G1 X173.029 Y162.498 E27.59373
G1 X173.098 Y162.126 E27.60632
G1 X173.1 Y138.041 E28.40739
G1 X173.1 Y137.889 E28.41244
G1 X173.045 Y137.593 E28.42246
G1 X172.923 Y137.273 E28.43385
G1 X172.742 Y136.997 E28.44483
G1 X172.444 Y136.699 E28.45884
G1 X171.999 Y136.472 E28.47546
G1 X171.625 Y136.402 E28.48811
G1 X128.392 Y136.4 E29.92605
G1 X128.092 Y136.456 E29.9362
G1 X127.773 Y136.577 E29.94755
G1 X127.497 Y136.758 E29.95852
G1 X127.197 Y137.057 E29.97261
G1 X126.971 Y137.502 E29.98921
G1 X126.903 Y137.874 E30.00179
G1 X126.899 Y162.111 E30.80792
G1 X126.955 Y162.408 E30.81797
G1 X127.075 Y162.724 E30.82921
G1 X127.258 Y163.003 E30.84031
G1 X127.555 Y163.301 E30.8543
G1 X128.001 Y163.528 E30.87095
G1 X128.375 Y163.598 E30.8836
G0 F6000 X128.338 Y163.998
;TYPE:WALL-OUTER
G1 F1200 X171.645 Y164.001 E32.324
G1 X172.017 Y163.931 E32.33659
G1 X172.41 Y163.781 E32.35058
G1 X172.757 Y163.554 E32.36437
G1 X173.131 Y163.18 E32.38196
G1 X173.412 Y162.628 E32.40256
G1 X173.498 Y162.162 E32.41832
G1 X173.5 Y138.041 E33.22059
G1 X173.5 Y137.851 E33.22691
G1 X173.431 Y137.483 E33.23936
G1 X173.281 Y137.09 E33.25336
G1 X173.054 Y136.743 E33.26715
G1 X172.682 Y136.371 E33.28464
G1 X172.129 Y136.09 E33.30528
G1 X171.662 Y136.002 E33.32108
G1 X128.355 Y136 E34.76148
G1 X127.983 Y136.069 E34.77406
G1 X127.59 Y136.219 E34.78805
G1 X127.243 Y136.446 E34.80184
G1 X126.869 Y136.819 E34.81941
G1 X126.588 Y137.372 E34.84004
G1 X126.503 Y137.838 E34.8558
G1 X126.499 Y162.149 E35.66439
G1 X126.569 Y162.517 E35.67685
G1 X126.717 Y162.906 E35.69069
G1 X126.946 Y163.257 E35.70463
G1 X127.317 Y163.629 E35.7221
G1 X127.871 Y163.91 E35.74276
G1 X128.338 Y163.998 E35.75857
G0 F6000 X128.402 Y163.299
G0 X128.203 Y163.056
G0 X128.25 Y162.799
;TYPE:SKIN
G1 F1200 X128.449 Y162.838 E35.76531
G1 X171.524 Y162.841 E37.19799
G1 X171.947 Y162.719 E37.21264
G1 X172.182 Y162.486 E37.22364
G1 X172.302 Y162.249 E37.23248
G1 X172.337 Y162.055 E37.23904
G1 X172.339 Y138.1 E38.03578
G1 X172.339 Y137.968 E38.04017
G1 X172.237 Y137.612 E38.05249
G1 X171.991 Y137.322 E38.06514
G1 X171.75 Y137.201 E38.07411
G1 X171.552 Y137.163 E38.08081
G1 X128.474 Y137.161 E39.51359
G1 X128.052 Y137.281 E39.52818
G1 X127.819 Y137.512 E39.5391
G1 X127.699 Y137.751 E39.54799
G1 X127.663 Y137.946 E39.55459
G1 X127.659 Y162.033 E40.35572
G1 X127.759 Y162.381 E40.36777
G1 X128.008 Y162.677 E40.38063
G1 X128.25 Y162.799 E40.38965
G0 F6000 X128.696 Y162.637
G1 F1200 X127.859 Y161.8 E40.42902
G0 F6000 X127.859 Y161.234
G1 F1200 X129.261 Y162.637 E40.49499
G0 F6000 X129.827 Y162.637
G1 F1200 X127.859 Y160.668 E40.58758
G0 F6000 X127.859 Y160.103
G1 F1200 X130.393 Y162.637 E40.70677
G0 F6000 X130.959 Y162.637
G1 F1200 X127.859 Y159.537 E40.85258
G0 F6000 X127.859 Y158.971
G1 F1200 X131.524 Y162.637 E41.025
G0 F6000 X132.09 Y162.637
G1 F1200 X127.859 Y158.406 E41.22401
G0 F6000 X127.859 Y157.841
G1 F1200 X132.656 Y162.637 E41.44962
G0 F6000 X133.221 Y162.637
G1 F1200 X127.859 Y157.275 E41.70184
G0 F6000 X127.859 Y156.709
G1 F1200 X133.787 Y162.637 E41.98067
G0 F6000 X134.353 Y162.637
G1 F1200 X127.859 Y156.144 E42.28611
G0 F6000 X127.859 Y155.578
G1 F1200 X134.918 Y162.637 E42.61814
G0 F6000 X135.484 Y162.637
G1 F1200 X127.859 Y155.012 E42.9768
G0 F6000 X127.859 Y154.446
G1 F1200 X136.05 Y162.637 E43.36208
G0 F6000 X136.615 Y162.637
G1 F1200 X127.86 Y153.881 E43.77391
G0 F6000 X127.86 Y153.316
G1 F1200 X137.182 Y162.638 E44.21239
G0 F6000 X137.747 Y162.638
G1 F1200 X127.86 Y152.75 E44.67746
G0 F6000 X127.86 Y152.184
G1 F1200 X138.313 Y162.638 E45.16916
G0 F6000 X138.879 Y162.638
G1 F1200 X127.86 Y151.619 E45.68746
G0 F6000 X127.86 Y151.053
G1 F1200 X139.444 Y162.638 E46.23236
G0 F6000 X140.01 Y162.638
G1 F1200 X127.86 Y150.487 E46.80389
G0 F6000 X127.861 Y149.922
G1 F1200 X140.576 Y162.638 E47.40198
G0 F6000 X141.142 Y162.638
G1 F1200 X127.861 Y149.357 E48.02668
