;FLAVOR:Marlin
;TIME:6960
;Filament used: 4.03024m
;Layer height: 0.16
;MINX:92.376
;MINY:80.36
;MINZ:0.2
;MAXX:207.625
;MAXY:219.639
;MAXZ:2.4
;Generated with Cura_SteamEngine 5.2.1
M140 S60
M105
M190 S60
M104 S215
M105
M109 S215
M82 ;absolute extrusion mode
; Ender 3 Max Custom Start G-code
G92 E0 ; Reset Extruder
G28 ; Home all axes
G1 Z2.0 F3000 ; Move Z Axis up little to prevent scratching of Heat Bed
G1 X0.1 Y20 Z0.3 F5000.0 ; Move to start position
G1 X0.1 Y200.0 Z0.3 F1500.0 E15 ; Draw the first line
G1 X0.4 Y200.0 Z0.3 F5000.0 ; Move to side a little
G1 X0.4 Y20 Z0.3 F1500.0 E30 ; Draw the second line
G92 E0 ; Reset Extruder
G1 Z2.0 F3000 ; Move Z Axis up little to prevent scratching of Heat Bed
G1 X5 Y20 Z0.3 F5000.0 ; Move over to prevent blob squish
G92 E0
G92 E0
G1 F1500 E-6.5
;LAYER_COUNT:13
;LAYER:0
M107
G0 F6000 X95.77 Y84.993 Z0.2
;TYPE:SKIRT
G1 F1500 E0
G1 F1200 X96.408 Y84.306 E0.03118
G1 X97.163 Y83.626 E0.06498
G1 X97.559 Y83.301 E0.08202
G1 X98.308 Y82.737 E0.1132
G1 X99.34 Y82.109 E0.15338
G1 X99.784 Y81.871 E0.17014
G1 X100.629 Y81.464 E0.20133
G1 X101.804 Y81.035 E0.24294
G1 X102.288 Y80.889 E0.25975
G1 X103.197 Y80.656 E0.29096
G1 X104.327 Y80.479 E0.329
G1 X104.673 Y80.443 E0.34057
G1 X105.593 Y80.386 E0.37123
G1 X106.972 Y80.361 E0.41711
G1 X160.62 Y80.36 E2.20145
G1 X161.426 Y80.37 E2.22825
G1 X162.393 Y80.426 E2.26047
G1 X163.029 Y80.491 E2.28173
G1 X163.822 Y80.592 E2.30832
G1 X164.412 Y80.689 E2.32821
G1 X165.341 Y80.867 E2.35967
G1 X166.419 Y81.09 E2.39628
G1 X168.907 Y81.53 E2.48032
G1 X171.424 Y81.903 E2.56495
G1 X173.35 Y82.139 E2.62949
G1 X174.405 Y82.257 E2.6648
G1 X175.332 Y82.401 E2.696
G1 X176.328 Y82.648 E2.73013
G1 X176.727 Y82.767 E2.74398
G1 X177.613 Y83.073 E2.77515
G1 X178.764 Y83.604 E2.81731
G1 X179.133 Y83.801 E2.83123
G1 X179.94 Y84.278 E2.86241
G1 X180.901 Y84.97 E2.90179
G1 X181.755 Y85.717 E2.93953
G1 X182.759 Y86.684 E2.98589
G1 X201.649 Y105.575 E3.87444
G1 X202.004 Y105.939 E3.89135
G1 X202.491 Y106.472 E3.91537
G1 X202.85 Y106.892 E3.93375
G1 X203.428 Y107.63 E3.96492
G1 X203.942 Y108.415 E3.99613
G1 X204.338 Y109.132 E4.02337
G1 X204.745 Y109.977 E4.05457
G1 X205.165 Y111.126 E4.09526
G1 X205.271 Y111.475 E4.10739
G1 X205.505 Y112.383 E4.13858
G1 X205.663 Y113.323 E4.17028
G1 X206.066 Y116.581 E4.27947
G1 X206.444 Y119.026 E4.36175
G1 X207.156 Y122.773 E4.48861
G1 X207.255 Y123.242 E4.50455
G1 X207.371 Y123.883 E4.52622
G1 X207.482 Y124.684 E4.55311
G1 X207.546 Y125.283 E4.57315
G1 X207.606 Y126.257 E4.60561
G1 X207.625 Y127.413 E4.64406
G1 X207.624 Y205.475 E7.24041
G1 X207.616 Y206.044 E7.25934
G1 X207.584 Y206.736 E7.28238
G1 X207.533 Y207.396 E7.3044
G1 X207.421 Y208.328 E7.33562
G1 X207.23 Y209.246 E7.36681
G1 X207.091 Y209.747 E7.3841
G1 X206.943 Y210.234 E7.40103
G1 X206.632 Y211.119 E7.43223
G1 X206.105 Y212.247 E7.47364
G1 X205.864 Y212.695 E7.49056
G1 X205.385 Y213.501 E7.52174
G1 X204.676 Y214.468 E7.56162
G1 X204.358 Y214.855 E7.57828
G1 X203.732 Y215.553 E7.60947
G1 X202.846 Y216.367 E7.64949
G1 X202.452 Y216.691 E7.66645
G1 X201.703 Y217.255 E7.69764
G1 X200.644 Y217.9 E7.73888
G1 X200.198 Y218.138 E7.75569
G1 X199.352 Y218.544 E7.7869
G1 X198.216 Y218.958 E7.82712
G1 X197.732 Y219.105 E7.84394
G1 X196.824 Y219.339 E7.87513
G1 X195.673 Y219.521 E7.91389
G1 X195.327 Y219.557 E7.92546
G1 X194.407 Y219.614 E7.95611
G1 X193.028 Y219.639 E8.00199
G1 X106.527 Y219.639 E10.87902
G1 X106.01 Y219.632 E10.89622
G1 X105.301 Y219.599 E10.91983
G1 X104.598 Y219.544 E10.94328
G1 X103.667 Y219.432 E10.97447
G1 X102.749 Y219.24 E11.00566
G1 X102.244 Y219.099 E11.0231
G1 X101.769 Y218.954 E11.03962
G1 X100.885 Y218.642 E11.0708
G1 X99.792 Y218.132 E11.11091
G1 X99.349 Y217.895 E11.12762
G1 X98.542 Y217.418 E11.1588
G1 X97.583 Y216.718 E11.19829
G1 X97.186 Y216.394 E11.21534
G1 X96.485 Y215.771 E11.24653
G1 X95.627 Y214.836 E11.28874
G1 X95.299 Y214.435 E11.30597
G1 X94.736 Y213.685 E11.33716
G1 X94.088 Y212.612 E11.37885
G1 X93.857 Y212.175 E11.39529
G1 X93.455 Y211.328 E11.42647
G1 X93.108 Y210.394 E11.45961
G1 X93.023 Y210.129 E11.46887
G1 X92.828 Y209.458 E11.49211
G1 X92.618 Y208.544 E11.5233
G1 X92.495 Y207.697 E11.55177
G1 X92.462 Y207.385 E11.5622
G1 X92.403 Y206.46 E11.59303
G1 X92.377 Y205.226 E11.63408
G1 X92.376 Y94.502 E15.31678
G1 X92.384 Y93.951 E15.33511
G1 X92.417 Y93.252 E15.35838
G1 X92.469 Y92.588 E15.38054
G1 X92.582 Y91.657 E15.41173
G1 X92.774 Y90.739 E15.44292
G1 X92.91 Y90.25 E15.4598
G1 X93.057 Y89.766 E15.47663
G1 X93.367 Y88.881 E15.50782
G1 X93.79 Y87.951 E15.5418
G1 X94.135 Y87.302 E15.56624
G1 X94.297 Y87.018 E15.57712
G1 X94.796 Y86.224 E15.60831
G1 X95.481 Y85.332 E15.64571
G1 X95.77 Y84.993 E15.66053
G0 F6000 X96.074 Y85.252
G1 F1200 X96.702 Y84.578 E15.69117
G1 X97.416 Y83.935 E15.72313
G1 X97.812 Y83.61 E15.74017
G1 X98.549 Y83.058 E15.77079
G1 X99.529 Y82.462 E15.80894
G1 X99.973 Y82.224 E15.8257
G1 X100.803 Y81.824 E15.85634
G1 X101.92 Y81.418 E15.89587
G1 X102.404 Y81.272 E15.91269
G1 X103.296 Y81.044 E15.94331
G1 X104.368 Y80.877 E15.97939
G1 X104.714 Y80.841 E15.99096
G1 X105.601 Y80.786 E16.02052
G1 X106.972 Y80.761 E16.06613
G1 X160.62 Y80.76 E17.85047
G1 X161.421 Y80.77 E17.87711
G1 X162.353 Y80.824 E17.90816
G1 X162.989 Y80.889 E17.92943
G1 X163.768 Y80.989 E17.95555
G1 X164.337 Y81.082 E17.97473
G1 X165.26 Y81.259 E18.00598
G1 X166.334 Y81.481 E18.04246
G1 X168.856 Y81.927 E18.12764
G1 X171.356 Y82.298 E18.21171
G1 X173.342 Y82.541 E18.27825
G1 X174.361 Y82.655 E18.31236
G1 X175.271 Y82.796 E18.34298
G1 X176.214 Y83.031 E18.37531
G1 X176.613 Y83.15 E18.38916
G1 X177.483 Y83.451 E18.41978
G1 X178.575 Y83.957 E18.4598
G1 X178.944 Y84.154 E18.47372
G1 X179.737 Y84.623 E18.50436
G1 X180.654 Y85.284 E18.54196
G1 X181.478 Y86.006 E18.5784
G1 X182.476 Y86.967 E18.62448
G1 X201.363 Y105.854 E19.51286
G1 X201.718 Y106.218 E19.52977
G1 X202.187 Y106.732 E19.55292
G1 X202.546 Y107.152 E19.57129
G1 X203.113 Y107.877 E19.60191
G1 X203.834 Y109.037 E19.64733
G1 X203.986 Y109.321 E19.65805
G1 X204.384 Y110.151 E19.68866
G1 X204.783 Y111.242 E19.7273
G1 X204.889 Y111.591 E19.73943
G1 X205.118 Y112.483 E19.77006
G1 X205.266 Y113.372 E19.80004
G1 X205.668 Y116.625 E19.90906
G1 X206.051 Y119.101 E19.99239
G1 X206.76 Y122.833 E20.11873
G1 X206.864 Y123.324 E20.13543
G1 X206.976 Y123.942 E20.15632
G1 X207.084 Y124.727 E20.18267
G1 X207.148 Y125.326 E20.20271
G1 X207.206 Y126.265 E20.234
G1 X207.225 Y127.413 E20.27219
G1 X207.224 Y205.469 E22.86834
G1 X207.216 Y206.038 E22.88727
G1 X207.185 Y206.706 E22.90951
G1 X207.134 Y207.366 E22.93153
G1 X207.024 Y208.28 E22.96214
G1 X206.834 Y209.181 E22.99277
G1 X206.708 Y209.631 E23.00831
G1 X206.56 Y210.118 E23.02524
G1 X206.254 Y210.987 E23.05589
G1 X205.753 Y212.058 E23.09521
G1 X205.512 Y212.506 E23.11213
G1 X205.041 Y213.297 E23.14275
G1 X204.367 Y214.214 E23.1806
G1 X204.049 Y214.601 E23.19726
G1 X203.434 Y215.286 E23.22788
G1 X202.592 Y216.058 E23.26588
G1 X202.198 Y216.382 E23.28284
G1 X201.462 Y216.936 E23.31348
G1 X200.455 Y217.547 E23.35266
G1 X200.009 Y217.785 E23.36947
G1 X199.179 Y218.183 E23.40009
G1 X198.099 Y218.576 E23.43831
G1 X197.615 Y218.723 E23.45514
G1 X196.724 Y218.952 E23.48573
G1 X195.632 Y219.123 E23.5225
G1 X195.286 Y219.159 E23.53407
G1 X194.399 Y219.214 E23.56363
G1 X193.028 Y219.239 E23.60923
G1 X106.532 Y219.239 E26.4861
G1 X106.015 Y219.232 E26.5033
G1 X105.332 Y219.201 E26.52604
G1 X104.629 Y219.146 E26.54949
G1 X103.715 Y219.034 E26.58012
G1 X102.815 Y218.844 E26.61071
G1 X102.361 Y218.716 E26.6264
G1 X101.886 Y218.571 E26.64292
G1 X101.018 Y218.264 E26.67354
G1 X99.981 Y217.78 E26.7116
G1 X99.538 Y217.543 E26.72831
G1 X98.746 Y217.073 E26.75895
G1 X97.836 Y216.408 E26.79643
G1 X97.439 Y216.084 E26.81348
G1 X96.752 Y215.472 E26.84408
G1 X95.936 Y214.583 E26.88421
G1 X95.608 Y214.182 E26.90144
G1 X95.057 Y213.445 E26.93205
G1 X94.442 Y212.425 E26.97167
G1 X94.211 Y211.988 E26.98811
G1 X93.816 Y211.156 E27.01874
G1 X93.489 Y210.272 E27.05009
G1 X93.404 Y210.007 E27.05934
G1 X93.214 Y209.352 E27.08203
G1 X93.008 Y208.454 E27.11267
G1 X92.893 Y207.655 E27.13952
G1 X92.86 Y207.343 E27.14995
G1 X92.803 Y206.451 E27.17968
G1 X92.777 Y205.217 E27.22073
G1 X92.776 Y94.508 E30.90293
G1 X92.784 Y93.957 E30.92126
G1 X92.815 Y93.283 E30.9437
G1 X92.867 Y92.619 E30.96585
G1 X92.979 Y91.706 E30.99645
G1 X93.292 Y90.367 E31.04218
G1 X93.439 Y89.883 E31.05901
G1 X93.745 Y89.014 E31.08965
G1 X94.146 Y88.133 E31.12184
G1 X94.483 Y87.5 E31.1457
G1 X94.645 Y87.216 E31.15657
G1 X95.135 Y86.437 E31.18718
G1 X95.785 Y85.591 E31.22266
G1 X96.074 Y85.252 E31.23748
G0 F6000 X96.379 Y85.512
G1 F1200 X96.995 Y84.851 E31.26753
G1 X97.67 Y84.244 E31.29772
G1 X98.066 Y83.919 E31.31476
G1 X98.789 Y83.378 E31.3448
G1 X99.718 Y82.814 E31.38094
G1 X100.162 Y82.576 E31.3977
G1 X100.976 Y82.185 E31.42774
G1 X102.035 Y81.801 E31.4652
G1 X102.519 Y81.655 E31.48202
G1 X103.395 Y81.432 E31.51208
G1 X104.409 Y81.275 E31.54621
G1 X104.755 Y81.239 E31.55778
G1 X105.609 Y81.186 E31.58624
G1 X106.972 Y81.161 E31.63158
G1 X160.62 Y81.16 E33.41592
G1 X161.415 Y81.17 E33.44236
G1 X162.312 Y81.222 E33.47225
G1 X162.948 Y81.287 E33.49351
G1 X163.715 Y81.385 E33.51923
G1 X164.262 Y81.474 E33.53766
G1 X165.031 Y81.621 E33.5637
G1 X166.255 Y81.873 E33.60527
G1 X168.764 Y82.317 E33.69001
G1 X171.327 Y82.697 E33.77619
G1 X173.243 Y82.932 E33.84039
G1 X174.317 Y83.052 E33.87634
G1 X175.209 Y83.192 E33.90637
G1 X176.099 Y83.414 E33.93688
G1 X176.498 Y83.533 E33.95073
G1 X177.351 Y83.83 E33.98077
G1 X178.387 Y84.31 E34.01874
G1 X178.756 Y84.507 E34.03266
G1 X179.533 Y84.967 E34.06269
G1 X180.404 Y85.598 E34.09846
G1 X181.201 Y86.294 E34.13365
G1 X182.043 Y87.102 E34.17247
G1 X201.076 Y106.133 E35.06767
G1 X201.431 Y106.497 E35.08459
G1 X201.883 Y106.992 E35.10688
G1 X202.242 Y107.412 E35.12526
G1 X202.797 Y108.123 E35.15526
G1 X203.481 Y109.226 E35.19842
G1 X203.633 Y109.51 E35.20914
G1 X204.023 Y110.324 E35.23916
G1 X204.4 Y111.359 E35.2758
G1 X204.506 Y111.708 E35.28793
G1 X204.73 Y112.583 E35.31797
G1 X204.869 Y113.421 E35.34622
G1 X205.275 Y116.702 E35.45618
G1 X205.653 Y119.152 E35.53863
G1 X206.364 Y122.894 E35.66532
G1 X206.473 Y123.407 E35.68276
G1 X206.58 Y124.002 E35.70287
G1 X206.686 Y124.769 E35.72862
G1 X206.75 Y125.368 E35.74866
G1 X206.806 Y126.272 E35.77878
G1 X206.825 Y127.413 E35.81674
G1 X206.824 Y205.463 E38.41269
G1 X206.816 Y206.032 E38.43162
G1 X206.787 Y206.675 E38.45303
G1 X206.736 Y207.335 E38.47504
G1 X206.626 Y208.231 E38.50507
G1 X206.325 Y209.515 E38.54893
G1 X206.177 Y210.002 E38.56586
G1 X205.877 Y210.853 E38.59587
G1 X205.401 Y211.868 E38.63316
G1 X205.16 Y212.316 E38.65008
G1 X204.697 Y213.092 E38.68013
G1 X204.058 Y213.96 E38.71598
G1 X203.74 Y214.347 E38.73264
G1 X203.136 Y215.018 E38.76267
G1 X202.338 Y215.749 E38.79866
G1 X201.944 Y216.073 E38.81563
G1 X201.221 Y216.615 E38.84568
G1 X200.267 Y217.194 E38.8828
G1 X199.821 Y217.432 E38.89962
G1 X199.006 Y217.821 E38.92965
G1 X197.983 Y218.193 E38.96586
G1 X197.499 Y218.34 E38.98268
G1 X196.624 Y218.564 E39.01272
G1 X195.591 Y218.725 E39.04749
G1 X195.245 Y218.761 E39.05906
G1 X194.391 Y218.814 E39.08752
G1 X193.028 Y218.839 E39.13286
G1 X106.538 Y218.839 E42.00953
G1 X106.021 Y218.832 E42.02673
G1 X105.363 Y218.802 E42.04864
G1 X104.66 Y218.747 E42.07209
G1 X103.764 Y218.637 E42.10212
G1 X102.478 Y218.334 E42.14606
G1 X102.003 Y218.189 E42.16258
G1 X101.152 Y217.887 E42.19261
G1 X100.169 Y217.427 E42.22871
G1 X99.726 Y217.19 E42.24542
G1 X98.95 Y216.729 E42.27544
G1 X98.089 Y216.098 E42.31094
G1 X97.692 Y215.774 E42.32799
G1 X97.018 Y215.173 E42.35802
G1 X96.246 Y214.33 E42.39604
G1 X95.918 Y213.929 E42.41327
G1 X95.377 Y213.205 E42.44333
G1 X94.795 Y212.238 E42.48087
G1 X94.564 Y211.801 E42.49731
G1 X94.178 Y210.984 E42.52737
G1 X93.869 Y210.149 E42.55698
G1 X93.784 Y209.884 E42.56624
G1 X93.599 Y209.246 E42.58833
G1 X93.399 Y208.365 E42.61838
G1 X93.291 Y207.613 E42.64365
G1 X93.258 Y207.301 E42.65408
G1 X93.203 Y206.443 E42.68268
G1 X93.177 Y205.209 E42.72373
G1 X93.176 Y94.514 E46.40546
G1 X93.184 Y93.963 E46.42379
G1 X93.214 Y93.315 E46.44536
G1 X93.266 Y92.651 E46.46752
G1 X93.376 Y91.754 E46.49757
G1 X93.675 Y90.483 E46.541
G1 X93.822 Y89.999 E46.55783
G1 X94.123 Y89.147 E46.58788
G1 X94.502 Y88.316 E46.61826
G1 X94.83 Y87.698 E46.64153
G1 X94.992 Y87.414 E46.6524
G1 X95.474 Y86.65 E46.68245
G1 X96.09 Y85.851 E46.716
G1 X96.379 Y85.512 E46.73082
G1 F1500 E40.23082
;MESH:X-Wing-Redux_Kit.stl
G0 F6000 X110.106 Y123.042
;TYPE:WALL-OUTER
G1 F1500 E46.73082
G1 F902.3 X110.106 Y123.931 E46.77015
G1 F814.9 X110.106 Y124.82 E46.81368
G1 F744.2 X110.106 Y125.709 E46.86136
G1 F1500 E40.36136
G0 F6000 X110.106 Y127.718
G0 X110.093 Y129.757
;TYPE:WALL-INNER
G1 F1500 E46.86136
G1 F1182.3 X110.328 Y129.487 E46.87345
G1 X110.478 Y129.38 E46.87967
G1 X110.454 Y129.309 E46.8822
G1 X110.176 Y129.232 E46.89194
G1 X110.106 Y129.194 E46.89462
G1 X110.036 Y129.232 E46.89731
G1 X109.759 Y129.309 E46.90702
G1 X109.735 Y129.38 E46.90955
G1 X109.884 Y129.489 E46.91578
G1 X110.093 Y129.757 E46.92726
G0 F6000 X110.106 Y130.74
G1 F971.7 X110.209 Y130.494 E46.93821
G1 F1142.9 X110.497 Y129.901 E46.96123
G1 F1200 X110.741 Y129.692 E46.97192
G1 X110.958 Y129.634 E46.97939
G1 X110.958 Y129.467 E46.98494
G1 X110.836 Y129.176 E46.99544
G1 X110.852 Y128.923 E47.00387
G1 X110.715 Y128.961 E47.0086
G1 X110.316 Y128.854 E47.02234
G1 X110.169 Y128.775 E47.02789
G1 X110.106 Y128.661 E47.03222
G1 X110.043 Y128.775 E47.03655
G1 X109.896 Y128.854 E47.0421
G1 X109.614 Y128.93 E47.05182
G1 X109.36 Y128.923 E47.06027
G1 X109.377 Y129.176 E47.0687
G1 X109.254 Y129.47 E47.0793
G1 X109.254 Y129.633 E47.08472
G1 X109.549 Y129.737 E47.09513
G1 F1170.7 X109.732 Y129.924 E47.10405
G1 F1116.3 X110.002 Y130.494 E47.1266
G1 F971.7 X110.106 Y130.74 E47.13757
G1 F1500 E40.63757
G0 F6000 X110.106 Y130.184
G0 X110.361 Y140.997
G0 X111.444 Y140.822
G0 X113.135 Y144.149
G0 X116.529 Y147.26
G0 X122.17 Y147.26
G0 X125.968 Y144.884
G0 X126.994 Y145.231
G0 X127.479 Y153.901
G1 F1500 E47.13757
G0 F6000 X127.479 Y154.462
G1 F952.4 X127.731 Y153.721 E47.17037
G1 X127.732 Y145.266 E47.5247
G1 X127.48 Y144.525 E47.5575
G1 X127.228 Y145.266 E47.5903
G1 X127.227 Y153.721 E47.94463
G1 X127.479 Y154.462 E47.97743
G1 F1500 E41.47743
G0 F6000 X127.479 Y153.901
G0 X127.964 Y145.728
G0 X129.049 Y145.728
G0 X142.456 Y146.077
G0 X143.527 Y145.704
G0 X144.703 Y145.728
G1 F1500 E47.97743
G0 F6000 X144.695 Y145.728
G1 F1200 X144.77 Y145.522 E47.98472
G1 X145.024 Y145.305 E47.99583
G1 X145.351 Y145.184 E48.00743
G1 X145.447 Y145.014 E48.01392
G1 X145.398 Y144.925 E48.0173
G1 X145.328 Y144.645 E48.0269
G1 X145.314 Y141.643 E48.12675
G1 X145.377 Y141.447 E48.1336
G1 X145.312 Y141.179 E48.14277
G1 X145.292 Y138.777 E48.22266
G1 X145.365 Y138.376 E48.23622
G1 X145.696 Y137.781 E48.25887
G1 X145.696 Y135.495 E48.3349
G1 X145.32 Y135.361 E48.34817
G1 X145.129 Y135.154 E48.35754
G1 X145.001 Y134.895 E48.36715
G1 X144.952 Y134.585 E48.37759
G1 X144.952 Y132.715 E48.43979
G1 X144.773 Y132.504 E48.44899
G1 X144.358 Y132.995 E48.47037
G1 X143.991 Y133.267 E48.48557
G1 X143.647 Y133.347 E48.49731
G1 X143.423 Y133.338 E48.50477
G1 X134.04 Y130.819 E48.8279
G1 X133.789 Y130.675 E48.83752
G1 X133.471 Y130.668 E48.8481
G1 X122.758 Y127.798 E49.21698
G1 X122.431 Y128.688 E49.24852
G1 X122.249 Y128.995 E49.26039
G1 X122.081 Y129.151 E49.26802
G1 X121.771 Y129.303 E49.2795
G1 X121.592 Y129.343 E49.2856
G1 X121.055 Y129.337 E49.30346
G1 X120.868 Y129.299 E49.30981
