;FLAVOR:Marlin
;TIME:11359
;Filament used: 7.81044m
;Layer height: 0.2
;MINX:115.145
;MINY:132.241
;MINZ:0.2
;MAXX:184.855
;MAXY:162.549
;MAXZ:57.2
;Generated with Cura_SteamEngine 5.2.1
M140 S60
M105
M190 S60
M104 S215
M105
M109 S215
M82 ;absolute extrusion mode
; Ender 3 Max Custom Start G-code
G92 E0 ; Reset Extruder
G28 ; Home all axes
G1 Z2.0 F3000 ; Move Z Axis up little to prevent scratching of Heat Bed
G1 X0.1 Y20 Z0.3 F5000.0 ; Move to start position
G1 X0.1 Y200.0 Z0.3 F1500.0 E15 ; Draw the first line
G1 X0.4 Y200.0 Z0.3 F5000.0 ; Move to side a little
G1 X0.4 Y20 Z0.3 F1500.0 E30 ; Draw the second line
G92 E0 ; Reset Extruder
G1 Z2.0 F3000 ; Move Z Axis up little to prevent scratching of Heat Bed
G1 X5 Y20 Z0.3 F5000.0 ; Move over to prevent blob squish
G92 E0
G92 E0
G1 F1500 E-6.5
;LAYER_COUNT:286
;LAYER:0
M107
G0 F6000 X131.234 Y137.873 Z0.2
;TYPE:SKIRT
G1 F1500 E0
G1 F1200 X131.927 Y137.241 E0.03119
G1 X132.671 Y136.67 E0.06239
G1 X133.462 Y136.165 E0.0936
G1 X134.292 Y135.729 E0.12478
G1 X135.157 Y135.366 E0.15599
G1 X136.049 Y135.077 E0.18717
G1 X137.076 Y134.845 E0.22219
G1 X139.343 Y134.445 E0.29876
G1 X141.814 Y133.943 E0.38262
G1 X144.234 Y133.38 E0.46526
G1 X147.146 Y132.608 E0.56546
G1 X148.062 Y132.407 E0.59665
G1 X148.991 Y132.284 E0.62782
G1 X149.928 Y132.241 E0.65902
G1 X150.865 Y132.278 E0.6902
G1 X151.796 Y132.395 E0.72141
G1 X152.8 Y132.613 E0.75558
G1 X153.993 Y132.931 E0.79665
G1 X156.561 Y133.581 E0.88476
G1 X158.983 Y134.121 E0.96729
G1 X162.317 Y134.751 E1.08014
G1 X162.816 Y134.837 E1.09698
G1 X163.733 Y135.035 E1.12818
G1 X164.629 Y135.31 E1.15936
G1 X165.499 Y135.661 E1.19056
G1 X166.336 Y136.084 E1.22175
G1 X167.134 Y136.577 E1.25295
G1 X167.887 Y137.136 E1.28414
G1 X168.589 Y137.758 E1.31534
G1 X169.236 Y138.437 E1.34653
G1 X169.823 Y139.168 E1.37771
G1 X170.346 Y139.947 E1.40892
G1 X170.8 Y140.768 E1.44012
G1 X171.182 Y141.624 E1.4713
G1 X171.5 Y142.541 E1.50358
G1 X171.703 Y143.251 E1.52814
G1 X171.844 Y143.802 E1.54706
G1 X172.037 Y144.72 E1.57826
G1 X172.152 Y145.65 E1.60943
G1 X172.187 Y146.588 E1.64065
G1 X172.142 Y147.525 E1.67185
G1 X172.017 Y148.454 E1.70303
G1 X171.887 Y149.082 E1.72436
G1 X171.745 Y149.677 E1.7447
G1 X171.57 Y150.34 E1.76751
G1 X171.285 Y151.233 E1.79869
G1 X170.925 Y152.1 E1.82991
G1 X170.493 Y152.932 E1.86109
G1 X169.992 Y153.724 E1.89226
G1 X169.425 Y154.471 E1.92345
G1 X168.796 Y155.167 E1.95465
G1 X168.11 Y155.807 E1.98586
G1 X167.372 Y156.386 E2.01706
G1 X166.588 Y156.9 E2.04824
G1 X165.762 Y157.345 E2.07944
G1 X164.902 Y157.719 E2.11063
G1 X164.013 Y158.018 E2.14183
G1 X163.012 Y158.257 E2.17606
G1 X160.395 Y158.755 E2.26466
G1 X157.903 Y159.302 E2.34952
G1 X155.517 Y159.898 E2.43132
G1 X154.329 Y160.236 E2.4724
G1 X152.874 Y160.63 E2.52254
G1 X151.96 Y160.84 E2.55373
G1 X151.031 Y160.97 E2.58493
G1 X150.094 Y161.021 E2.61614
G1 X149.157 Y160.992 E2.64732
G1 X148.225 Y160.884 E2.67852
G1 X147.038 Y160.625 E2.71893
G1 X145.346 Y160.15 E2.77738
G1 X142.908 Y159.515 E2.86118
G1 X140.408 Y158.94 E2.9465
G1 X137.912 Y158.438 E3.03118
G1 X137.008 Y158.272 E3.06175
G1 X136.094 Y158.064 E3.09293
G1 X135.2 Y157.779 E3.12413
G1 X134.334 Y157.419 E3.15533
G1 X133.502 Y156.986 E3.18652
G1 X132.71 Y156.484 E3.21771
G1 X131.963 Y155.916 E3.24892
G1 X131.268 Y155.287 E3.2801
G1 X130.629 Y154.601 E3.31128
G1 X130.05 Y153.862 E3.34251
G1 X129.536 Y153.078 E3.37369
G1 X129.092 Y152.252 E3.40488
G1 X128.719 Y151.392 E3.43606
G1 X128.385 Y150.379 E3.47153
G1 X128.239 Y149.85 E3.48978
G1 X128.072 Y149.187 E3.51252
G1 X127.887 Y148.268 E3.5437
G1 X127.781 Y147.336 E3.5749
G1 X127.755 Y146.398 E3.60611
G1 X127.809 Y145.462 E3.6373
G1 X127.942 Y144.534 E3.66848
G1 X128.091 Y143.858 E3.6915
G1 X128.256 Y143.207 E3.71384
G1 X128.405 Y142.668 E3.73244
G1 X128.7 Y141.778 E3.76362
G1 X129.069 Y140.916 E3.79481
G1 X129.511 Y140.088 E3.82603
G1 X130.022 Y139.302 E3.85721
G1 X130.597 Y138.561 E3.8884
G1 X131.234 Y137.873 E3.91959
G0 F6000 X131.588 Y138.085
G1 F1200 X132.275 Y137.472 E3.95021
G1 X133.012 Y136.921 E3.98082
G1 X133.795 Y136.436 E4.01145
G1 X134.616 Y136.02 E4.04206
G1 X135.471 Y135.678 E4.07269
G1 X136.352 Y135.41 E4.10332
G1 X137.145 Y135.239 E4.1303
G1 X139.421 Y134.838 E4.20717
G1 X141.913 Y134.331 E4.29175
G1 X144.323 Y133.77 E4.37405
G1 X147.248 Y132.995 E4.47469
G1 X148.147 Y132.798 E4.5053
G1 X149.06 Y132.68 E4.53592
G1 X149.98 Y132.641 E4.56655
G1 X150.9 Y132.682 E4.59718
G1 X151.813 Y132.803 E4.62781
G1 X152.697 Y132.999 E4.65793
G1 X153.943 Y133.332 E4.70082
G1 X156.448 Y133.966 E4.78677
G1 X158.912 Y134.515 E4.87073
G1 X162.232 Y135.142 E4.9831
G1 X162.749 Y135.231 E5.00055
G1 X163.648 Y135.426 E5.03115
G1 X164.528 Y135.699 E5.06179
G1 X165.38 Y136.046 E5.09239
G1 X166.2 Y136.466 E5.12303
G1 X166.979 Y136.956 E5.15364
G1 X167.713 Y137.511 E5.18425
G1 X168.397 Y138.128 E5.21489
G1 X169.024 Y138.802 E5.24551
G1 X169.59 Y139.528 E5.27612
G1 X170.091 Y140.301 E5.30676
G1 X170.523 Y141.113 E5.33735
G1 X170.883 Y141.961 E5.36799
G1 X171.116 Y142.655 E5.39234
G1 X171.315 Y143.35 E5.41639
G1 X171.456 Y143.901 E5.4353
G1 X171.645 Y144.802 E5.46592
G1 X171.756 Y145.716 E5.49655
G1 X171.786 Y146.636 E5.52716
G1 X171.737 Y147.556 E5.5578
G1 X171.608 Y148.467 E5.58841
G1 X171.497 Y148.99 E5.60619
G1 X171.355 Y149.585 E5.62653
G1 X171.184 Y150.235 E5.64889
G1 X170.904 Y151.112 E5.67951
G1 X170.549 Y151.961 E5.71012
G1 X170.121 Y152.776 E5.74073
G1 X169.624 Y153.552 E5.77138
G1 X169.062 Y154.281 E5.802
G1 X168.439 Y154.958 E5.8326
G1 X167.759 Y155.58 E5.86325
G1 X167.028 Y156.139 E5.89386
G1 X166.252 Y156.633 E5.92445
G1 X165.435 Y157.058 E5.95508
G1 X164.584 Y157.411 E5.98573
G1 X163.707 Y157.688 E6.01632
G1 X162.937 Y157.864 E6.04259
G1 X160.306 Y158.365 E6.13167
G1 X157.825 Y158.91 E6.21615
G1 X155.429 Y159.508 E6.29829
G1 X154.219 Y159.852 E6.34013
G1 X152.768 Y160.245 E6.39013
G1 X151.87 Y160.449 E6.42076
G1 X150.959 Y160.575 E6.45134
G1 X150.039 Y160.622 E6.48198
G1 X149.119 Y160.588 E6.5126
G1 X148.205 Y160.475 E6.54324
G1 X147.145 Y160.24 E6.57935
G1 X145.454 Y159.765 E6.63777
G1 X142.994 Y159.124 E6.72232
G1 X140.505 Y158.551 E6.80727
G1 X138.007 Y158.049 E6.89201
G1 X137.08 Y157.879 E6.92336
G1 X136.182 Y157.674 E6.954
G1 X135.306 Y157.392 E6.9846
G1 X134.458 Y157.035 E7.01521
G1 X133.643 Y156.605 E7.04585
G1 X132.869 Y156.107 E7.07647
G1 X132.141 Y155.543 E7.1071
G1 X131.465 Y154.918 E7.13772
G1 X130.845 Y154.237 E7.16835
G1 X130.287 Y153.505 E7.19896
G1 X129.795 Y152.727 E7.22958
G1 X129.372 Y151.91 E7.26018
G1 X129.021 Y151.058 E7.29083
G1 X128.771 Y150.272 E7.31826
G1 X128.625 Y149.743 E7.33651
G1 X128.461 Y149.092 E7.35884
G1 X128.28 Y148.189 E7.38947
G1 X128.178 Y147.274 E7.42009
G1 X128.156 Y146.354 E7.4507
G1 X128.214 Y145.435 E7.48133
G1 X128.351 Y144.524 E7.51197
G1 X128.479 Y143.957 E7.5313
G1 X128.644 Y143.306 E7.55364
G1 X128.79 Y142.778 E7.57186
G1 X129.08 Y141.904 E7.60249
G1 X129.445 Y141.059 E7.6331
G1 X129.881 Y140.248 E7.66373
G1 X130.387 Y139.479 E7.69434
G1 X130.957 Y138.756 E7.72497
G1 X131.588 Y138.085 E7.7556
G0 F6000 X131.942 Y138.3
G1 F1200 X132.622 Y137.706 E7.78563
G1 X133.352 Y137.175 E7.81566
G1 X134.126 Y136.71 E7.84569
G1 X134.938 Y136.315 E7.87572
G1 X135.782 Y135.994 E7.90575
G1 X136.652 Y135.748 E7.93582
G1 X137.215 Y135.633 E7.95494
G1 X139.485 Y135.233 E8.0316
G1 X141.977 Y134.726 E8.11618
G1 X144.426 Y134.156 E8.19981
G1 X147.351 Y133.381 E8.30046
G1 X148.233 Y133.189 E8.33048
G1 X149.129 Y133.075 E8.36052
G1 X150.031 Y133.041 E8.39054
G1 X150.933 Y133.087 E8.42058
G1 X151.828 Y133.213 E8.45064
G1 X152.594 Y133.386 E8.47676
G1 X153.821 Y133.713 E8.519
G1 X156.335 Y134.35 E8.60526
G1 X158.841 Y134.909 E8.69065
G1 X162.213 Y135.546 E8.80479
G1 X162.681 Y135.626 E8.82058
G1 X163.563 Y135.818 E8.8506
G1 X164.425 Y136.087 E8.88064
G1 X165.26 Y136.431 E8.91068
G1 X166.061 Y136.848 E8.94071
G1 X166.823 Y137.334 E8.97077
G1 X167.538 Y137.886 E9.00081
G1 X168.201 Y138.498 E9.03082
G1 X168.808 Y139.167 E9.06087
G1 X169.353 Y139.887 E9.0909
G1 X169.833 Y140.653 E9.12097
G1 X170.242 Y141.457 E9.15097
G1 X170.579 Y142.295 E9.18101
G1 X170.733 Y142.769 E9.19759
G1 X170.928 Y143.449 E9.22112
G1 X171.069 Y144 E9.24004
G1 X171.254 Y144.884 E9.27007
G1 X171.36 Y145.781 E9.30012
G1 X171.386 Y146.684 E9.33016
G1 X171.332 Y147.585 E9.36018
G1 X171.108 Y148.897 E9.40445
G1 X170.966 Y149.492 E9.4248
G1 X170.798 Y150.13 E9.44674
G1 X170.522 Y150.99 E9.47678
G1 X170.172 Y151.822 E9.5068
G1 X169.749 Y152.62 E9.53684
G1 X169.258 Y153.378 E9.56688
G1 X168.701 Y154.089 E9.59692
G1 X168.083 Y154.748 E9.62697
G1 X167.41 Y155.35 E9.657
G1 X166.686 Y155.889 E9.68702
G1 X165.917 Y156.363 E9.71707
G1 X165.109 Y156.767 E9.74712
G1 X164.269 Y157.098 E9.77714
G1 X163.403 Y157.353 E9.80717
G1 X162.863 Y157.471 E9.82555
G1 X160.217 Y157.974 E9.91514
G1 X157.74 Y158.519 E9.99949
G1 X155.32 Y159.123 E10.08245
G1 X154.11 Y159.467 E10.12429
G1 X152.662 Y159.859 E10.17419
G1 X151.782 Y160.059 E10.2042
G1 X150.887 Y160.18 E10.23424
G1 X149.985 Y160.222 E10.26427
G1 X149.082 Y160.184 E10.29433
G1 X148.187 Y160.066 E10.32436
G1 X147.251 Y159.854 E10.35628
G1 X145.561 Y159.38 E10.41466
G1 X143.079 Y158.733 E10.49997
G1 X140.609 Y158.164 E10.58427
G1 X138.035 Y157.647 E10.67159
G1 X137.152 Y157.485 E10.70145
G1 X136.272 Y157.283 E10.73148
G1 X135.413 Y157.005 E10.76151
G1 X134.582 Y156.651 E10.79155
G1 X133.786 Y156.225 E10.82158
G1 X133.03 Y155.73 E10.85164
G1 X132.321 Y155.171 E10.88167
G1 X131.664 Y154.551 E10.91171
G1 X131.065 Y153.875 E10.94175
G1 X130.528 Y153.149 E10.97179
G1 X130.057 Y152.378 E11.00184
G1 X129.657 Y151.569 E11.03185
G1 X129.329 Y150.727 E11.06191
G1 X129.157 Y150.166 E11.08143
G1 X129.011 Y149.637 E11.09968
G1 X128.849 Y148.996 E11.12167
G1 X128.672 Y148.111 E11.15169
G1 X128.575 Y147.213 E11.18173
G1 X128.557 Y146.31 E11.21177
G1 X128.619 Y145.409 E11.24181
G1 X128.761 Y144.517 E11.27185
G1 X128.867 Y144.055 E11.28761
G1 X129.032 Y143.404 E11.30995
G1 X129.174 Y142.887 E11.32778
G1 X129.46 Y142.03 E11.35783
G1 X129.82 Y141.202 E11.38786
G1 X130.251 Y140.409 E11.41788
G1 X130.752 Y139.657 E11.44793
G1 X131.317 Y138.952 E11.47798
G1 X131.942 Y138.3 E11.50802
G1 F1500 E5.00802
;MESH:copy_of_digivice.stl
G0 F6000 X138.114 Y146.31
G0 X138.876 Y146.517
;TYPE:WALL-OUTER
G1 F1500 E11.50802
G1 F2069 X138.833 Y146.542 E11.50898
G1 X138.891 Y146.542 E11.5101
G1 F1500 E5.0101
G0 F6000 X139.643 Y146.542
G0 X144.982 Y147.676
G0 X149.965 Y149.366
;TYPE:WALL-INNER
G1 F1500 E11.5101
G1 F1200 X153.684 Y147.561 E11.6476
G1 X153.684 Y146.593 E11.67979
G1 X153.684 Y145.602 E11.71275
G1 X149.965 Y143.891 E11.84891
G1 X146.248 Y145.602 E11.98501
G1 X146.248 Y147.561 E12.05016
G1 X149.965 Y149.366 E12.1876
G0 F6000 X149.965 Y149.81
;TYPE:WALL-OUTER
G1 F1200 X154.084 Y147.811 E12.33988
G1 X154.084 Y146.593 E12.38039
G1 X154.084 Y145.346 E12.42186
G1 X149.965 Y143.451 E12.57266
G1 X145.848 Y145.346 E12.72341
G1 X145.848 Y147.811 E12.80539
G1 X149.965 Y149.81 E12.95761
G0 F6000 X149.966 Y148.964
;TYPE:SKIN
G1 F1200 X153.324 Y147.335 E13.08175
G1 X153.324 Y146.592 E13.10646
G1 X153.324 Y145.833 E13.1317
G1 X149.966 Y144.288 E13.25465
G1 X146.609 Y145.833 E13.37756
G1 X146.609 Y147.334 E13.42748
G1 X149.966 Y148.964 E13.5516
G0 F6000 X150.079 Y149.199
G0 X146.415 Y147.456
G0 X146.348 Y146.808
G0 X146.808 Y146.808
G1 F1200 X147.585 Y147.585 E13.58815
G0 F6000 X147.384 Y148.001
G0 X148.484 Y148.535
G0 X148.685 Y148.119
G1 F1200 X146.808 Y146.242 E13.67644
G0 F6000 X147.003 Y145.871
G1 F1200 X149.786 Y148.655 E13.80736
G0 F6000 X150.284 Y148.587
G1 F1200 X147.39 Y145.693 E13.94349
G0 F6000 X147.778 Y145.515
G1 F1200 X150.664 Y148.401 E14.07924
G0 F6000 X151.045 Y148.217
G1 F1200 X148.165 Y145.336 E14.21473
G0 F6000 X148.552 Y145.158
G1 F1200 X151.426 Y148.032 E14.34991
G0 F6000 X151.808 Y147.848
G1 F1200 X148.94 Y144.98 E14.48481
G0 F6000 X149.327 Y144.802
G1 F1200 X152.188 Y147.662 E14.61936
G0 F6000 X152.569 Y147.478
G1 F1200 X149.715 Y144.623 E14.75363
G0 F6000 X150.335 Y144.678
G1 F1200 X152.95 Y147.293 E14.87663
G0 F6000 X153.123 Y146.901
G1 F1200 X151.382 Y145.159 E14.95855
G0 F6000 X151.574 Y144.743
G0 X152.622 Y145.225
G0 X152.43 Y145.642
G1 F1200 X153.123 Y146.335 E14.99114
G1 F1500 E8.49114
G0 F6000 X153.457 Y145.609
G0 X153.864 Y146.517
G0 X154.949 Y146.517
G0 X160.299 Y146.517
G0 X161.094 Y146.517
;TYPE:WALL-OUTER
G1 F1500 E14.99114
G1 F2069 X161.051 Y146.542 E14.9921
G1 X161.109 Y146.542 E14.99322
G1 F1500 E8.49322
;MESH:NONMESH
G0 F300 X161.109 Y146.542 Z0.4
G0 F6000 X160.299 Y146.542
G0 X149.965 Y150.768
G0 X138.302 Y148.722
;TIME_ELAPSED:36.267343
;LAYER:1
M106 S85
;TYPE:WALL-INNER
;MESH:copy_of_digivice.stl
G1 F1500 E14.99322
G1 F976.5 X138.302 Y144.481 E15.18823
G1 X137.739 Y146.546 E15.28665
G1 X138.302 Y148.722 E15.39
G1 F1500 E8.89
G0 F7500 X138.58 Y150.891
G0 X138.778 Y152.459
;TYPE:WALL-OUTER
G1 F1500 E15.39
G1 F1350 X138.778 Y140.931 E15.77343
G1 X137.246 Y146.543 E15.96691
G1 X138.778 Y152.459 E16.17017
G1 F1500 E9.67017
G0 F7500 X139.645 Y152.46
G0 X144.982 Y152.459
G0 X146.247 Y152.708
;TYPE:WALL-INNER
G1 F1500 E16.17017
G1 F1350 X149.995 Y152.738 E16.29483
G1 X153.683 Y152.708 E16.4175
G1 X153.684 Y140.723 E16.81612
G1 X149.613 Y140.696 E16.95153
G1 X146.248 Y140.723 E17.06345
G1 X146.247 Y152.708 E17.46207
G1 F1500 E10.96207
G0 F7500 X146.546 Y152.61
G0 X149.865 Y152.636
G1 F1500 E17.46207
G0 F7500 X149.998 Y153.138
;TYPE:WALL-OUTER
G1 F1350 X154.083 Y153.105 E17.59795
G1 X154.084 Y140.325 E18.02301
G1 X149.61 Y140.296 E18.17182
G1 X145.848 Y140.326 E18.29695
G1 X145.847 Y153.105 E18.72198
G1 X149.998 Y153.138 E18.86005
G0 F7500 X149.865 Y152.636
G0 X146.605 Y152.611
G0 X146.607 Y152.351
;TYPE:SKIN
G1 F1350 X149.99 Y152.378 E18.97257
G1 X153.322 Y152.351 E19.0834
G1 X153.323 Y144.416 E19.34731
G1 X153.323 Y141.08 E19.45827
G1 X149.64 Y141.057 E19.58077
G1 X146.609 Y141.08 E19.68158
G1 X146.607 Y152.351 E20.05646
G0 F7500 X146.605 Y152.611
G0 X153.511 Y152.538
G0 X153.583 Y151.782
G0 X153.121 Y151.782
G1 F1350 X152.747 Y152.156 E20.07405
G0 F7500 X152.177 Y152.16
G1 F1350 X153.121 Y151.216 E20.11845
G0 F7500 X153.121 Y150.651
G1 F1350 X151.607 Y152.165 E20.18967
G0 F7500 X151.038 Y152.169
G1 F1350 X153.121 Y150.085 E20.28767
G0 F7500 X153.121 Y149.519
G1 F1350 X150.468 Y152.173 E20.41248
G0 F7500 X149.898 Y152.177
G1 F1350 X153.121 Y148.954 E20.56408
G0 F7500 X153.121 Y148.388
G1 F1350 X149.337 Y152.172 E20.74207
G0 F7500 X148.776 Y152.167
G1 F1350 X153.121 Y147.822 E20.94644
G0 F7500 X153.121 Y147.257
G1 F1350 X148.215 Y152.163 E21.17721
G0 F7500 X147.653 Y152.159
G1 F1350 X153.121 Y146.691 E21.43441
G0 F7500 X153.121 Y146.125
G1 F1350 X147.092 Y152.155 E21.71802
G0 F7500 X146.807 Y151.874
G1 F1350 X153.121 Y145.56 E22.01501
G0 F7500 X153.121 Y144.994
G1 F1350 X146.807 Y151.308 E22.312
G0 F7500 X146.807 Y150.743
G1 F1350 X153.121 Y144.428 E22.60901
G0 F7500 X153.121 Y143.862
G1 F1350 X146.807 Y150.177 E22.90603
G0 F7500 X146.807 Y149.611
G1 F1350 X153.121 Y143.297 E23.20302
G0 F7500 X153.121 Y142.731
G1 F1350 X146.807 Y149.046 E23.50003
G0 F7500 X146.807 Y148.48
G1 F1350 X153.121 Y142.165 E23.79705
G0 F7500 X153.121 Y141.6
G1 F1350 X146.807 Y147.914 E24.09404
G0 F7500 X146.807 Y147.349
G1 F1350 X152.879 Y141.277 E24.37965
G0 F7500 X152.317 Y141.273
G1 F1350 X146.807 Y146.783 E24.63882
G0 F7500 X146.808 Y146.216
G1 F1350 X151.755 Y141.27 E24.87149
G0 F7500 X151.192 Y141.266
G1 F1350 X146.808 Y145.651 E25.07772
G0 F7500 X146.808 Y145.085
G1 F1350 X150.63 Y141.262 E25.25752
