;FLAVOR:Marlin
;TIME:12254
;Filament used: 7.69159m
;Layer height: 0.2
;MINX:123.495
;MINY:96.32
;MINZ:0.2
;MAXX:176.494
;MAXY:191.555
;MAXZ:85.4
;Generated with Cura_SteamEngine 5.2.1
M140 S60
M105
M190 S60
M104 S215
M105
M109 S215
M82 ;absolute extrusion mode
; Ender 3 Max Custom Start G-code
G92 E0 ; Reset Extruder
G28 ; Home all axes
G1 Z2.0 F3000 ; Move Z Axis up little to prevent scratching of Heat Bed
G1 X0.1 Y20 Z0.3 F5000.0 ; Move to start position
G1 X0.1 Y200.0 Z0.3 F1500.0 E15 ; Draw the first line
G1 X0.4 Y200.0 Z0.3 F5000.0 ; Move to side a little
G1 X0.4 Y20 Z0.3 F1500.0 E30 ; Draw the second line
G92 E0 ; Reset Extruder
G1 Z2.0 F3000 ; Move Z Axis up little to prevent scratching of Heat Bed
G1 X5 Y20 Z0.3 F5000.0 ; Move over to prevent blob squish
G92 E0
G92 E0
G1 F1500 E-6.5
;LAYER_COUNT:427
;LAYER:0
M107
G0 F6000 X135.064 Y102.364 Z0.2
;TYPE:SKIRT
G1 F1500 E0
G1 F1200 X135.677 Y101.654 E0.0312
G1 X136.349 Y101 E0.06239
G1 X137.069 Y100.409 E0.09337
G1 X137.906 Y99.782 E0.12815
G1 X139.064 Y98.951 E0.17556
G1 X139.848 Y98.437 E0.20674
G1 X140.674 Y97.992 E0.23794
G1 X141.534 Y97.619 E0.26912
G1 X142.423 Y97.32 E0.30032
G1 X143.335 Y97.099 E0.33153
G1 X144.489 Y96.932 E0.37031
G1 X147.656 Y96.646 E0.47608
G1 X149.756 Y96.403 E0.54639
G1 X150.949 Y96.33 E0.58614
G1 X152.462 Y96.32 E0.63646
G1 X153.391 Y96.331 E0.66737
G1 X154.327 Y96.385 E0.69855
G1 X155.255 Y96.517 E0.72973
G1 X156.169 Y96.729 E0.76093
G1 X157.061 Y97.018 E0.79212
G1 X157.926 Y97.381 E0.82332
G1 X158.756 Y97.817 E0.8545
G1 X159.569 Y98.338 E0.88662
G1 X160.297 Y98.851 E0.91624
G1 X161.572 Y99.79 E0.96891
G1 X162.302 Y100.379 E1.0001
G1 X162.979 Y101.028 E1.0313
G1 X163.598 Y101.732 E1.06247
G1 X164.155 Y102.487 E1.09368
G1 X164.645 Y103.286 E1.12485
G1 X165.066 Y104.124 E1.15605
G1 X165.27 Y104.609 E1.17355
G1 X166.301 Y107.229 E1.26719
G1 X167.293 Y109.548 E1.35108
G1 X168.351 Y111.84 E1.43504
G1 X169.128 Y113.426 E1.49379
G1 X169.641 Y114.655 E1.53808
G1 X170.476 Y117.057 E1.62266
G1 X171.367 Y119.409 E1.70631
G1 X172.324 Y121.735 E1.78997
G1 X173.358 Y124.057 E1.87451
G1 X174.451 Y126.337 E1.95861
G1 X175.304 Y128.011 E2.0211
G1 X175.694 Y128.864 E2.05229
G1 X176.01 Y129.747 E2.08348
G1 X176.249 Y130.654 E2.11468
G1 X176.41 Y131.578 E2.14588
G1 X176.492 Y132.512 E2.17706
G1 X176.494 Y133.45 E2.20826
G1 X176.416 Y134.385 E2.23947
G1 X176.259 Y135.309 E2.27064
G1 X176.023 Y136.217 E2.30184
G1 X175.853 Y136.73 E2.31982
G1 X175.556 Y137.555 E2.34898
G1 X169.974 Y152.256 E2.872
G1 X169.089 Y154.687 E2.95805
G1 X168.288 Y157.102 E3.04267
G1 X167.566 Y159.499 E3.12593
G1 X166.907 Y161.938 E3.20996
G1 X166.322 Y164.376 E3.29335
G1 X165.805 Y166.837 E3.37699
G1 X165.352 Y169.339 E3.46156
G1 X164.977 Y171.811 E3.54472
G1 X164.663 Y174.351 E3.62985
G1 X164.556 Y175.368 E3.66386
G1 X164.418 Y176.295 E3.69503
G1 X164.201 Y177.208 E3.72624
G1 X163.794 Y178.388 E3.76776
G1 X162.688 Y181.082 E3.86462
G1 X162.132 Y182.534 E3.91633
G1 X161.686 Y183.729 E3.95876
G1 X161.321 Y184.593 E3.98995
G1 X160.883 Y185.422 E4.02114
G1 X160.376 Y186.211 E4.05233
G1 X159.804 Y186.955 E4.08354
G1 X159.171 Y187.646 E4.11471
G1 X158.481 Y188.282 E4.14592
G1 X158.001 Y188.664 E4.16633
G1 X157.228 Y189.241 E4.19841
G1 X156.828 Y189.524 E4.21471
G1 X156.04 Y190.032 E4.24589
G1 X155.212 Y190.472 E4.27708
G1 X154.349 Y190.839 E4.30827
G1 X153.458 Y191.132 E4.33946
G1 X152.545 Y191.347 E4.37066
G1 X151.617 Y191.485 E4.40187
G1 X150.671 Y191.542 E4.43339
G1 X149.632 Y191.555 E4.46795
G1 X149.18 Y191.548 E4.48298
G1 X148.243 Y191.493 E4.5142
G1 X147.315 Y191.359 E4.54539
G1 X146.402 Y191.147 E4.57656
G1 X145.51 Y190.857 E4.60776
G1 X144.646 Y190.492 E4.63895
G1 X143.816 Y190.055 E4.67015
G1 X143.022 Y189.547 E4.7015
G1 X142.466 Y189.156 E4.72411
G1 X141.871 Y188.718 E4.74868
G1 X141.143 Y188.127 E4.77987
G1 X140.468 Y187.476 E4.81106
G1 X139.85 Y186.77 E4.84227
G1 X139.295 Y186.014 E4.87346
G1 X138.807 Y185.214 E4.90463
G1 X138.388 Y184.374 E4.93585
G1 X138.029 Y183.463 E4.96842
G1 X137.591 Y182.189 E5.01323
G1 X137.502 Y181.956 E5.02152
G1 X136.91 Y180.259 E5.0813
G1 X136.092 Y178.095 E5.15825
G1 X135.799 Y177.204 E5.18944
G1 X135.582 Y176.292 E5.22062
G1 X135.456 Y175.478 E5.24802
G1 X135.359 Y174.645 E5.27591
G1 X135.263 Y173.712 E5.30711
G1 X134.937 Y171.208 E5.39109
G1 X134.54 Y168.706 E5.47535
G1 X134.071 Y166.215 E5.55966
G1 X133.548 Y163.804 E5.64171
G1 X132.945 Y161.369 E5.72515
G1 X132.258 Y158.894 E5.81058
G1 X131.52 Y156.503 E5.89381
G1 X130.705 Y154.101 E5.97817
G1 X130.035 Y152.277 E6.0428
G1 X124.446 Y137.563 E6.56631
G1 X124.151 Y136.751 E6.59504
G1 X123.87 Y135.856 E6.62624
G1 X123.666 Y134.941 E6.65742
G1 X123.541 Y134.012 E6.6886
G1 X123.495 Y133.075 E6.7198
G1 X123.53 Y132.138 E6.75099
G1 X123.644 Y131.207 E6.78218
G1 X123.837 Y130.289 E6.81338
G1 X124.107 Y129.391 E6.84457
G1 X124.453 Y128.519 E6.87577
G1 X124.692 Y128.02 E6.89418
G1 X125.111 Y127.197 E6.92489
G1 X126.258 Y124.865 E7.01133
G1 X127.3 Y122.583 E7.09477
G1 X128.282 Y120.265 E7.1785
G1 X129.218 Y117.868 E7.26408
G1 X129.916 Y115.933 E7.3325
G1 X130.812 Y113.358 E7.42318
G1 X131.623 Y110.918 E7.5087
G1 X131.927 Y109.888 E7.54442
G1 X131.987 Y109.712 E7.55061
G1 X132.796 Y107.075 E7.64235
G1 X133.038 Y106.333 E7.66831
G1 X133.274 Y105.642 E7.69259
G1 X133.615 Y104.768 E7.7238
G1 X134.029 Y103.926 E7.755
G1 X134.513 Y103.123 E7.78619
G1 X135.064 Y102.364 E7.81738
G0 F6000 X135.419 Y102.56
G1 F1200 X136.026 Y101.867 E7.84802
G1 X136.691 Y101.231 E7.87863
G1 X137.309 Y100.728 E7.90513
G1 X137.944 Y100.25 E7.93157
G1 X139.297 Y99.276 E7.98702
G1 X140.067 Y98.772 E8.01762
G1 X140.879 Y98.337 E8.04826
G1 X141.725 Y97.974 E8.07888
G1 X142.599 Y97.686 E8.10949
G1 X143.495 Y97.475 E8.14011
G1 X144.525 Y97.331 E8.1747
G1 X147.659 Y97.048 E8.27936
G1 X149.802 Y96.8 E8.35111
G1 X150.952 Y96.73 E8.38943
G1 X152.465 Y96.72 E8.43975
G1 X153.385 Y96.731 E8.47035
G1 X154.304 Y96.784 E8.50097
G1 X155.215 Y96.917 E8.53159
G1 X156.111 Y97.128 E8.56221
G1 X156.985 Y97.416 E8.59282
G1 X157.832 Y97.779 E8.62347
G1 X158.643 Y98.214 E8.65407
G1 X159.339 Y98.665 E8.68166
G1 X160.261 Y99.318 E8.71924
G1 X161.334 Y100.111 E8.76361
G1 X162.05 Y100.69 E8.79424
G1 X162.713 Y101.329 E8.82487
G1 X163.318 Y102.023 E8.85549
G1 X163.861 Y102.767 E8.88612
G1 X164.337 Y103.555 E8.91674
G1 X164.898 Y104.756 E8.96083
G1 X165.926 Y107.37 E9.05426
G1 X166.92 Y109.694 E9.13833
G1 X167.995 Y112.021 E9.22358
G1 X168.769 Y113.602 E9.28213
G1 X169.263 Y114.787 E9.32483
G1 X170.095 Y117.183 E9.40919
G1 X170.999 Y119.567 E9.49399
G1 X171.96 Y121.901 E9.57794
G1 X172.976 Y124.185 E9.66109
G1 X174.092 Y126.512 E9.74692
G1 X174.948 Y128.192 E9.80963
G1 X175.33 Y129.03 E9.84027
G1 X175.638 Y129.898 E9.8709
G1 X175.869 Y130.789 E9.90151
G1 X176.022 Y131.697 E9.93214
G1 X176.096 Y132.614 E9.96274
G1 X176.09 Y133.535 E9.99337
G1 X176.004 Y134.452 E10.024
G1 X175.838 Y135.357 E10.05461
G1 X175.476 Y136.594 E10.09748
G1 X175.115 Y137.593 E10.13281
G1 X169.614 Y152.075 E10.64806
G1 X168.709 Y154.561 E10.73605
G1 X167.912 Y156.965 E10.82029
G1 X167.181 Y159.394 E10.90466
G1 X166.52 Y161.837 E10.98883
G1 X165.936 Y164.272 E11.07212
G1 X165.406 Y166.797 E11.15793
G1 X164.963 Y169.239 E11.24048
G1 X164.578 Y171.773 E11.32572
G1 X164.265 Y174.317 E11.41098
G1 X164.158 Y175.326 E11.44472
G1 X164.022 Y176.236 E11.47533
G1 X163.807 Y177.131 E11.50594
G1 X163.423 Y178.236 E11.54485
G1 X162.339 Y180.877 E11.6398
G1 X161.791 Y182.307 E11.69074
G1 X161.312 Y183.589 E11.73625
G1 X160.952 Y184.437 E11.7669
G1 X160.521 Y185.25 E11.7975
G1 X160.02 Y186.023 E11.82814
G1 X159.454 Y186.749 E11.85876
G1 X158.828 Y187.424 E11.88938
G1 X158.145 Y188.041 E11.91999
G1 X157.761 Y188.345 E11.93628
G1 X157.254 Y188.727 E11.95739
G1 X156.597 Y189.197 E11.98426
G1 X155.823 Y189.696 E12.01489
G1 X155.009 Y190.125 E12.04549
G1 X154.16 Y190.483 E12.07614
G1 X153.284 Y190.765 E12.10675
G1 X152.387 Y190.97 E12.13735
G1 X151.475 Y191.097 E12.16798
G1 X150.664 Y191.142 E12.19499
G1 X149.638 Y191.155 E12.22912
G1 X149.186 Y191.148 E12.24416
G1 X148.267 Y191.094 E12.27477
G1 X147.356 Y190.96 E12.3054
G1 X146.46 Y190.747 E12.33603
G1 X145.586 Y190.458 E12.36665
G1 X144.74 Y190.094 E12.39728
G1 X143.93 Y189.658 E12.42788
G1 X143.252 Y189.22 E12.45472
G1 X142.696 Y188.829 E12.47733
G1 X142.11 Y188.397 E12.50155
G1 X141.395 Y187.816 E12.53219
G1 X140.734 Y187.176 E12.56279
G1 X140.131 Y186.48 E12.59342
G1 X139.59 Y185.735 E12.62404
G1 X139.116 Y184.946 E12.65465
G1 X138.712 Y184.119 E12.68527
G1 X138.407 Y183.333 E12.71331
G1 X137.929 Y181.942 E12.76223
G1 X137.88 Y181.824 E12.76648
G1 X137.283 Y180.113 E12.82675
G1 X136.467 Y177.954 E12.90352
G1 X136.179 Y177.079 E12.93416
G1 X135.968 Y176.183 E12.96477
G1 X135.853 Y175.432 E12.99004
G1 X135.756 Y174.599 E13.01794
G1 X135.659 Y173.653 E13.04956
G1 X135.335 Y171.165 E13.13301
G1 X134.935 Y168.648 E13.21778
G1 X134.467 Y166.155 E13.30215
G1 X133.933 Y163.696 E13.38584
G1 X133.324 Y161.238 E13.47006
G1 X132.65 Y158.807 E13.55397
G1 X131.905 Y156.394 E13.63797
G1 X131.079 Y153.961 E13.72342
G1 X130.386 Y152.075 E13.79025
G1 X124.761 Y137.262 E14.31726
G1 X124.527 Y136.615 E14.34014
G1 X124.252 Y135.737 E14.37075
G1 X124.054 Y134.837 E14.4014
G1 X123.935 Y133.925 E14.43199
G1 X123.895 Y133.005 E14.46261
G1 X123.935 Y132.085 E14.49324
G1 X124.056 Y131.172 E14.52387
G1 X124.254 Y130.273 E14.55449
G1 X124.53 Y129.395 E14.5851
G1 X125.048 Y128.202 E14.62836
G1 X125.483 Y127.348 E14.66024
G1 X126.616 Y125.043 E14.74566
G1 X127.661 Y122.756 E14.82929
G1 X128.651 Y120.419 E14.91371
G1 X129.595 Y118.001 E15.00004
G1 X130.309 Y116.02 E15.07008
G1 X131.19 Y113.49 E15.15919
G1 X132.004 Y111.04 E15.24505
G1 X132.311 Y110.001 E15.28109
G1 X132.365 Y109.843 E15.28664
G1 X133.122 Y107.37 E15.37266
G1 X133.366 Y106.614 E15.39908
G1 X133.653 Y105.771 E15.4287
G1 X133.988 Y104.914 E15.45931
G1 X134.396 Y104.088 E15.48995
G1 X134.875 Y103.302 E15.52056
G1 X135.419 Y102.56 E15.55116
G0 F6000 X135.775 Y102.756
G1 F1200 X136.375 Y102.082 E15.58118
G1 X137.033 Y101.464 E15.6112
G1 X137.55 Y101.048 E15.63327
G1 X138.372 Y100.432 E15.66744
G1 X139.53 Y99.601 E15.71484
G1 X140.286 Y99.107 E15.74488
G1 X141.083 Y98.683 E15.7749
G1 X141.915 Y98.33 E15.80497
G1 X142.774 Y98.053 E15.83498
G1 X143.655 Y97.852 E15.86504
G1 X144.56 Y97.729 E15.89542
G1 X147.744 Y97.442 E16.00175
G1 X149.848 Y97.198 E16.07219
G1 X150.955 Y97.13 E16.10908
G1 X152.468 Y97.12 E16.15941
G1 X153.379 Y97.131 E16.18971
G1 X154.281 Y97.184 E16.21976
G1 X155.174 Y97.316 E16.24979
G1 X156.052 Y97.527 E16.27982
G1 X156.908 Y97.815 E16.30986
G1 X157.735 Y98.177 E16.33988
G1 X158.527 Y98.612 E16.36994
G1 X159.108 Y98.992 E16.39303
G1 X160.023 Y99.64 E16.43032
G1 X161.096 Y100.433 E16.4747
G1 X161.798 Y101.001 E16.50473
G1 X162.447 Y101.63 E16.53479
G1 X163.038 Y102.313 E16.56483
G1 X163.566 Y103.046 E16.59488
G1 X164.027 Y103.822 E16.6249
G1 X164.526 Y104.902 E16.66447
G1 X165.557 Y107.522 E16.75811
G1 X166.567 Y109.883 E16.84352
G1 X167.63 Y112.186 E16.92789
G1 X168.41 Y113.778 E16.98685
G1 X168.885 Y114.918 E17.02793
G1 X169.73 Y117.351 E17.11359
G1 X170.614 Y119.682 E17.19651
G1 X171.589 Y122.05 E17.28168
G1 X172.622 Y124.371 E17.36618
G1 X173.725 Y126.671 E17.45102
G1 X174.592 Y128.374 E17.51458
G1 X174.966 Y129.196 E17.54462
G1 X175.265 Y130.048 E17.57465
G1 X175.488 Y130.923 E17.60468
G1 X175.633 Y131.814 E17.63471
G1 X175.699 Y132.715 E17.66476
G1 X175.684 Y133.618 E17.69479
G1 X175.59 Y134.516 E17.72482
G1 X175.417 Y135.403 E17.75488
G1 X175.1 Y136.459 E17.79155
G1 X174.803 Y137.284 E17.82072
G1 X169.217 Y151.995 E18.34409
G1 X168.329 Y154.434 E18.43042
G1 X167.535 Y156.829 E18.51435
G1 X166.797 Y159.279 E18.59945
G1 X166.129 Y161.753 E18.68468
G1 X165.543 Y164.194 E18.76818
G1 X165.021 Y166.68 E18.85266
G1 X164.562 Y169.213 E18.93828
G1 X164.184 Y171.701 E19.02199
G1 X163.873 Y174.226 E19.1066
G1 X163.761 Y175.284 E19.14199
G1 X163.626 Y176.177 E19.17203
G1 X163.413 Y177.054 E19.20204
G1 X163.053 Y178.084 E19.23833
G1 X161.955 Y180.759 E19.33451
G1 X161.416 Y182.167 E19.38465
G1 X160.937 Y183.449 E19.43017
G1 X160.584 Y184.28 E19.4602
G1 X160.158 Y185.077 E19.49026
G1 X159.664 Y185.833 E19.52029
G1 X159.105 Y186.542 E19.55032
G1 X158.485 Y187.199 E19.58037
G1 X157.52 Y188.025 E19.62262
G1 X156.766 Y188.588 E19.65392
G1 X156.366 Y188.871 E19.67021
G1 X155.607 Y189.359 E19.70023
G1 X154.807 Y189.779 E19.73028
G1 X153.973 Y190.125 E19.76031
G1 X153.112 Y190.397 E19.79034
G1 X152.23 Y190.592 E19.82038
G1 X151.334 Y190.708 E19.85043
G1 X150.657 Y190.742 E19.87298
G1 X149.644 Y190.755 E19.90667
G1 X149.192 Y190.748 E19.92171
G1 X148.291 Y190.694 E19.95173
G1 X147.397 Y190.56 E19.9818
G1 X146.519 Y190.348 E20.01184
G1 X145.664 Y190.06 E20.04185
G1 X144.837 Y189.696 E20.0719
G1 X144.046 Y189.261 E20.10192
G1 X143.483 Y188.892 E20.12431
G1 X142.71 Y188.345 E20.15581
G1 X142.348 Y188.076 E20.17081
G1 X141.648 Y187.506 E20.20083
G1 X141.001 Y186.876 E20.23087
G1 X140.412 Y186.191 E20.26092
G1 X139.886 Y185.457 E20.29095
G1 X139.427 Y184.679 E20.321
G1 X139.038 Y183.864 E20.35103
G1 X138.786 Y183.203 E20.37456
G1 X138.327 Y181.866 E20.42158
G1 X138.257 Y181.692 E20.42782
G1 X137.651 Y179.954 E20.48903
G1 X136.841 Y177.812 E20.5652
G1 X136.559 Y176.954 E20.59524
G1 X136.355 Y176.074 E20.62529
G1 X136.25 Y175.386 E20.64843
G1 X136.153 Y174.553 E20.67633
G1 X136.059 Y173.636 E20.70699
G1 X135.727 Y171.082 E20.79265
G1 X135.33 Y168.582 E20.87684
G1 X134.859 Y166.075 E20.96168
G1 X134.324 Y163.613 E21.04548
G1 X133.712 Y161.14 E21.13021
G1 X133.031 Y158.687 E21.21489
G1 X132.28 Y156.252 E21.29964
G1 X131.467 Y153.857 E21.38376
G1 X130.761 Y151.937 E21.4518
G1 X125.137 Y137.126 E21.97873
G1 X124.903 Y136.479 E22.00162
G1 X124.634 Y135.617 E22.03165
G1 X124.442 Y134.735 E22.06167
G1 X124.329 Y133.839 E22.09171
G1 X124.295 Y132.936 E22.12177
G1 X124.342 Y132.034 E22.15181
G1 X124.468 Y131.14 E22.18184
G1 X124.673 Y130.26 E22.21189
G1 X124.954 Y129.402 E22.24192
G1 X125.405 Y128.383 E22.27898
G1 X125.826 Y127.555 E22.30988
G1 X126.967 Y125.235 E22.39587
G1 X128.034 Y122.899 E22.48128
G1 X129.028 Y120.553 E22.56603
G1 X129.96 Y118.166 E22.65126
G1 X130.706 Y116.097 E22.72441
G1 X131.575 Y113.599 E22.81238
G1 X132.376 Y111.189 E22.89684
G1 X132.694 Y110.114 E22.93413
G1 X132.754 Y109.94 E22.94025
G1 X133.557 Y107.322 E23.03133
G1 X133.795 Y106.591 E23.0569
G1 X134.031 Y105.9 E23.08119
G1 X134.361 Y105.059 E23.11123
G1 X134.763 Y104.251 E23.14125
G1 X135.236 Y103.481 E23.17131
G1 X135.775 Y102.756 E23.20135
G1 F1500 E16.70135
G0 F6000 X151.526 Y110.818
G1 F1500 E23.20135
G1 F1200 X152.116 Y110.32 E23.22703
G1 X152.266 Y110.32 E23.23202
G1 X152.489 Y110.482 E23.24119
G1 X152.573 Y110.74 E23.25021
G1 X152.489 Y110.998 E23.25924
G1 X152.266 Y111.16 E23.26841
G1 X151.996 Y111.16 E23.27739
G1 X151.526 Y110.818 E23.29672
G0 F6000 X151.121 Y111.018
G1 F1200 X150.857 Y110.859 E23.30697
G1 X151.97 Y109.92 E23.3554
G1 X152.396 Y109.92 E23.36957
G1 X152.83 Y110.235 E23.38741
G1 X152.994 Y110.74 E23.40507
G1 X152.83 Y111.245 E23.42273
G1 X152.396 Y111.56 E23.44056
G1 X151.866 Y111.56 E23.45819
G1 X151.121 Y111.018 E23.48883
G0 F6000 X150.886 Y111.341
G1 F1200 X150.525 Y111.128 E23.50278
G1 X150.13 Y110.987 E23.51673
G1 X149.93 Y110.957 E23.52345
G1 X150.211 Y110.831 E23.53369
G1 X150.546 Y110.599 E23.54725
G1 X151.825 Y109.52 E23.6029
G1 X152.527 Y109.52 E23.62625
G1 X153.17 Y109.988 E23.6527
G1 X153.414 Y110.74 E23.679
G1 X153.17 Y111.492 E23.70529
G1 X152.527 Y111.96 E23.73175
