;FLAVOR:Marlin
;TIME:12606
;Filament used: 10.6652m
;Layer height: 0.2
;MINX:114.938
;MINY:120.002
;MINZ:0.2
;MAXX:185.062
;MAXY:190.448
;MAXZ:71.8
;Generated with Cura_SteamEngine 5.2.1
M140 S60
M105
M190 S60
M104 S215
M105
M109 S215
M82 ;absolute extrusion mode
; Ender 3 Max Custom Start G-code
G92 E0 ; Reset Extruder
G28 ; Home all axes
G1 Z2.0 F3000 ; Move Z Axis up little to prevent scratching of Heat Bed
G1 X0.1 Y20 Z0.3 F5000.0 ; Move to start position
G1 X0.1 Y200.0 Z0.3 F1500.0 E15 ; Draw the first line
G1 X0.4 Y200.0 Z0.3 F5000.0 ; Move to side a little
G1 X0.4 Y20 Z0.3 F1500.0 E30 ; Draw the second line
G92 E0 ; Reset Extruder
G1 Z2.0 F3000 ; Move Z Axis up little to prevent scratching of Heat Bed
G1 X5 Y20 Z0.3 F5000.0 ; Move over to prevent blob squish
G92 E0
G92 E0
G1 F1500 E-6.5
;LAYER_COUNT:360
;LAYER:0
M107
G0 F6000 X118.378 Y126.995 Z0.2
;TYPE:SKIRT
G1 F1500 E0
G1 F1200 X119.394 Y126.089 E0.04528
G1 X121.702 Y124.273 E0.14295
G1 X122.642 Y123.48 E0.18386
G1 X122.786 Y123.369 E0.18991
G1 X123.797 Y122.531 E0.23358
G1 X124.544 Y121.964 E0.26477
G1 X125.337 Y121.463 E0.29597
G1 X126.169 Y121.031 E0.32715
G1 X127.035 Y120.671 E0.35834
G1 X127.929 Y120.387 E0.38954
G1 X128.844 Y120.179 E0.42075
G1 X129.773 Y120.051 E0.45194
G1 X130.709 Y120.002 E0.48312
G1 X131.647 Y120.032 E0.51433
G1 X132.829 Y120.187 E0.55398
G1 X133.53 Y120.317 E0.57769
G1 X136.153 Y120.769 E0.66622
G1 X138.616 Y121.122 E0.74898
G1 X141.136 Y121.411 E0.83334
G1 X143.652 Y121.627 E0.91733
G1 X146.166 Y121.771 E1.00109
G1 X148.66 Y121.844 E1.08407
G1 X151.184 Y121.846 E1.16802
G1 X153.698 Y121.777 E1.25167
G1 X156.232 Y121.636 E1.33608
G1 X158.703 Y121.428 E1.41856
G1 X161.238 Y121.142 E1.50341
G1 X163.691 Y120.794 E1.58581
G1 X166.618 Y120.29 E1.6846
G1 X167.167 Y120.188 E1.70317
G1 X168.095 Y120.055 E1.73435
G1 X169.031 Y120.002 E1.76553
G1 X169.969 Y120.029 E1.79674
G1 X170.901 Y120.136 E1.82794
G1 X171.82 Y120.321 E1.85912
G1 X172.72 Y120.585 E1.89032
G1 X173.595 Y120.924 E1.92153
G1 X174.437 Y121.336 E1.95271
G1 X175.241 Y121.818 E1.98388
G1 X176.198 Y122.527 E2.0235
G1 X176.979 Y123.174 E2.05723
G1 X177.631 Y123.729 E2.08571
G1 X180.641 Y126.117 E2.2135
G1 X181.351 Y126.731 E2.24472
G1 X182.005 Y127.403 E2.27591
G1 X182.6 Y128.128 E2.3071
G1 X183.13 Y128.901 E2.33828
G1 X183.593 Y129.717 E2.36948
G1 X183.985 Y130.569 E2.40067
G1 X184.303 Y131.451 E2.43186
G1 X184.544 Y132.358 E2.46307
G1 X184.708 Y133.281 E2.49425
G1 X184.803 Y134.599 E2.5382
G1 X184.813 Y135.491 E2.56787
G1 X184.795 Y143.79 E2.8439
G1 X184.784 Y144.496 E2.86738
G1 X184.729 Y145.433 E2.8986
G1 X184.595 Y146.361 E2.92979
G1 X184.382 Y147.274 E2.96097
G1 X184.092 Y148.166 E2.99217
G1 X183.728 Y149.03 E3.02335
G1 X183.291 Y149.86 E3.05455
G1 X182.696 Y150.774 E3.09082
G1 X182.234 Y151.408 E3.11691
G1 X178.024 Y156.984 E3.3493
G1 X177.564 Y157.576 E3.37423
G1 X176.962 Y158.286 E3.40519
G1 X176.53 Y158.754 E3.42638
G1 X174.723 Y160.768 E3.51637
G1 X173.117 Y162.664 E3.59901
G1 X171.551 Y164.621 E3.68238
G1 X170.024 Y166.643 E3.76665
G1 X168.568 Y168.691 E3.85023
G1 X167.17 Y170.777 E3.93375
G1 X165.829 Y172.909 E4.01752
G1 X164.544 Y175.087 E4.10163
G1 X163.319 Y177.301 E4.18579
G1 X162.187 Y179.494 E4.26787
G1 X160.627 Y182.78 E4.38886
G1 X160.091 Y183.97 E4.43227
G1 X159.669 Y184.808 E4.46347
G1 X159.178 Y185.607 E4.49466
G1 X158.621 Y186.362 E4.52587
G1 X158.001 Y187.066 E4.55707
G1 X157.324 Y187.714 E4.58824
G1 X156.594 Y188.303 E4.61944
G1 X155.816 Y188.827 E4.65064
G1 X154.997 Y189.283 E4.68181
G1 X154.141 Y189.668 E4.71303
G1 X153.256 Y189.979 E4.74423
G1 X152.348 Y190.213 E4.77542
G1 X151.423 Y190.368 E4.80661
G1 X150.399 Y190.448 E4.84078
G1 X149.461 Y190.448 E4.87197
G1 X148.527 Y190.367 E4.90315
G1 X147.603 Y190.207 E4.93434
G1 X146.695 Y189.968 E4.96557
G1 X145.812 Y189.654 E4.99674
G1 X144.958 Y189.265 E5.02796
G1 X144.141 Y188.805 E5.05914
G1 X143.366 Y188.277 E5.09033
G1 X142.639 Y187.685 E5.12151
G1 X141.965 Y187.033 E5.1527
G1 X141.348 Y186.326 E5.18391
G1 X140.795 Y185.569 E5.21509
G1 X140.307 Y184.767 E5.24632
G1 X139.878 Y183.901 E5.27846
G1 X139.15 Y182.251 E5.33845
G1 X138.065 Y179.967 E5.42255
G1 X136.918 Y177.715 E5.50661
G1 X135.722 Y175.526 E5.58957
G1 X134.452 Y173.35 E5.67337
G1 X133.112 Y171.196 E5.75774
G1 X131.744 Y169.128 E5.84021
G1 X130.27 Y167.033 E5.92541
G1 X128.792 Y165.052 E6.00762
G1 X127.218 Y163.063 E6.09198
G1 X125.609 Y161.144 E6.17527
G1 X122.984 Y158.226 E6.30582
G1 X122.497 Y157.646 E6.33101
G1 X121.801 Y156.754 E6.36864
G1 X117.886 Y151.567 E6.58478
G1 X117.345 Y150.83 E6.61519
G1 X116.823 Y150.051 E6.64638
G1 X116.369 Y149.23 E6.67758
G1 X115.987 Y148.373 E6.70879
G1 X115.679 Y147.487 E6.73999
G1 X115.448 Y146.578 E6.77118
G1 X115.295 Y145.653 E6.80237
G1 X115.218 Y144.572 E6.83841
G1 X115.204 Y143.859 E6.86213
G1 X115.186 Y135.458 E7.14155
G1 X115.196 Y134.593 E7.17032
G1 X115.248 Y133.657 E7.2015
G1 X115.38 Y132.728 E7.23271
G1 X115.59 Y131.814 E7.2639
G1 X115.877 Y130.922 E7.29507
G1 X116.239 Y130.057 E7.32626
G1 X116.674 Y129.226 E7.35745
G1 X117.178 Y128.435 E7.38865
G1 X117.748 Y127.689 E7.41987
G1 X118.378 Y126.995 E7.45105
G0 F6000 X118.771 Y127.169
G1 F1200 X119.641 Y126.404 E7.48958
G1 X121.954 Y124.584 E7.58747
G1 X122.9 Y123.786 E7.62864
G1 X124.052 Y122.839 E7.67824
G1 X124.786 Y122.283 E7.70886
G1 X125.565 Y121.793 E7.73947
G1 X126.384 Y121.372 E7.7701
G1 X127.237 Y121.024 E7.80074
G1 X128.116 Y120.751 E7.83135
G1 X129.015 Y120.555 E7.86196
G1 X129.929 Y120.438 E7.89261
G1 X130.848 Y120.401 E7.9232
G1 X131.768 Y120.444 E7.95383
G1 X132.756 Y120.58 E7.987
G1 X133.526 Y120.723 E8.01305
G1 X136.066 Y121.161 E8.09878
G1 X138.59 Y121.522 E8.18358
G1 X141.092 Y121.809 E8.26734
G1 X143.593 Y122.024 E8.35083
G1 X146.167 Y122.171 E8.43658
G1 X148.648 Y122.244 E8.51914
G1 X151.194 Y122.246 E8.60382
G1 X153.733 Y122.177 E8.6883
G1 X156.217 Y122.038 E8.77104
G1 X158.78 Y121.822 E8.85659
G1 X161.268 Y121.542 E8.93986
G1 X163.782 Y121.185 E9.02432
G1 X166.613 Y120.698 E9.11986
G1 X167.24 Y120.581 E9.14108
G1 X168.151 Y120.452 E9.17168
G1 X169.071 Y120.402 E9.20232
G1 X169.991 Y120.432 E9.23294
G1 X170.905 Y120.541 E9.26355
G1 X171.806 Y120.73 E9.29417
G1 X172.687 Y120.996 E9.32478
G1 X173.542 Y121.338 E9.35541
G1 X174.364 Y121.753 E9.38604
G1 X175.147 Y122.237 E9.41665
G1 X175.943 Y122.835 E9.44977
G1 X176.72 Y123.479 E9.48333
G1 X177.359 Y124.023 E9.51124
G1 X180.393 Y126.43 E9.64006
G1 X181.088 Y127.034 E9.67068
G1 X181.729 Y127.695 E9.70131
G1 X182.31 Y128.409 E9.73192
G1 X182.827 Y129.171 E9.76255
G1 X183.275 Y129.975 E9.79316
G1 X183.653 Y130.815 E9.8238
G1 X183.956 Y131.684 E9.85441
G1 X184.182 Y132.576 E9.88501
G1 X184.33 Y133.485 E9.91564
G1 X184.403 Y134.604 E9.95294
G1 X184.413 Y135.49 E9.98241
G1 X184.395 Y143.784 E10.25827
G1 X184.384 Y144.49 E10.28176
G1 X184.329 Y145.409 E10.31238
G1 X184.196 Y146.32 E10.343
G1 X183.983 Y147.216 E10.37363
G1 X183.694 Y148.09 E10.40425
G1 X183.33 Y148.935 E10.43485
G1 X182.894 Y149.746 E10.46547
G1 X182.372 Y150.539 E10.49705
G1 X181.915 Y151.167 E10.52288
G1 X177.708 Y156.739 E10.7551
G1 X177.248 Y157.331 E10.78004
G1 X176.668 Y158.015 E10.80986
G1 X176.232 Y158.487 E10.83124
G1 X174.436 Y160.489 E10.92069
G1 X172.801 Y162.418 E11.00479
G1 X171.235 Y164.375 E11.08816
G1 X169.707 Y166.4 E11.17253
G1 X168.225 Y168.484 E11.25759
G1 X166.832 Y170.563 E11.34082
G1 X165.479 Y172.714 E11.42534
G1 X164.216 Y174.854 E11.50799
G1 X162.972 Y177.103 E11.59347
G1 X161.822 Y179.33 E11.67683
G1 X160.258 Y182.624 E11.79812
G1 X159.726 Y183.806 E11.84123
G1 X159.312 Y184.628 E11.87184
G1 X158.828 Y185.411 E11.90246
G1 X158.278 Y186.15 E11.93309
G1 X157.666 Y186.837 E11.9637
G1 X156.996 Y187.469 E11.99433
G1 X156.274 Y188.041 E12.02497
G1 X155.506 Y188.548 E12.05557
G1 X154.696 Y188.986 E12.0862
G1 X153.851 Y189.352 E12.11683
G1 X152.978 Y189.644 E12.14745
G1 X152.083 Y189.858 E12.17805
G1 X151.172 Y189.995 E12.20869
G1 X150.382 Y190.049 E12.23503
G1 X149.462 Y190.047 E12.26563
G1 X148.545 Y189.966 E12.29625
G1 X147.638 Y189.805 E12.32689
G1 X146.749 Y189.566 E12.35751
G1 X145.884 Y189.251 E12.38812
G1 X145.049 Y188.862 E12.41876
G1 X144.252 Y188.402 E12.44937
G1 X143.497 Y187.875 E12.47999
G1 X142.791 Y187.284 E12.51062
G1 X142.139 Y186.634 E12.54124
G1 X141.546 Y185.93 E12.57185
G1 X141.016 Y185.177 E12.60248
G1 X140.553 Y184.381 E12.63311
G1 X140.244 Y183.739 E12.6568
G1 X139.519 Y182.097 E12.7165
G1 X138.425 Y179.792 E12.80137
G1 X137.267 Y177.52 E12.88618
G1 X136.084 Y175.354 E12.96827
G1 X134.784 Y173.127 E13.05403
G1 X133.462 Y171.002 E13.13727
G1 X132.061 Y168.884 E13.22174
G1 X130.602 Y166.809 E13.3061
G1 X129.097 Y164.793 E13.38978
G1 X127.519 Y162.799 E13.47435
G1 X125.93 Y160.904 E13.55661
G1 X123.281 Y157.959 E13.68835
G1 X122.812 Y157.4 E13.71262
G1 X122.12 Y156.513 E13.75004
G1 X118.205 Y151.326 E13.96619
G1 X117.667 Y150.593 E13.99643
G1 X117.155 Y149.828 E14.02705
G1 X116.712 Y149.021 E14.05766
G1 X116.34 Y148.179 E14.08828
G1 X116.043 Y147.308 E14.11889
G1 X115.823 Y146.414 E14.14951
G1 X115.681 Y145.504 E14.18014
G1 X115.618 Y144.563 E14.21151
G1 X115.604 Y143.858 E14.23496
G1 X115.586 Y135.457 E14.51438
G1 X115.596 Y134.599 E14.54292
G1 X115.648 Y133.679 E14.57357
G1 X115.779 Y132.768 E14.60418
G1 X115.989 Y131.872 E14.63479
G1 X116.276 Y130.997 E14.66542
G1 X116.638 Y130.15 E14.69606
G1 X117.072 Y129.338 E14.72668
G1 X117.574 Y128.567 E14.75728
G1 X118.142 Y127.842 E14.78791
G1 X118.771 Y127.169 E14.81855
G0 F6000 X119.162 Y127.347
G1 F1200 X119.889 Y126.718 E14.85052
G1 X122.21 Y124.892 E14.94875
G1 X123.158 Y124.092 E14.99
G1 X124.308 Y123.147 E15.03951
G1 X125.028 Y122.602 E15.06955
G1 X125.794 Y122.123 E15.09959
G1 X126.598 Y121.714 E15.1296
G1 X127.436 Y121.377 E15.15964
G1 X128.301 Y121.116 E15.18969
G1 X129.185 Y120.932 E15.21972
G1 X130.082 Y120.827 E15.24976
G1 X130.985 Y120.802 E15.2798
G1 X131.886 Y120.857 E15.30983
G1 X132.682 Y120.973 E15.33658
G1 X133.45 Y121.116 E15.36256
G1 X136.012 Y121.557 E15.44903
G1 X138.52 Y121.916 E15.5333
G1 X141.049 Y122.206 E15.61796
G1 X143.607 Y122.426 E15.70336
G1 X146.097 Y122.569 E15.78631
G1 X148.671 Y122.644 E15.87196
G1 X151.204 Y122.646 E15.95621
G1 X153.731 Y122.577 E16.04029
G1 X156.272 Y122.435 E16.12493
G1 X158.791 Y122.223 E16.20901
G1 X161.337 Y121.936 E16.29423
G1 X163.835 Y121.582 E16.37814
G1 X166.677 Y121.093 E16.47406
G1 X167.313 Y120.974 E16.49558
G1 X168.208 Y120.848 E16.52564
G1 X169.109 Y120.801 E16.55565
G1 X170.012 Y120.835 E16.5857
G1 X170.908 Y120.948 E16.61574
G1 X171.79 Y121.139 E16.64575
G1 X172.653 Y121.408 E16.67582
G1 X173.487 Y121.753 E16.70584
G1 X174.289 Y122.17 E16.7359
G1 X175.05 Y122.656 E16.76593
G1 X175.688 Y123.143 E16.79263
G1 X176.461 Y123.784 E16.82603
G1 X177.119 Y124.344 E16.85477
G1 X180.144 Y126.744 E16.9832
G1 X180.826 Y127.336 E17.01324
G1 X181.453 Y127.986 E17.04327
G1 X182.02 Y128.689 E17.07331
G1 X182.522 Y129.439 E17.10333
G1 X182.956 Y130.231 E17.13337
G1 X183.319 Y131.059 E17.16344
G1 X183.607 Y131.915 E17.19348
G1 X183.818 Y132.793 E17.22351
G1 X183.95 Y133.686 E17.25354
G1 X184.003 Y134.609 E17.28429
G1 X184.013 Y135.489 E17.31356
G1 X183.995 Y143.778 E17.58925
G1 X183.984 Y144.484 E17.61273
G1 X183.93 Y145.385 E17.64276
G1 X183.796 Y146.279 E17.67282
G1 X183.584 Y147.156 E17.70283
G1 X183.295 Y148.012 E17.73288
G1 X182.932 Y148.839 E17.76292
G1 X182.497 Y149.63 E17.79295
G1 X182.048 Y150.305 E17.81991
G1 X181.596 Y150.926 E17.84546
G1 X177.479 Y156.38 E18.07274
G1 X176.932 Y157.085 E18.10241
G1 X176.374 Y157.744 E18.13114
G1 X175.906 Y158.251 E18.15408
G1 X174.134 Y160.226 E18.24234
G1 X172.5 Y162.155 E18.32642
G1 X170.902 Y164.152 E18.41149
G1 X169.393 Y166.15 E18.49477
G1 X167.899 Y168.251 E18.58051
G1 X166.488 Y170.357 E18.66482
G1 X165.155 Y172.478 E18.74814
G1 X163.856 Y174.678 E18.83312
G1 X162.609 Y176.932 E18.9188
G1 X161.481 Y179.117 E19.00058
G1 X159.881 Y182.488 E19.12469
G1 X159.361 Y183.642 E19.16679
G1 X158.954 Y184.448 E19.19682
G1 X158.478 Y185.215 E19.22685
G1 X157.935 Y185.937 E19.25689
G1 X157.331 Y186.608 E19.28692
G1 X156.669 Y187.223 E19.31697
G1 X155.956 Y187.777 E19.34701
G1 X155.197 Y188.266 E19.37704
G1 X154.397 Y188.686 E19.40709
G1 X153.563 Y189.033 E19.43713
G1 X152.702 Y189.305 E19.46716
G1 X151.82 Y189.5 E19.49721
G1 X150.486 Y189.644 E19.54183
G1 X149.463 Y189.647 E19.57586
G1 X148.563 Y189.565 E19.60592
G1 X147.675 Y189.403 E19.63594
G1 X146.804 Y189.164 E19.66598
G1 X145.958 Y188.848 E19.69602
G1 X145.143 Y188.459 E19.72605
G1 X144.365 Y187.999 E19.75611
G1 X143.632 Y187.473 E19.78612
G1 X142.948 Y186.883 E19.81617
G1 X142.318 Y186.235 E19.84623
G1 X141.749 Y185.535 E19.87623
G1 X141.243 Y184.786 E19.90629
G1 X140.806 Y183.996 E19.93632
G1 X140.61 Y183.578 E19.95168
G1 X139.875 Y181.913 E20.01221
G1 X138.779 Y179.604 E20.09722
G1 X137.632 Y177.353 E20.18125
G1 X136.422 Y175.139 E20.26517
G1 X135.136 Y172.936 E20.35001
G1 X133.793 Y170.775 E20.43463
G1 X132.394 Y168.662 E20.51892
G1 X130.929 Y166.579 E20.60362
G1 X129.416 Y164.551 E20.68777
G1 X127.841 Y162.561 E20.77218
G1 X126.223 Y160.632 E20.85592
G1 X123.578 Y157.691 E20.98748
G1 X123.127 Y157.153 E21.01083
G1 X122.44 Y156.272 E21.04799
G1 X118.525 Y151.085 E21.26414
G1 X117.99 Y150.357 E21.29418
G1 X117.488 Y149.606 E21.32423
G1 X117.055 Y148.813 E21.35428
G1 X116.694 Y147.985 E21.38432
G1 X116.408 Y147.129 E21.41434
G1 X116.198 Y146.25 E21.4444
G1 X116.067 Y145.357 E21.47442
G1 X116.018 Y144.554 E21.50118
G1 X116.004 Y143.857 E21.52436
G1 X115.986 Y135.456 E21.80378
G1 X115.996 Y134.604 E21.83212
G1 X116.047 Y133.702 E21.86217
G1 X116.179 Y132.809 E21.89219
G1 X116.388 Y131.93 E21.92224
G1 X116.675 Y131.074 E21.95227
G1 X117.036 Y130.246 E21.98232
G1 X117.469 Y129.453 E22.01237
G1 X117.97 Y128.702 E22.04239
G1 X118.536 Y127.998 E22.07244
G1 X119.162 Y127.347 E22.10248
G1 F1500 E15.60248
;MESH:094_-_Gengar.STL
G0 F6000 X125.522 Y135.415
G0 X149.999 Y178.017
;TYPE:WALL-INNER
G1 F1500 E22.10248
G1 F1200 X155.731 Y163.696 E22.61553
G1 X155.973 Y163.209 E22.63362
G1 X160.933 Y150.847 E23.07664
G1 X161.098 Y150.657 E23.08501
G1 X161.384 Y150.538 E23.09531
G1 X168.579 Y150.242 E23.33482
G1 X173.195 Y144.126 E23.58968
G1 X173.209 Y137.549 E23.80843
G1 X173.212 Y135.704 E23.86979
G1 X171.563 Y136.531 E23.93115
G1 X171.314 Y136.595 E23.9397
G1 X171.13 Y136.572 E23.94587
G1 X170.778 Y136.4 E23.9589
G1 X170.624 Y136.158 E23.96844
G1 X169.076 Y132.318 E24.10615
G1 X167.276 Y135.257 E24.22078
G1 X167.067 Y135.462 E24.23051
G1 X166.883 Y135.532 E24.23706
G1 X166.596 Y135.559 E24.24665
G1 X166.433 Y135.524 E24.25219
G1 X166.247 Y135.414 E24.25938
G1 X164.101 Y133.55 E24.35392
G1 X162.188 Y143.735 E24.6986
G1 X161.98 Y144.108 E24.7128
G1 X161.796 Y144.271 E24.72098
G1 X161.618 Y144.341 E24.72734
G1 X150.297 Y145.866 E25.10728
G1 X149.998 Y145.838 E25.11727
G1 X149.701 Y145.865 E25.12719
G1 X138.337 Y144.337 E25.50856
G1 X138.112 Y144.205 E25.51723
G1 X138.016 Y144.104 E25.52187
G1 X137.804 Y143.721 E25.53643
G1 X135.898 Y133.55 E25.88061
G1 X133.752 Y135.413 E25.97513
G1 X133.566 Y135.523 E25.98231
G1 X133.404 Y135.558 E25.98783
G1 X133.116 Y135.531 E25.99745
G1 X132.933 Y135.461 E26.00396
G1 X132.723 Y135.256 E26.01372
G1 X130.924 Y132.319 E26.12828
G1 X129.375 Y136.159 E26.266
G1 X129.221 Y136.401 E26.27554
G1 X128.869 Y136.573 E26.28857
G1 X128.686 Y136.595 E26.2947
G1 X128.435 Y136.532 E26.30331
G1 X126.788 Y135.704 E26.36462
G1 X126.805 Y144.126 E26.64474
G1 X131.421 Y150.242 E26.89959
G1 X138.614 Y150.538 E27.13903
G1 X138.9 Y150.657 E27.14933
