;FLAVOR:Marlin
;TIME:12592
;Filament used: 7.78281m
;Layer height: 0.2
;MINX:42.503
;MINY:105.801
;MINZ:0.32
;MAXX:257.511
;MAXY:194.209
;MAXZ:4.92
;Generated with Cura_SteamEngine 5.2.1
M140 S60
M105
M190 S60
M104 S200
M105
M109 S200
M82 ;absolute extrusion mode
; Ender 3 Max Custom Start G-code
G92 E0 ; Reset Extruder
G28 ; Home all axes
G1 Z2.0 F3000 ; Move Z Axis up little to prevent scratching of Heat Bed
G1 X0.1 Y20 Z0.3 F5000.0 ; Move to start position
G1 X0.1 Y200.0 Z0.3 F1500.0 E15 ; Draw the first line
G1 X0.4 Y200.0 Z0.3 F5000.0 ; Move to side a little
G1 X0.4 Y20 Z0.3 F1500.0 E30 ; Draw the second line
G92 E0 ; Reset Extruder
G1 Z2.0 F3000 ; Move Z Axis up little to prevent scratching of Heat Bed
G1 X5 Y20 Z0.3 F5000.0 ; Move over to prevent blob squish
G92 E0
G92 E0
G1 F1500 E-6.5
;LAYER_COUNT:24
;LAYER:0
M107
G0 F6000 X48.805 Y108.235 Z0.32
;TYPE:SKIRT
G1 F1500 E0
G1 F900 X49.663 Y107.895 E0.05403
G1 X50.547 Y107.63 E0.10805
G1 X51.451 Y107.443 E0.16209
G1 X52.368 Y107.334 E0.21614
G1 X53.299 Y107.306 E0.27067
G1 X56.19 Y107.344 E0.43991
G1 X58.755 Y107.302 E0.59008
G1 X61.224 Y107.192 E0.73476
G1 X63.791 Y107.004 E0.88543
G1 X65.892 Y106.798 E1.009
G1 X67.079 Y106.667 E1.07891
G1 X68 Y106.606 E1.13294
G1 X68.588 Y106.609 E1.16736
G1 X69.369 Y106.634 E1.2131
G1 X71.981 Y106.68 E1.36603
G1 X74.495 Y106.654 E1.5132
G1 X77.028 Y106.556 E1.66159
G1 X79.567 Y106.385 E1.81055
G1 X82.087 Y106.143 E1.95875
G1 X83.048 Y106.035 E2.01536
G1 X83.969 Y105.972 E2.06939
G1 X84.893 Y105.988 E2.12349
G1 X85.602 Y106.055 E2.16518
G1 X86.715 Y106.198 E2.23087
G1 X87.336 Y106.286 E2.26758
G1 X90.874 Y106.671 E2.47591
G1 X92.931 Y106.855 E2.59681
G1 X93.974 Y106.963 E2.65819
G1 X96.524 Y107.155 E2.80788
G1 X99.039 Y107.273 E2.95527
G1 X101.573 Y107.319 E3.10362
G1 X104.088 Y107.295 E3.25085
G1 X106.617 Y107.199 E3.399
G1 X109.138 Y107.031 E3.5469
G1 X111.634 Y106.794 E3.69367
G1 X114.15 Y106.484 E3.84207
G1 X116.722 Y106.092 E3.99436
G1 X117.6 Y105.946 E4.04647
G1 X118.516 Y105.834 E4.10049
G1 X119.439 Y105.801 E4.15455
G1 X120.007 Y105.821 E4.18782
G1 X120.77 Y105.868 E4.23257
G1 X122.023 Y105.963 E4.30613
G1 X124.561 Y106.083 E4.45486
G1 X127.072 Y106.132 E4.60188
G1 X129.645 Y106.108 E4.75251
G1 X132.945 Y105.991 E4.9458
G1 X134.022 Y105.973 E5.00886
G1 X134.925 Y105.981 E5.06172
G1 X136.175 Y106.021 E5.13493
G1 X137.045 Y106.071 E5.18594
G1 X137.576 Y106.118 E5.21714
G1 X138.988 Y106.284 E5.30037
G1 X141.912 Y106.71 E5.47334
G1 X144.42 Y107.007 E5.62118
G1 X146.938 Y107.234 E5.76918
G1 X149.472 Y107.39 E5.91779
G1 X151.977 Y107.474 E6.06451
G1 X154.97 Y107.483 E6.23972
G1 X156.919 Y107.458 E6.35381
G1 X189.172 Y107.456 E8.24184
G1 X190.24 Y107.465 E8.30436
G1 X192.361 Y107.523 E8.42856
G1 X193.624 Y107.583 E8.50258
G1 X195.078 Y107.676 E8.58787
G1 X196.16 Y107.762 E8.6514
G1 X197.066 Y107.845 E8.70466
G1 X198.185 Y107.963 E8.77053
G1 X199.254 Y108.09 E8.83355
G1 X200.592 Y108.27 E8.91257
G1 X201.563 Y108.414 E8.97004
G1 X202.63 Y108.589 E9.03333
G1 X204.596 Y108.949 E9.15033
G1 X206.026 Y109.245 E9.23581
G1 X207.331 Y109.541 E9.31415
G1 X208.767 Y109.891 E9.40067
G1 X210.358 Y110.314 E9.49704
G1 X212.362 Y110.903 E9.61931
G1 X214.076 Y111.457 E9.72475
G1 X215.512 Y111.958 E9.81378
G1 X216.891 Y112.472 E9.89993
G1 X218.627 Y113.163 E10.00931
G1 X219.398 Y113.49 E10.05833
G1 X220.579 Y114.011 E10.13389
G1 X221.446 Y114.41 E10.18976
G1 X222.457 Y114.892 E10.25532
G1 X223.505 Y115.413 E10.32384
G1 X224.652 Y116.008 E10.39947
G1 X225.591 Y116.515 E10.46194
G1 X226.648 Y117.109 E10.53292
G1 X227.598 Y117.664 E10.59732
G1 X228.512 Y118.217 E10.65986
G1 X229.678 Y118.952 E10.74054
G1 X230.917 Y119.767 E10.82735
G1 X232.24 Y120.681 E10.92148
G1 X232.707 Y121.016 E10.95513
G1 X234.121 Y122.069 E11.05833
G1 X235.343 Y123.021 E11.14901
G1 X236.462 Y123.929 E11.23336
G1 X236.962 Y124.351 E11.27167
G1 X238.232 Y125.464 E11.37052
G1 X239.492 Y126.62 E11.47061
G1 X240.334 Y127.425 E11.5388
G1 X241.136 Y128.225 E11.60512
G1 X242.039 Y129.157 E11.68108
G1 X242.763 Y129.934 E11.74325
G1 X243.954 Y131.269 E11.84798
G1 X245.03 Y132.539 E11.94541
G1 X245.667 Y133.326 E12.00468
G1 X246.832 Y134.835 E12.11628
G1 X247.74 Y136.079 E12.20644
G1 X248.464 Y137.119 E12.28061
G1 X249.04 Y137.985 E12.3415
G1 X250.028 Y139.552 E12.44994
G1 X250.906 Y141.037 E12.55092
G1 X251.4 Y141.92 E12.61015
G1 X252.024 Y143.095 E12.68803
G1 X252.407 Y143.848 E12.73748
G1 X252.895 Y144.858 E12.80315
G1 X253.665 Y146.568 E12.91293
G1 X254.256 Y148 E13.00361
G1 X254.813 Y149.476 E13.09596
G1 X255.2 Y150.592 E13.1651
G1 X255.668 Y152.071 E13.25591
G1 X255.767 Y152.409 E13.27653
G1 X256.161 Y153.848 E13.36387
G1 X256.43 Y154.959 E13.43078
G1 X256.737 Y156.405 E13.51731
G1 X256.809 Y156.783 E13.53984
G1 X257.058 Y158.269 E13.62804
G1 X257.227 Y159.507 E13.70118
G1 X257.377 Y160.942 E13.78564
G1 X257.413 Y161.391 E13.81201
G1 X257.468 Y162.351 E13.8683
G1 X257.508 Y163.625 E13.94291
G1 X257.511 Y164.095 E13.97042
G1 X257.494 Y165.155 E14.03248
G1 X257.421 Y166.664 E14.12092
G1 X257.392 Y167.066 E14.14451
G1 X257.295 Y168.072 E14.20367
G1 X257.211 Y168.751 E14.24372
G1 X257.038 Y169.896 E14.31151
G1 X256.956 Y170.36 E14.33909
G1 X256.757 Y171.35 E14.39821
G1 X256.51 Y172.403 E14.46152
G1 X256.407 Y172.795 E14.48524
G1 X256.063 Y173.987 E14.55787
G1 X255.815 Y174.746 E14.60461
G1 X255.661 Y175.185 E14.63184
G1 X255.381 Y175.933 E14.6786
G1 X255.204 Y176.373 E14.70636
G1 X254.677 Y177.583 E14.78362
G1 X254.362 Y178.239 E14.82622
G1 X254.124 Y178.708 E14.857
G1 X253.815 Y179.287 E14.89542
G1 X253.421 Y179.977 E14.94193
G1 X252.789 Y181.002 E15.01242
G1 X252.481 Y181.468 E15.04512
G1 X251.917 Y182.269 E15.10247
G1 X251.517 Y182.8 E15.14138
G1 X251.173 Y183.237 E15.17394
G1 X250.69 Y183.821 E15.2183
G1 X250.159 Y184.426 E15.26542
G1 X249.694 Y184.929 E15.30552
G1 X249.021 Y185.613 E15.3617
G1 X248.577 Y186.039 E15.39771
G1 X247.68 Y186.84 E15.46811
G1 X247.083 Y187.336 E15.51355
G1 X246.46 Y187.825 E15.55991
G1 X245.726 Y188.368 E15.61335
G1 X245.242 Y188.703 E15.64781
G1 X244.679 Y189.076 E15.68734
G1 X244.03 Y189.484 E15.73222
G1 X243.12 Y190.012 E15.79381
G1 X242.334 Y190.437 E15.84611
G1 X241.677 Y190.768 E15.88918
G1 X240.815 Y191.174 E15.94495
G1 X240.251 Y191.42 E15.98097
G1 X239.559 Y191.705 E16.02478
G1 X238.999 Y191.923 E16.05996
G1 X237.744 Y192.365 E16.13785
G1 X237.105 Y192.568 E16.17709
G1 X236.241 Y192.821 E16.22979
G1 X235.449 Y193.032 E16.27777
G1 X234.621 Y193.231 E16.32762
G1 X233.977 Y193.371 E16.3662
G1 X233.287 Y193.509 E16.40739
G1 X232.342 Y193.674 E16.46355
G1 X231.522 Y193.798 E16.5121
G1 X230.392 Y193.941 E16.57877
G1 X229.563 Y194.025 E16.62755
G1 X228.887 Y194.081 E16.66725
G1 X228.058 Y194.135 E16.71588
G1 X227.112 Y194.178 E16.77132
G1 X225.871 Y194.206 E16.84398
G1 X194.507 Y194.208 E18.67996
G1 X192.306 Y194.171 E18.80882
G1 X189.153 Y194.176 E18.99339
G1 X187.261 Y194.209 E19.10416
G1 X181.074 Y194.208 E19.46634
G1 X178.706 Y194.168 E19.60497
G1 X175.586 Y194.177 E19.78761
G1 X173.838 Y194.209 E19.88995
G1 X164.338 Y194.208 E20.44606
G1 X162.223 Y194.178 E20.56988
G1 X162.117 Y194.182 E20.57609
G1 X161.678 Y194.172 E20.6018
G1 X159.189 Y194.183 E20.7475
G1 X157.655 Y194.209 E20.83731
G1 X123.593 Y194.208 E22.83123
G1 X122.67 Y194.195 E22.88526
G1 X119.642 Y194.201 E23.06252
G1 X119.109 Y194.209 E23.09372
G1 X114.169 Y194.208 E23.3829
G1 X112.961 Y194.191 E23.45362
G1 X110.462 Y194.188 E23.5999
G1 X108.689 Y194.209 E23.7037
G1 X103.459 Y194.208 E24.00985
G1 X102.536 Y194.195 E24.06389
G1 X99.508 Y194.201 E24.24114
G1 X98.975 Y194.209 E24.27234
G1 X92.776 Y194.208 E24.63522
G1 X92.074 Y194.198 E24.67632
G1 X91.152 Y194.145 E24.73038
G1 X90.239 Y194.012 E24.78439
G1 X89.34 Y193.801 E24.83844
G1 X88.463 Y193.513 E24.89248
G1 X87.614 Y193.15 E24.94653
G1 X86.8 Y192.715 E25.00056
G1 X86.026 Y192.211 E25.05462
G1 X85.299 Y191.642 E25.10867
G1 X84.624 Y191.012 E25.16271
G1 X84.006 Y190.326 E25.21676
G1 X83.449 Y189.589 E25.27084
G1 X83.126 Y189.09 E25.30564
G1 X82.75 Y188.471 E25.34803
G1 X75.565 Y176.213 E26.17977
G1 X75.299 Y175.746 E26.21123
G1 X73.973 Y173.482 E26.36482
G1 X72.874 Y171.709 E26.48693
G1 X68.621 Y164.642 E26.96975
G1 X67.96 Y163.507 E27.04664
G1 X66.677 Y161.242 E27.19902
G1 X59.114 Y148.385 E28.0722
G1 X57.76 Y146.156 E28.22487
G1 X56.408 Y144.065 E28.37063
G1 X55.581 Y142.869 E28.45575
G1 X54.954 Y141.942 E28.52126
G1 X54.49 Y141.191 E28.57293
G1 X53.762 Y139.88 E28.66071
G1 X52.501 Y137.685 E28.8089
G1 X51.191 Y135.546 E28.95573
G1 X49.238 Y132.584 E29.16341
G1 X48.913 Y132.112 E29.19696
G1 X48.501 Y131.464 E29.24191
G1 X48.162 Y130.882 E29.28134
G1 X44.132 Y123.681 E29.76439
G1 X43.785 Y123.04 E29.80706
G1 X43.382 Y122.21 E29.86107
G1 X43.051 Y121.348 E29.91512
G1 X42.796 Y120.46 E29.9692
G1 X42.619 Y119.554 E30.02324
G1 X42.521 Y118.636 E30.07729
G1 X42.503 Y117.713 E30.13133
G1 X42.565 Y116.792 E30.18536
G1 X42.706 Y115.879 E30.23944
G1 X42.926 Y114.983 E30.29345
G1 X43.222 Y114.108 E30.34752
G1 X43.593 Y113.263 E30.40154
G1 X44.036 Y112.453 E30.45559
G1 X44.547 Y111.684 E30.50963
G1 X45.123 Y110.962 E30.5637
G1 X45.759 Y110.293 E30.61773
G1 X46.451 Y109.681 E30.67181
G1 X47.192 Y109.132 E30.7258
G1 X47.216 Y109.117 E30.72745
G0 F810 X47.979 Y108.649
G0 X48.805 Y108.235
G0 F6000 X49.314 Y108.496
G1 F900 X50.166 Y108.193 E30.78039
G1 X51.041 Y107.967 E30.83329
G1 X51.933 Y107.819 E30.88622
G1 X52.834 Y107.75 E30.93912
G1 X53.293 Y107.746 E30.96599
G1 X56.191 Y107.784 E31.13564
G1 X58.747 Y107.742 E31.28529
G1 X61.275 Y107.63 E31.43341
G1 X63.826 Y107.443 E31.58315
G1 X65.897 Y107.239 E31.70496
G1 X67.127 Y107.104 E31.7774
G1 X68.029 Y107.045 E31.83031
G1 X68.574 Y107.048 E31.86222
G1 X69.417 Y107.075 E31.91159
G1 X71.978 Y107.12 E32.06153
G1 X74.517 Y107.094 E32.21016
G1 X77.039 Y106.996 E32.35791
G1 X79.604 Y106.824 E32.50839
G1 X82.124 Y106.582 E32.65659
G1 X83.098 Y106.472 E32.71396
G1 X84 Y106.411 E32.76689
G1 X84.903 Y106.429 E32.81976
G1 X85.546 Y106.491 E32.85757
G1 X87.288 Y106.723 E32.96044
G1 X90.887 Y107.115 E33.17237
G1 X93.033 Y107.307 E33.29849
G1 X93.968 Y107.404 E33.35352
G1 X96.471 Y107.592 E33.50045
G1 X99.044 Y107.713 E33.65124
G1 X101.57 Y107.759 E33.79913
G1 X104.072 Y107.735 E33.9456
G1 X106.664 Y107.637 E34.09743
G1 X109.175 Y107.469 E34.24475
G1 X111.693 Y107.231 E34.39281
G1 X114.198 Y106.922 E34.54055
G1 X116.788 Y106.527 E34.69392
G1 X117.672 Y106.38 E34.74638
G1 X118.569 Y106.271 E34.79927
G1 X119.473 Y106.242 E34.85222
G1 X119.98 Y106.26 E34.88192
G1 X120.888 Y106.317 E34.93517
G1 X122.002 Y106.402 E35.00057
G1 X124.566 Y106.523 E35.15083
G1 X127.068 Y106.572 E35.29732
G1 X129.665 Y106.548 E35.44935
G1 X132.954 Y106.431 E35.642
G1 X134.02 Y106.413 E35.70441
G1 X134.911 Y106.421 E35.75657
G1 X136.161 Y106.461 E35.82978
G1 X137.017 Y106.51 E35.87997
G1 X137.526 Y106.556 E35.90989
G1 X138.925 Y106.72 E35.99235
G1 X141.833 Y107.143 E36.16437
G1 X144.369 Y107.444 E36.31386
G1 X146.905 Y107.673 E36.46292
G1 X149.466 Y107.831 E36.61312
G1 X151.961 Y107.914 E36.75925
G1 X154.974 Y107.923 E36.93562
G1 X156.919 Y107.898 E37.04949
G1 X189.168 Y107.896 E38.93728
G1 X190.236 Y107.905 E38.9998
G1 X192.131 Y107.955 E39.11076
G1 X193.768 Y108.032 E39.2067
G1 X195.043 Y108.114 E39.28149
G1 X195.998 Y108.19 E39.33757
G1 X197.162 Y108.297 E39.40599
G1 X198.133 Y108.4 E39.46315
G1 X199.196 Y108.526 E39.52581
G1 X200.384 Y108.685 E39.59598
G1 X201.661 Y108.875 E39.67155
G1 X202.559 Y109.023 E39.72483
G1 X204.507 Y109.38 E39.84076
G1 X205.929 Y109.674 E39.92576
G1 X207.234 Y109.97 E40.00409
G1 X208.438 Y110.261 E40.0766
G1 X210.245 Y110.739 E40.18602
G1 X212.227 Y111.321 E40.30694
G1 X213.931 Y111.872 E40.41177
G1 X215.367 Y112.373 E40.5008
G1 X216.737 Y112.884 E40.5864
G1 X218.456 Y113.568 E40.6947
G1 X219.081 Y113.832 E40.73441
G1 X220.395 Y114.411 E40.81847
G1 X221.394 Y114.872 E40.88287
G1 X222.267 Y115.289 E40.93951
G1 X223.303 Y115.804 E41.00723
G1 X224.443 Y116.395 E41.0824
G1 X225.545 Y116.992 E41.15577
G1 X226.572 Y117.572 E41.22481
G1 X227.239 Y117.962 E41.27004
G1 X228.446 Y118.694 E41.35267
G1 X229.437 Y119.32 E41.42129
G1 X230.465 Y119.993 E41.49321
G1 X231.827 Y120.929 E41.58995
G1 X232.589 Y121.475 E41.64483
G1 X233.851 Y122.416 E41.73698
G1 X235.066 Y123.363 E41.82715
G1 X236.178 Y124.265 E41.91097
G1 X236.818 Y124.807 E41.96006
G1 X237.934 Y125.788 E42.04704
G1 X239.351 Y127.091 E42.15973
G1 X240.024 Y127.737 E42.21434
G1 X240.82 Y128.531 E42.28015
G1 X241.723 Y129.463 E42.35612
G1 X242.583 Y130.39 E42.43014
G1 X243.625 Y131.561 E42.52189
G1 X244.688 Y132.816 E42.61817
G1 X245.325 Y133.603 E42.67744
G1 X246.477 Y135.095 E42.78778
G1 X247.38 Y136.331 E42.87739
G1 X248.098 Y137.363 E42.95098
G1 X248.674 Y138.229 E43.01186
G1 X249.649 Y139.776 E43.11891
G1 X250.41 Y141.059 E43.20623
G1 X251.011 Y142.127 E43.27797
G1 X251.631 Y143.295 E43.35538
G1 X252.117 Y144.255 E43.41836
G1 X252.498 Y145.048 E43.46986
G1 X253.259 Y146.738 E43.57836
G1 X253.727 Y147.861 E43.64958
G1 X254.397 Y149.621 E43.75982
G1 X254.881 Y151.031 E43.84708
G1 X255.248 Y152.203 E43.91897
G1 X255.648 Y153.626 E44.0055
G1 X255.733 Y153.952 E44.02522
G1 X256.073 Y155.376 E44.11092
G1 X256.376 Y156.857 E44.19941
G1 X256.569 Y157.981 E44.26617
G1 X256.791 Y159.567 E44.35992
G1 X256.939 Y160.986 E44.44344
G1 X256.973 Y161.416 E44.46868
G1 X257.041 Y162.675 E44.54249
G1 X257.068 Y163.638 E44.59889
G1 X257.071 Y164.088 E44.62523
G1 X257.054 Y165.148 E44.68729
G1 X257.041 Y165.523 E44.70925
G1 X256.982 Y166.641 E44.77479
G1 X256.954 Y167.026 E44.79738
G1 X256.859 Y168.018 E44.85572
G1 X256.731 Y169.012 E44.91439
G1 X256.604 Y169.829 E44.96279
G1 X256.525 Y170.273 E44.98919
G1 X256.326 Y171.263 E45.0483
G1 X256.239 Y171.655 E45.0718
G1 X255.984 Y172.676 E45.1334
G1 X255.644 Y173.852 E45.20506
G1 X255.4 Y174.6 E45.25112
G1 X255.163 Y175.267 E45.29256
G1 X254.97 Y175.778 E45.32453
G1 X254.8 Y176.199 E45.35111
G1 X254.279 Y177.395 E45.42748
G1 X253.97 Y178.04 E45.46934
G1 X253.732 Y178.509 E45.50013
G1 X253.428 Y179.078 E45.53789
G1 X253.04 Y179.757 E45.58367
G1 X252.415 Y180.77 E45.65335
G1 X252.121 Y181.216 E45.68462
G1 X251.742 Y181.759 E45.72338
G1 X251.344 Y182.302 E45.76279
G1 X250.635 Y183.202 E45.82986
G1 X250.16 Y183.762 E45.87285
G1 X249.655 Y184.327 E45.91721
G1 X249.138 Y184.872 E45.96118
G1 X248.505 Y185.502 E46.01346
G1 X248.044 Y185.932 E46.05036
G1 X247.612 Y186.317 E46.08424
G1 X246.81 Y186.991 E46.14556
G1 X246.197 Y187.472 E46.19117
G1 X245.473 Y188.007 E46.24387
G1 X244.999 Y188.336 E46.27764
G1 X244.436 Y188.709 E46.31718
G1 X243.798 Y189.11 E46.36129
G1 X243.13 Y189.502 E46.40663
G1 X242.134 Y190.045 E46.47303
G1 X241.487 Y190.371 E46.51544
G1 X240.637 Y190.772 E46.57046
G1 X240.083 Y191.013 E46.60583
G1 X239.391 Y191.298 E46.64964
G1 X238.842 Y191.512 E46.68413
G1 X237.837 Y191.869 E46.74656
G1 X237.232 Y192.068 E46.78384
G1 X236.126 Y192.396 E46.85137
G1 X235.345 Y192.604 E46.89868
G1 X234.527 Y192.801 E46.94794
G1 X233.883 Y192.941 E46.98652
G1 X233.202 Y193.077 E47.02717
G1 X232.034 Y193.278 E47.09654
G1 X231.458 Y193.363 E47.13063
G1 X230.574 Y193.477 E47.1828
G1 X229.742 Y193.566 E47.23178
G1 X228.65 Y193.657 E47.29593
G1 X228.031 Y193.696 E47.33224
G1 X226.886 Y193.745 E47.39932
G1 X225.871 Y193.766 E47.45875
G1 X194.658 Y193.769 E49.28589
G1 X192.74 Y193.743 E49.39818
G1 X192.318 Y193.731 E49.42289
G1 X189.144 Y193.736 E49.60869
G1 X187.261 Y193.769 E49.71893
G1 X181.08 Y193.768 E50.08076
G1 X178.716 Y193.728 E50.21916
G1 X175.577 Y193.737 E50.40291
G1 X173.838 Y193.769 E50.50473
