;FLAVOR:Marlin
;TIME:12828
;Filament used: 9.17844m
;Layer height: 0.2
;MINX:73.632
;MINY:78.716
;MINZ:0.2
;MAXX:226.202
;MAXY:233.385
;MAXZ:7.2
;Generated with Cura_SteamEngine 5.2.1
M140 S60
M105
M190 S60
M104 S215
M105
M109 S215
M82 ;absolute extrusion mode
; Ender 3 Max Custom Start G-code
G92 E0 ; Reset Extruder
G28 ; Home all axes
G1 Z2.0 F3000 ; Move Z Axis up little to prevent scratching of Heat Bed
G1 X0.1 Y20 Z0.3 F5000.0 ; Move to start position
G1 X0.1 Y200.0 Z0.3 F1500.0 E15 ; Draw the first line
G1 X0.4 Y200.0 Z0.3 F5000.0 ; Move to side a little
G1 X0.4 Y20 Z0.3 F1500.0 E30 ; Draw the second line
G92 E0 ; Reset Extruder
G1 Z2.0 F3000 ; Move Z Axis up little to prevent scratching of Heat Bed
G1 X5 Y20 Z0.3 F5000.0 ; Move over to prevent blob squish
G92 E0
G92 E0
G1 F1500 E-6.5
;LAYER_COUNT:36
;LAYER:0
M107
G0 F6000 X82.45 Y85.135 Z0.2
;TYPE:SKIRT
G1 F1500 E0
G1 F1200 X83.341 Y84.386 E0.03871
G1 X83.719 Y84.101 E0.05446
G1 X84.206 Y83.75 E0.07443
G1 X84.994 Y83.242 E0.10561
G1 X85.823 Y82.802 E0.13683
G1 X86.686 Y82.435 E0.16802
G1 X87.577 Y82.143 E0.1992
G1 X88.49 Y81.928 E0.2304
G1 X89.074 Y81.832 E0.25008
G1 X89.949 Y81.713 E0.27945
G1 X91.015 Y81.583 E0.31517
G1 X92.43 Y81.39 E0.36267
G1 X93.054 Y81.323 E0.38354
G1 X94.134 Y81.239 E0.41957
G1 X94.864 Y81.193 E0.4439
G1 X95.872 Y81.095 E0.47759
G1 X96.11 Y81.082 E0.48551
G1 X97.663 Y80.95 E0.53735
G1 X99.407 Y80.844 E0.59547
G1 X100.282 Y80.826 E0.62457
G1 X102.98 Y80.877 E0.71433
G1 X104.054 Y80.87 E0.75005
G1 X104.794 Y80.878 E0.77466
G1 X105.424 Y80.905 E0.79564
G1 X106.62 Y80.99 E0.83552
G1 X107.442 Y81.059 E0.86295
G1 X109.921 Y81.196 E0.94553
G1 X112.406 Y81.264 E1.02821
G1 X114.664 Y81.246 E1.10332
G1 X114.942 Y81.256 E1.11257
G1 X118.507 Y81.213 E1.23115
G1 X121.029 Y81.106 E1.31511
G1 X123.512 Y80.93 E1.3979
G1 X125.379 Y80.746 E1.4603
G1 X125.52 Y80.738 E1.46499
G1 X127.03 Y80.583 E1.51548
G1 X128.219 Y80.493 E1.55514
G1 X128.841 Y80.454 E1.57587
G1 X131.341 Y80.226 E1.65936
G1 X134.987 Y79.768 E1.78158
G1 X135.47 Y79.698 E1.79781
G1 X136.403 Y79.603 E1.82901
G1 X137.472 Y79.592 E1.86456
G1 X140.067 Y79.692 E1.95094
G1 X142.564 Y79.718 E2.03399
G1 X145.086 Y79.674 E2.11789
G1 X147.584 Y79.559 E2.20106
G1 X150.134 Y79.37 E2.28611
G1 X152.891 Y79.104 E2.37823
G1 X154.482 Y78.976 E2.43132
G1 X156.014 Y78.878 E2.48238
G1 X157.891 Y78.787 E2.54488
G1 X159.43 Y78.735 E2.5961
G1 X161.038 Y78.716 E2.64958
G1 X162.847 Y78.728 E2.70975
G1 X163.782 Y78.751 E2.74086
G1 X165.717 Y78.843 E2.80529
G1 X167.343 Y78.944 E2.85947
G1 X168.026 Y79.002 E2.88227
G1 X169.662 Y79.179 E2.937
G1 X171.158 Y79.373 E2.98718
G1 X172.28 Y79.545 E3.02493
G1 X174.835 Y79.91 E3.11077
G1 X177.328 Y80.194 E3.19423
G1 X179.845 Y80.409 E3.27825
G1 X182.26 Y80.553 E3.35871
G1 X183.699 Y80.668 E3.40673
G1 X185.795 Y80.817 E3.47662
G1 X187.097 Y80.938 E3.52011
G1 X189.698 Y81.149 E3.6069
G1 X192.2 Y81.281 E3.69023
G1 X194.731 Y81.342 E3.77444
G1 X197.256 Y81.332 E3.85842
G1 X199.72 Y81.252 E3.94042
G1 X203.535 Y80.996 E4.06759
G1 X205.283 Y80.846 E4.12594
G1 X206.185 Y80.791 E4.156
G1 X207.207 Y80.759 E4.19001
G1 X209.066 Y80.736 E4.25184
G1 X211.018 Y80.658 E4.31682
G1 X211.501 Y80.646 E4.33289
G1 X212.439 Y80.663 E4.36409
G1 X213.371 Y80.76 E4.39526
G1 X214.293 Y80.935 E4.42647
G1 X215.196 Y81.189 E4.45767
G1 X216.074 Y81.518 E4.48886
G1 X216.921 Y81.921 E4.52005
G1 X217.73 Y82.395 E4.55124
G1 X218.496 Y82.936 E4.58243
G1 X219.213 Y83.54 E4.61361
G1 X219.877 Y84.203 E4.64482
G1 X220.531 Y84.986 E4.67875
G1 X221.045 Y85.674 E4.70732
G1 X221.459 Y86.261 E4.73121
G1 X221.967 Y87.05 E4.76242
G1 X222.405 Y87.879 E4.7936
G1 X222.771 Y88.742 E4.82478
G1 X223.062 Y89.634 E4.85599
G1 X223.277 Y90.547 E4.88719
G1 X223.436 Y91.743 E4.92732
G1 X223.54 Y93.072 E4.97165
G1 X223.566 Y93.302 E4.97935
G1 X223.618 Y94.099 E5.00592
G1 X223.639 Y95.036 E5.03709
G1 X223.615 Y95.576 E5.05507
G1 X223.459 Y97.827 E5.13012
G1 X223.349 Y100.361 E5.21448
G1 X223.31 Y102.886 E5.29847
G1 X223.343 Y105.374 E5.38123
G1 X223.449 Y107.931 E5.46635
G1 X223.623 Y110.423 E5.54943
G1 X223.865 Y112.893 E5.63198
G1 X224.188 Y115.437 E5.71727
G1 X224.571 Y117.898 E5.80011
G1 X225.028 Y120.37 E5.88372
G1 X225.617 Y123.11 E5.97694
G1 X225.912 Y124.388 E6.02056
G1 X226.083 Y125.31 E6.05175
G1 X226.189 Y126.551 E6.09317
G1 X226.202 Y127.18 E6.1141
G1 X226.201 Y141.891 E6.60339
G1 X226.194 Y142.388 E6.61992
G1 X226.194 Y145.078 E6.70939
G1 X226.202 Y145.782 E6.73281
G1 X226.201 Y169.512 E7.52207
G1 X226.191 Y170.209 E7.54526
G1 X226.14 Y171.122 E7.57567
G1 X226.075 Y171.784 E7.59779
G1 X225.853 Y174.407 E7.68535
G1 X225.715 Y176.832 E7.76613
G1 X225.632 Y180.791 E7.89784
G1 X225.631 Y194.217 E8.34439
G1 X225.624 Y194.714 E8.36092
G1 X225.624 Y197.403 E8.45036
G1 X225.632 Y198.107 E8.47377
G1 X225.631 Y221.8 E9.26181
G1 X225.621 Y222.527 E9.28599
G1 X225.568 Y223.464 E9.3172
G1 X225.436 Y224.392 E9.34838
G1 X225.225 Y225.306 E9.37958
G1 X224.936 Y226.198 E9.41077
G1 X224.573 Y227.063 E9.44197
G1 X224.138 Y227.894 E9.47316
G1 X223.633 Y228.684 E9.50435
G1 X223.063 Y229.429 E9.53555
G1 X222.432 Y230.123 E9.56675
G1 X221.743 Y230.76 E9.59795
G1 X221.003 Y231.336 E9.62914
G1 X220.217 Y231.847 E9.66033
G1 X219.39 Y232.289 E9.69151
G1 X218.528 Y232.659 E9.72271
G1 X217.638 Y232.954 E9.7539
G1 X216.726 Y233.173 E9.78509
G1 X215.799 Y233.313 E9.81628
G1 X214.931 Y233.372 E9.84521
G1 X214.302 Y233.385 E9.86614
G1 X85.197 Y233.384 E14.16019
G1 X84.499 Y233.375 E14.18341
G1 X83.563 Y233.323 E14.21459
G1 X82.634 Y233.191 E14.24579
G1 X81.72 Y232.981 E14.27699
G1 X80.827 Y232.694 E14.30818
G1 X79.962 Y232.331 E14.33938
G1 X79.131 Y231.897 E14.37057
G1 X78.34 Y231.393 E14.40176
G1 X77.595 Y230.823 E14.43296
G1 X76.901 Y230.192 E14.46416
G1 X76.264 Y229.505 E14.49532
G1 X75.687 Y228.765 E14.52653
G1 X75.175 Y227.979 E14.55773
G1 X74.732 Y227.152 E14.58893
G1 X74.361 Y226.291 E14.62011
G1 X74.065 Y225.401 E14.65131
G1 X73.846 Y224.489 E14.68251
G1 X73.705 Y223.562 E14.71369
G1 X73.645 Y222.673 E14.74333
G1 X73.632 Y222.043 E14.76429
G1 X73.633 Y179.709 E16.17232
G1 X73.644 Y178.999 E16.19594
G1 X73.696 Y178.088 E16.22629
G1 X73.76 Y177.445 E16.24778
G1 X73.98 Y174.848 E16.33447
G1 X74.119 Y172.374 E16.41688
G1 X74.202 Y168.441 E16.54772
G1 X74.203 Y127.385 E17.91325
G1 X74.214 Y126.674 E17.9369
G1 X74.269 Y125.738 E17.96809
G1 X74.403 Y124.809 E17.9993
G1 X74.7 Y123.607 E18.04049
G1 X74.864 Y123.075 E18.059
G1 X75.576 Y120.625 E18.14386
G1 X76.212 Y118.18 E18.22789
G1 X76.781 Y115.716 E18.312
G1 X77.275 Y113.253 E18.39555
G1 X77.701 Y110.771 E18.47931
G1 X78.057 Y108.272 E18.56326
G1 X78.34 Y105.782 E18.64661
G1 X78.553 Y103.282 E18.73007
G1 X78.698 Y100.749 E18.81445
G1 X78.769 Y98.272 E18.89687
G1 X78.764 Y95.319 E18.99509
G1 X78.742 Y94.066 E19.03677
G1 X78.765 Y93.129 E19.06794
G1 X78.868 Y92.196 E19.09916
G1 X79.051 Y91.276 E19.13036
G1 X79.255 Y90.546 E19.15557
G1 X79.478 Y89.843 E19.1801
G1 X79.799 Y88.962 E19.21129
G1 X80.195 Y88.111 E19.24251
G1 X80.661 Y87.298 E19.27368
G1 X81.195 Y86.527 E19.30487
G1 X81.793 Y85.804 E19.33608
G1 X82.45 Y85.135 E19.36726
G0 F6000 X82.797 Y85.358
G1 F1200 X83.582 Y84.705 E19.40122
G1 X83.96 Y84.42 E19.41697
G1 X84.437 Y84.077 E19.43651
G1 X85.211 Y83.578 E19.46714
G1 X86.025 Y83.149 E19.49774
G1 X86.874 Y82.792 E19.52838
G1 X87.75 Y82.51 E19.55899
G1 X88.648 Y82.305 E19.58962
G1 X89.128 Y82.229 E19.60579
G1 X90.161 Y82.089 E19.64046
G1 X91.051 Y81.982 E19.67027
G1 X92.484 Y81.786 E19.71838
G1 X93.086 Y81.722 E19.73851
G1 X94.159 Y81.638 E19.77431
G1 X94.9 Y81.591 E19.79901
G1 X95.911 Y81.493 E19.83279
G1 X96.138 Y81.481 E19.84035
G1 X97.408 Y81.37 E19.88275
G1 X99.431 Y81.244 E19.95017
G1 X100.275 Y81.226 E19.97824
G1 X102.976 Y81.277 E20.0681
G1 X104.057 Y81.27 E20.10405
G1 X104.788 Y81.278 E20.12837
G1 X105.396 Y81.304 E20.14861
G1 X106.587 Y81.389 E20.18832
G1 X107.388 Y81.456 E20.21505
G1 X109.923 Y81.596 E20.2995
G1 X112.399 Y81.664 E20.38188
G1 X114.668 Y81.646 E20.45735
G1 X114.941 Y81.656 E20.46644
G1 X118.53 Y81.613 E20.58582
G1 X121.038 Y81.506 E20.66931
G1 X123.543 Y81.329 E20.75283
G1 X125.418 Y81.144 E20.8155
G1 X125.562 Y81.136 E20.82029
G1 X127.061 Y80.982 E20.87041
G1 X128.244 Y80.892 E20.90987
G1 X128.9 Y80.851 E20.93174
G1 X131.366 Y80.626 E21.0141
G1 X135.044 Y80.164 E21.13739
G1 X135.527 Y80.094 E21.15362
G1 X136.443 Y80.001 E21.18424
G1 X137.456 Y79.992 E21.21794
G1 X140.047 Y80.092 E21.30418
G1 X142.566 Y80.118 E21.38796
G1 X145.077 Y80.074 E21.47149
G1 X147.632 Y79.956 E21.55656
G1 X150.159 Y79.769 E21.64084
G1 X152.762 Y79.517 E21.72782
G1 X154.324 Y79.389 E21.77995
G1 X156.203 Y79.268 E21.84257
G1 X157.771 Y79.192 E21.89479
G1 X159.435 Y79.135 E21.95017
G1 X161.036 Y79.116 E22.00342
G1 X162.837 Y79.128 E22.06332
G1 X164.026 Y79.16 E22.10288
G1 X165.693 Y79.242 E22.15839
G1 X167.051 Y79.324 E22.20364
G1 X168.251 Y79.426 E22.2437
G1 X169.843 Y79.603 E22.29698
G1 X171.106 Y79.769 E22.33934
G1 X172.238 Y79.944 E22.37744
G1 X174.769 Y80.305 E22.46248
G1 X177.316 Y80.595 E22.54774
G1 X179.826 Y80.81 E22.63153
G1 X182.465 Y80.969 E22.71946
G1 X183.638 Y81.064 E22.7586
G1 X186.022 Y81.237 E22.8381
G1 X187.1 Y81.34 E22.87412
G1 X189.676 Y81.549 E22.96008
G1 X192.17 Y81.68 E23.04314
G1 X194.723 Y81.742 E23.12808
G1 X197.235 Y81.732 E23.21163
G1 X199.76 Y81.65 E23.29566
G1 X203.596 Y81.392 E23.42353
G1 X205.025 Y81.267 E23.47124
G1 X206.209 Y81.191 E23.5107
G1 X207.212 Y81.159 E23.54408
G1 X209.087 Y81.136 E23.60645
G1 X211.028 Y81.058 E23.67106
G1 X211.511 Y81.046 E23.68713
G1 X212.431 Y81.063 E23.71773
G1 X213.347 Y81.16 E23.74837
G1 X214.25 Y81.336 E23.77897
G1 X215.135 Y81.59 E23.80959
G1 X215.995 Y81.92 E23.84023
G1 X216.823 Y82.323 E23.87086
G1 X217.613 Y82.796 E23.90148
G1 X218.358 Y83.336 E23.93208
G1 X219.054 Y83.939 E23.96271
G1 X219.695 Y84.599 E23.99331
G1 X220.213 Y85.229 E24.02044
G1 X220.718 Y85.905 E24.04851
G1 X221.132 Y86.492 E24.0724
G1 X221.63 Y87.266 E24.10301
G1 X222.058 Y88.081 E24.13363
G1 X222.414 Y88.93 E24.16425
G1 X222.695 Y89.807 E24.19488
G1 X222.899 Y90.705 E24.2255
G1 X223.038 Y91.774 E24.26136
G1 X223.132 Y92.971 E24.30129
G1 X223.167 Y93.328 E24.31322
G1 X223.219 Y94.125 E24.33979
G1 X223.238 Y95.045 E24.3704
G1 X223.216 Y95.549 E24.38717
G1 X223.058 Y97.821 E24.46292
G1 X222.949 Y100.338 E24.54672
G1 X222.91 Y102.863 E24.63071
G1 X222.943 Y105.396 E24.71497
G1 X223.048 Y107.94 E24.79965
G1 X223.224 Y110.454 E24.88347
G1 X223.468 Y112.946 E24.96675
G1 X223.789 Y115.477 E25.05161
G1 X224.177 Y117.966 E25.13539
G1 X224.637 Y120.455 E25.21958
G1 X225.232 Y123.219 E25.31362
G1 X225.522 Y124.478 E25.35659
G1 X225.69 Y125.384 E25.38723
G1 X225.789 Y126.562 E25.42655
G1 X225.802 Y127.18 E25.44711
G1 X225.801 Y141.885 E25.9362
G1 X225.794 Y142.382 E25.95273
G1 X225.794 Y145.083 E26.04257
G1 X225.802 Y145.782 E26.06582
G1 X225.801 Y169.506 E26.85488
G1 X225.791 Y170.203 E26.87807
G1 X225.742 Y171.083 E26.90738
G1 X225.67 Y171.819 E26.93198
G1 X225.456 Y174.349 E27.01643
G1 X225.315 Y176.831 E27.09911
G1 X225.232 Y180.782 E27.23055
G1 X225.231 Y194.211 E27.6772
G1 X225.224 Y194.708 E27.69373
G1 X225.224 Y197.408 E27.78354
G1 X225.232 Y198.107 E27.80679
G1 X225.231 Y221.795 E28.59465
G1 X225.221 Y222.522 E28.61884
G1 X225.168 Y223.441 E28.64945
G1 X225.036 Y224.352 E28.68007
G1 X224.825 Y225.248 E28.71068
G1 X224.538 Y226.123 E28.74131
G1 X224.175 Y226.969 E28.77193
G1 X223.741 Y227.781 E28.80255
G1 X223.237 Y228.552 E28.83319
G1 X222.669 Y229.276 E28.8638
G1 X222.04 Y229.948 E28.89441
G1 X221.355 Y230.563 E28.92503
G1 X220.619 Y231.116 E28.95565
G1 X219.838 Y231.604 E28.98628
G1 X219.018 Y232.022 E29.01689
G1 X218.164 Y232.367 E29.04753
G1 X217.284 Y232.636 E29.07813
G1 X216.383 Y232.829 E29.10878
G1 X215.47 Y232.942 E29.13938
G1 X214.92 Y232.972 E29.1577
G1 X214.302 Y232.985 E29.17826
G1 X85.202 Y232.984 E33.47214
G1 X84.504 Y232.975 E33.49536
G1 X83.585 Y232.923 E33.52597
G1 X82.674 Y232.792 E33.55658
G1 X81.778 Y232.582 E33.58719
G1 X80.903 Y232.295 E33.61782
G1 X80.056 Y231.933 E33.64846
G1 X79.244 Y231.499 E33.67908
G1 X78.473 Y230.997 E33.70968
G1 X77.748 Y230.429 E33.74031
G1 X77.075 Y229.8 E33.77095
G1 X76.46 Y229.116 E33.80155
G1 X75.906 Y228.381 E33.83216
G1 X75.418 Y227.6 E33.86279
G1 X74.999 Y226.78 E33.89342
G1 X74.653 Y225.927 E33.92403
G1 X74.383 Y225.047 E33.95465
G1 X74.19 Y224.146 E33.9853
G1 X74.076 Y223.233 E34.0159
G1 X74.045 Y222.662 E34.03492
G1 X74.032 Y222.043 E34.05551
G1 X74.033 Y179.715 E35.46334
G1 X74.044 Y179.005 E35.48696
G1 X74.094 Y178.127 E35.51621
G1 X74.162 Y177.442 E35.53911
G1 X74.38 Y174.87 E35.62496
G1 X74.519 Y172.404 E35.70711
G1 X74.602 Y168.449 E35.83868
G1 X74.603 Y127.391 E37.20428
G1 X74.614 Y126.68 E37.22793
G1 X74.668 Y125.761 E37.25855
G1 X74.802 Y124.85 E37.28917
G1 X75.082 Y123.724 E37.32776
G1 X75.25 Y123.177 E37.34679
G1 X75.962 Y120.732 E37.43149
G1 X76.605 Y118.256 E37.51658
G1 X77.168 Y115.819 E37.59977
G1 X77.669 Y113.321 E37.68451
G1 X78.097 Y110.824 E37.76877
G1 X78.452 Y108.338 E37.85229
G1 X78.737 Y105.832 E37.93618
G1 X78.953 Y103.299 E38.02073
G1 X79.096 Y100.784 E38.10452
G1 X79.169 Y98.249 E38.18887
G1 X79.164 Y95.311 E38.28658
G1 X79.142 Y94.059 E38.32823
G1 X79.165 Y93.139 E38.35884
G1 X79.269 Y92.224 E38.38947
G1 X79.451 Y91.321 E38.42011
G1 X79.636 Y90.667 E38.44271
G1 X79.859 Y89.964 E38.46724
G1 X80.175 Y89.099 E38.49787
G1 X80.565 Y88.265 E38.5285
G1 X81.026 Y87.468 E38.55912
G1 X81.555 Y86.714 E38.58975
G1 X82.147 Y86.009 E38.62037
G1 X82.797 Y85.358 E38.65097
G0 F6000 X83.144 Y85.583
G1 F1200 X83.822 Y85.025 E38.68018
G1 X84.2 Y84.74 E38.69592
G1 X84.668 Y84.403 E38.7151
G1 X85.428 Y83.915 E38.74514
G1 X86.228 Y83.496 E38.77518
G1 X87.061 Y83.149 E38.80519
G1 X87.923 Y82.878 E38.83525
G1 X89.181 Y82.625 E38.87793
G1 X90.209 Y82.486 E38.91243
G1 X91.151 Y82.372 E38.94399
G1 X92.538 Y82.183 E38.99055
G1 X93.117 Y82.121 E39.00991
G1 X94.185 Y82.038 E39.04554
G1 X94.9 Y81.992 E39.06937
G1 X95.949 Y81.891 E39.10442
G1 X96.189 Y81.878 E39.11242
G1 X97.711 Y81.749 E39.16322
G1 X99.455 Y81.643 E39.22133
G1 X100.267 Y81.626 E39.24835
G1 X102.97 Y81.677 E39.33826
G1 X104.059 Y81.67 E39.37449
G1 X104.783 Y81.678 E39.39857
G1 X105.368 Y81.703 E39.41804
G1 X106.553 Y81.788 E39.45756
G1 X107.366 Y81.856 E39.48469
G1 X109.891 Y81.996 E39.5688
G1 X112.391 Y82.064 E39.65198
G1 X114.671 Y82.046 E39.72782
G1 X114.94 Y82.056 E39.73677
G1 X118.518 Y82.013 E39.85579
G1 X121.085 Y81.904 E39.94124
G1 X123.575 Y81.728 E40.02427
G1 X125.458 Y81.542 E40.0872
G1 X125.587 Y81.535 E40.0915
G1 X126.799 Y81.407 E40.13203
G1 X128.123 Y81.302 E40.17621
G1 X128.891 Y81.253 E40.2018
G1 X131.425 Y81.022 E40.28643
G1 X135.102 Y80.56 E40.40969
G1 X135.585 Y80.49 E40.42592
G1 X136.483 Y80.4 E40.45594
G1 X137.441 Y80.392 E40.48781
G1 X140.028 Y80.491 E40.57391
G1 X142.569 Y80.518 E40.65843
G1 X145.102 Y80.474 E40.74269
G1 X147.643 Y80.357 E40.8273
G1 X150.226 Y80.165 E40.91344
G1 X152.956 Y79.902 E41.00466
G1 X154.533 Y79.775 E41.05729
G1 X156.222 Y79.668 E41.11357
G1 X157.79 Y79.592 E41.16579
G1 X159.44 Y79.535 E41.2207
G1 X161.033 Y79.516 E41.27369
G1 X162.827 Y79.528 E41.33336
G1 X164.006 Y79.56 E41.37259
G1 X165.549 Y79.635 E41.42397
G1 X167.275 Y79.742 E41.48148
G1 X168.208 Y79.824 E41.51263
G1 X169.791 Y80 E41.56561
G1 X171.305 Y80.202 E41.61641
G1 X172.197 Y80.342 E41.64644
G1 X174.734 Y80.704 E41.73168
G1 X177.238 Y80.989 E41.8155
G1 X179.808 Y81.209 E41.90129
G1 X182.432 Y81.367 E41.98872
G1 X183.664 Y81.467 E42.02983
G1 X185.984 Y81.635 E42.1072
