;FLAVOR:Marlin
;TIME:1742
;Filament used: 0.789635m
;Layer height: 0.2
;MINX:129
;MINY:127.15
;MINZ:0.2
;MAXX:171
;MAXY:172.85
;MAXZ:12.6
;Generated with Cura_SteamEngine 5.2.1
M140 S60
M105
M190 S60
M104 S215
M105
M109 S215
M82 ;absolute extrusion mode
; Ender 3 Max Custom Start G-code
G92 E0 ; Reset Extruder
G28 ; Home all axes
G1 Z2.0 F3000 ; Move Z Axis up little to prevent scratching of Heat Bed
G1 X0.1 Y20 Z0.3 F5000.0 ; Move to start position
G1 X0.1 Y200.0 Z0.3 F1500.0 E15 ; Draw the first line
G1 X0.4 Y200.0 Z0.3 F5000.0 ; Move to side a little
G1 X0.4 Y20 Z0.3 F1500.0 E30 ; Draw the second line
G92 E0 ; Reset Extruder
G1 Z2.0 F3000 ; Move Z Axis up little to prevent scratching of Heat Bed
G1 X5 Y20 Z0.3 F5000.0 ; Move over to prevent blob squish
G92 E0
G92 E0
G1 F1500 E-6.5
;LAYER_COUNT:63
;LAYER:0
M107
G0 F6000 X132.198 Y130.414 Z0.2
;TYPE:SKIRT
G1 F1500 E0
G1 F1200 X132.886 Y129.777 E0.03119
G1 X133.626 Y129.201 E0.06237
G1 X134.412 Y128.689 E0.09357
G1 X135.239 Y128.247 E0.12476
G1 X136.101 Y127.877 E0.15596
G1 X136.991 Y127.581 E0.18716
G1 X137.903 Y127.363 E0.21835
G1 X138.83 Y127.222 E0.24953
G1 X139.701 Y127.163 E0.27857
G1 X140.33 Y127.15 E0.29949
G1 X159.451 Y127.151 E0.93546
G1 X160.149 Y127.161 E0.95868
G1 X161.085 Y127.215 E0.98986
G1 X162.013 Y127.347 E1.02104
G1 X162.927 Y127.559 E1.05224
G1 X163.819 Y127.848 E1.08343
G1 X164.684 Y128.211 E1.11463
G1 X165.514 Y128.647 E1.14581
G1 X166.305 Y129.152 E1.17703
G1 X167.049 Y129.723 E1.20822
G1 X167.742 Y130.355 E1.23942
G1 X168.379 Y131.043 E1.2706
G1 X168.954 Y131.784 E1.3018
G1 X169.465 Y132.57 E1.33298
G1 X169.907 Y133.398 E1.3642
G1 X170.276 Y134.26 E1.39538
G1 X170.571 Y135.15 E1.42657
G1 X170.789 Y136.062 E1.45776
G1 X170.929 Y136.99 E1.48897
G1 X170.987 Y137.851 E1.51767
G1 X171 Y138.48 E1.5386
G1 X170.999 Y160.038 E2.25562
G1 X170.975 Y161.977 E2.32012
G1 X170.924 Y162.914 E2.35133
G1 X170.792 Y163.842 E2.3825
G1 X170.583 Y164.756 E2.41369
G1 X170.296 Y165.649 E2.44488
G1 X169.934 Y166.514 E2.47607
G1 X169.5 Y167.346 E2.50728
G1 X168.996 Y168.137 E2.53848
G1 X168.427 Y168.882 E2.56966
G1 X167.796 Y169.577 E2.60088
G1 X167.109 Y170.215 E2.63206
G1 X166.37 Y170.792 E2.66325
G1 X165.584 Y171.304 E2.69445
G1 X164.758 Y171.747 E2.72562
G1 X163.896 Y172.119 E2.75685
G1 X163.007 Y172.415 E2.78801
G1 X162.095 Y172.635 E2.81922
G1 X161.168 Y172.776 E2.8504
G1 X160.222 Y172.838 E2.88193
G1 X159.573 Y172.85 E2.90352
G1 X140.562 Y172.849 E3.53583
G1 X139.864 Y172.839 E3.55905
G1 X138.928 Y172.785 E3.59023
G1 X138 Y172.653 E3.62141
G1 X137.086 Y172.441 E3.65262
G1 X136.194 Y172.152 E3.6838
G1 X135.329 Y171.789 E3.715
G1 X134.499 Y171.353 E3.74619
G1 X133.708 Y170.848 E3.7774
G1 X132.964 Y170.277 E3.80859
G1 X132.271 Y169.645 E3.83979
G1 X131.634 Y168.957 E3.87097
G1 X131.059 Y168.216 E3.90217
G1 X130.548 Y167.43 E3.93335
G1 X130.106 Y166.602 E3.96457
G1 X129.737 Y165.74 E3.99575
G1 X129.442 Y164.85 E4.02694
G1 X129.224 Y163.938 E4.05813
G1 X129.084 Y163.01 E4.08934
G1 X129.025 Y162.104 E4.11954
G1 X129.006 Y161.253 E4.14785
G1 X129 Y160.416 E4.17569
G1 X129.001 Y138.675 E4.8988
G1 X129.01 Y138.01 E4.92092
G1 X129.063 Y137.074 E4.9521
G1 X129.195 Y136.145 E4.98331
G1 X129.406 Y135.231 E5.01451
G1 X129.694 Y134.339 E5.04568
G1 X130.057 Y133.474 E5.07688
G1 X130.492 Y132.643 E5.10808
G1 X130.996 Y131.853 E5.13925
G1 X131.566 Y131.108 E5.17045
G1 X132.198 Y130.414 E5.20167
G0 F6000 X132.589 Y130.589
G1 F1200 X133.274 Y129.973 E5.23231
G1 X134.01 Y129.42 E5.26293
G1 X134.791 Y128.932 E5.29356
G1 X135.611 Y128.514 E5.32417
G1 X136.465 Y128.169 E5.3548
G1 X137.345 Y127.899 E5.38542
G1 X138.245 Y127.707 E5.41603
G1 X139.159 Y127.593 E5.44666
G1 X139.712 Y127.563 E5.46508
G1 X140.33 Y127.55 E5.48564
G1 X159.293 Y127.55 E6.11635
G1 X160.143 Y127.561 E6.14463
G1 X161.062 Y127.614 E6.17524
G1 X161.973 Y127.747 E6.20587
G1 X162.869 Y127.958 E6.23648
G1 X163.743 Y128.246 E6.26709
G1 X164.59 Y128.609 E6.29774
G1 X165.401 Y129.044 E6.32835
G1 X166.171 Y129.548 E6.35896
G1 X166.895 Y130.117 E6.38958
G1 X167.567 Y130.747 E6.42022
G1 X168.182 Y131.432 E6.45084
G1 X168.735 Y132.168 E6.48146
G1 X169.222 Y132.949 E6.51207
G1 X169.639 Y133.77 E6.5427
G1 X169.984 Y134.624 E6.57333
G1 X170.253 Y135.504 E6.60394
G1 X170.445 Y136.405 E6.63458
G1 X170.558 Y137.318 E6.66518
G1 X170.587 Y137.862 E6.6833
G1 X170.6 Y138.48 E6.70385
G1 X170.599 Y160.033 E7.42071
G1 X170.575 Y161.972 E7.48521
G1 X170.524 Y162.891 E7.51582
G1 X170.393 Y163.803 E7.54646
G1 X170.183 Y164.699 E7.57707
G1 X169.897 Y165.574 E7.60769
G1 X169.536 Y166.421 E7.63831
G1 X169.102 Y167.233 E7.66894
G1 X168.6 Y168.005 E7.69957
G1 X168.032 Y168.73 E7.7302
G1 X167.404 Y169.403 E7.76081
G1 X166.72 Y170.019 E7.79143
G1 X165.985 Y170.573 E7.82204
G1 X165.205 Y171.062 E7.85266
G1 X164.385 Y171.481 E7.88329
G1 X163.532 Y171.827 E7.91391
G1 X162.652 Y172.098 E7.94453
G1 X161.752 Y172.291 E7.97515
G1 X160.838 Y172.406 E8.00578
G1 X160.213 Y172.438 E8.0266
G1 X159.573 Y172.45 E8.04789
G1 X140.568 Y172.449 E8.68
G1 X139.87 Y172.439 E8.70322
G1 X138.951 Y172.386 E8.73383
G1 X138.04 Y172.253 E8.76445
G1 X137.144 Y172.042 E8.79507
G1 X136.27 Y171.754 E8.82568
G1 X135.423 Y171.391 E8.85633
G1 X134.612 Y170.956 E8.88694
G1 X133.842 Y170.452 E8.91755
G1 X133.118 Y169.883 E8.94817
G1 X132.446 Y169.253 E8.97881
G1 X131.831 Y168.568 E9.00943
G1 X131.278 Y167.832 E9.04005
G1 X130.791 Y167.051 E9.07066
G1 X130.374 Y166.23 E9.10129
G1 X130.029 Y165.376 E9.13192
G1 X129.76 Y164.496 E9.16253
G1 X129.568 Y163.595 E9.19317
G1 X129.455 Y162.682 E9.22377
G1 X129.425 Y162.095 E9.24331
G1 X129.406 Y161.25 E9.27143
G1 X129.4 Y160.413 E9.29927
G1 X129.401 Y138.681 E10.02207
G1 X129.41 Y138.016 E10.04419
G1 X129.462 Y137.096 E10.07484
G1 X129.594 Y136.185 E10.10546
G1 X129.805 Y135.289 E10.13608
G1 X130.092 Y134.414 E10.1667
G1 X130.455 Y133.568 E10.19732
G1 X130.889 Y132.756 E10.22795
G1 X131.392 Y131.985 E10.25856
G1 X131.961 Y131.261 E10.28919
G1 X132.589 Y130.589 E10.31978
G0 F6000 X132.981 Y130.767
G1 F1200 X133.662 Y130.174 E10.34982
G1 X134.394 Y129.644 E10.37987
G1 X135.169 Y129.181 E10.4099
G1 X135.982 Y128.788 E10.43993
G1 X136.827 Y128.468 E10.46999
G1 X137.696 Y128.225 E10.5
G1 X138.584 Y128.059 E10.53005
G1 X139.723 Y127.963 E10.56806
G1 X140.33 Y127.95 E10.58826
G1 X159.293 Y127.95 E11.21897
G1 X160.137 Y127.961 E11.24704
G1 X161.039 Y128.014 E11.2771
G1 X161.932 Y128.146 E11.30712
G1 X162.81 Y128.357 E11.33715
G1 X163.666 Y128.645 E11.36719
G1 X164.493 Y129.007 E11.39722
G1 X165.285 Y129.442 E11.42727
G1 X166.036 Y129.944 E11.45732
G1 X166.739 Y130.511 E11.48736
G1 X167.389 Y131.138 E11.51739
G1 X167.981 Y131.82 E11.54743
G1 X168.511 Y132.551 E11.57746
G1 X168.973 Y133.327 E11.6075
G1 X169.366 Y134.14 E11.63753
G1 X169.684 Y134.985 E11.66756
G1 X169.927 Y135.855 E11.69761
G1 X170.092 Y136.743 E11.72765
G1 X170.187 Y137.873 E11.76536
G1 X170.2 Y138.48 E11.78556
G1 X170.199 Y160.028 E12.50225
G1 X170.175 Y161.967 E12.56674
G1 X170.124 Y162.869 E12.59679
G1 X169.993 Y163.762 E12.62681
G1 X169.784 Y164.641 E12.65686
G1 X169.498 Y165.498 E12.68691
G1 X169.137 Y166.326 E12.71695
G1 X168.705 Y167.118 E12.74696
G1 X168.204 Y167.87 E12.77701
G1 X167.638 Y168.574 E12.80706
G1 X167.013 Y169.225 E12.83707
G1 X166.332 Y169.819 E12.86713
G1 X165.601 Y170.35 E12.89718
G1 X164.827 Y170.814 E12.9272
G1 X164.014 Y171.208 E12.95724
G1 X163.17 Y171.528 E12.98727
G1 X162.3 Y171.773 E13.01733
G1 X161.413 Y171.939 E13.04734
G1 X160.204 Y172.038 E13.08769
G1 X159.573 Y172.05 E13.10868
G1 X140.574 Y172.049 E13.74059
G1 X139.876 Y172.039 E13.76381
G1 X138.974 Y171.986 E13.79386
G1 X138.081 Y171.854 E13.82388
G1 X137.203 Y171.643 E13.85392
G1 X136.347 Y171.355 E13.88395
G1 X135.52 Y170.993 E13.91398
G1 X134.728 Y170.558 E13.94403
G1 X133.977 Y170.056 E13.97408
G1 X133.274 Y169.489 E14.00412
G1 X132.624 Y168.862 E14.03416
G1 X132.032 Y168.18 E14.06419
G1 X131.502 Y167.449 E14.09422
G1 X131.04 Y166.673 E14.12426
G1 X130.647 Y165.86 E14.1543
G1 X130.329 Y165.015 E14.18433
G1 X130.086 Y164.145 E14.21437
G1 X129.921 Y163.257 E14.24441
G1 X129.825 Y162.085 E14.28352
G1 X129.806 Y161.247 E14.3114
G1 X129.8 Y160.41 E14.33924
G1 X129.801 Y138.686 E15.06178
G1 X129.81 Y138.021 E15.0839
G1 X129.862 Y137.119 E15.11395
G1 X129.994 Y136.226 E15.14398
G1 X130.204 Y135.348 E15.174
G1 X130.491 Y134.491 E15.20406
G1 X130.853 Y133.664 E15.23409
G1 X131.286 Y132.872 E15.26411
G1 X131.788 Y132.121 E15.29416
G1 X132.355 Y131.417 E15.32422
G1 X132.981 Y130.767 E15.35424
G1 F1500 E8.85424
;MESH:Tiny_Tester.stl
G0 F6000 X141.965 Y143.759
G0 X143.997 Y148.257
;TYPE:WALL-INNER
G1 F1500 E15.35424
G1 F1200 X143.321 Y148.162 E15.37694
G1 X142.695 Y147.908 E15.39941
G1 X142.155 Y147.491 E15.4221
G1 X141.743 Y146.957 E15.44454
G1 X141.483 Y146.329 E15.46714
G1 X141.394 Y145.65 E15.48992
G1 X141.482 Y144.974 E15.51259
G1 X141.743 Y144.343 E15.5353
G1 X142.155 Y143.809 E15.55774
G1 X142.693 Y143.393 E15.58036
G1 X143.321 Y143.133 E15.60296
G1 X144 Y143.044 E15.62574
G1 X144.676 Y143.132 E15.64841
G1 X145.308 Y143.393 E15.67116
G1 X145.852 Y143.818 E15.69412
G1 X146.264 Y144.361 E15.71679
G1 X146.516 Y144.97 E15.73871
G1 X146.606 Y145.649 E15.76149
G1 X146.516 Y146.33 E15.78434
G1 X146.288 Y146.882 E15.8042
G1 X146.25 Y146.958 E15.80703
G1 X145.852 Y147.483 E15.82894
G1 X145.289 Y147.914 E15.85252
G1 X144.677 Y148.168 E15.87456
G1 X143.997 Y148.257 E15.89737
G0 F6000 X143.846 Y148.337
G0 X142.781 Y147.831
G0 X142.895 Y147.557
;TYPE:WALL-OUTER
G1 F1200 X142.44 Y147.206 E15.91648
G1 X142.092 Y146.755 E15.93543
G1 X141.87 Y146.206 E15.95513
G1 X141.798 Y145.65 E15.97377
G1 X141.872 Y145.078 E15.99296
G1 X142.093 Y144.545 E16.01215
G1 X142.44 Y144.094 E16.03107
G1 X142.895 Y143.743 E16.05019
G1 X143.444 Y143.52 E16.0699
G1 X144 Y143.448 E16.08854
G1 X144.572 Y143.522 E16.10773
G1 X145.106 Y143.743 E16.12695
G1 X145.555 Y144.091 E16.14584
G1 X145.906 Y144.546 E16.16495
G1 X146.128 Y145.078 E16.18413
G1 X146.202 Y145.65 E16.20331
G1 X146.128 Y146.222 E16.22249
G1 X145.906 Y146.754 E16.24167
G1 X145.555 Y147.209 E16.26078
G1 X145.104 Y147.556 E16.27971
G1 X144.572 Y147.778 E16.29888
G1 X144.018 Y147.85 E16.31746
G1 X143.426 Y147.776 E16.3373
G1 X142.895 Y147.557 E16.35641
G1 F1500 E9.85641
G0 F6000 X142.781 Y147.831
G0 X143.368 Y148.01
G0 X144 Y148.093
G0 X145.758 Y147.787
G0 X147.649 Y147.13
G0 X149.997 Y148.257
;TYPE:WALL-INNER
G1 F1500 E16.35641
G1 F1200 X149.321 Y148.162 E16.37911
G1 X148.712 Y147.915 E16.40097
G1 X148.148 Y147.482 E16.42462
G1 X147.736 Y146.939 E16.44729
G1 X147.484 Y146.33 E16.46921
G1 X147.394 Y145.649 E16.49206
G1 X147.484 Y144.97 E16.51484
G1 X147.736 Y144.361 E16.53676
G1 X148.148 Y143.818 E16.55943
G1 X148.692 Y143.394 E16.58237
G1 X149.321 Y143.133 E16.60502
G1 X150 Y143.044 E16.6278
G1 X150.676 Y143.132 E16.65047
G1 X151.308 Y143.393 E16.67322
G1 X151.852 Y143.818 E16.69618
G1 X152.264 Y144.361 E16.71885
G1 X152.516 Y144.969 E16.74074
G1 X152.596 Y145.572 E16.76097
G1 X152.599 Y145.703 E16.76533
G1 X152.516 Y146.33 E16.78636
G1 X152.264 Y146.939 E16.80828
G1 X151.852 Y147.482 E16.83095
G1 X151.289 Y147.914 E16.85456
G1 X150.677 Y148.168 E16.8766
G1 X149.997 Y148.257 E16.89941
G0 F6000 X149.846 Y148.337
G0 X148.581 Y147.946
G0 X148.896 Y147.556
;TYPE:WALL-OUTER
G1 F1200 X148.445 Y147.209 E16.91833
G1 X148.094 Y146.754 E16.93744
G1 X147.872 Y146.222 E16.95662
G1 X147.8 Y145.668 E16.9752
G1 X147.872 Y145.078 E16.99497
G1 X148.094 Y144.546 E17.01414
G1 X148.445 Y144.091 E17.03325
G1 X148.895 Y143.743 E17.05217
G1 X149.444 Y143.52 E17.07188
G1 X150 Y143.448 E17.09053
G1 X150.572 Y143.522 E17.10971
G1 X151.106 Y143.743 E17.12894
G1 X151.555 Y144.091 E17.14783
G1 X151.906 Y144.546 E17.16694
G1 X152.128 Y145.078 E17.18612
G1 X152.2 Y145.668 E17.20589
G1 X152.128 Y146.222 E17.22447
G1 X151.906 Y146.754 E17.24364
G1 X151.555 Y147.209 E17.26275
G1 X151.104 Y147.556 E17.28168
G1 X150.572 Y147.778 E17.30085
G1 X150.018 Y147.85 E17.31943
G1 X149.426 Y147.776 E17.33928
G1 X148.896 Y147.556 E17.35836
G1 F1500 E10.85836
G0 F6000 X148.581 Y147.946
G0 X150 Y148.093
G0 X151.758 Y147.787
G0 X154.242 Y147.788
G0 X155.997 Y148.257
;TYPE:WALL-INNER
G1 F1500 E17.35836
G1 F1200 X155.321 Y148.162 E17.38107
G1 X154.712 Y147.915 E17.40293
G1 X154.148 Y147.482 E17.42658
G1 X153.736 Y146.939 E17.44925
G1 X153.484 Y146.33 E17.47117
G1 X153.394 Y145.649 E17.49401
G1 X153.484 Y144.97 E17.51679
G1 X153.736 Y144.361 E17.53872
G1 X154.148 Y143.818 E17.56139
G1 X154.692 Y143.394 E17.58433
G1 X155.321 Y143.133 E17.60698
G1 X156.002 Y143.044 E17.62982
G1 X156.691 Y143.138 E17.65295
G1 X157.307 Y143.393 E17.67512
G1 X157.845 Y143.809 E17.69774
G1 X158.257 Y144.343 E17.72017
G1 X158.518 Y144.974 E17.74289
G1 X158.596 Y145.572 E17.76294
G1 X158.6 Y145.65 E17.76554
G1 X158.596 Y145.728 E17.76814
G1 X158.517 Y146.329 E17.7883
G1 X158.257 Y146.957 E17.81091
G1 X157.845 Y147.491 E17.83334
G1 X157.307 Y147.907 E17.85596
G1 X156.676 Y148.168 E17.87867
G1 X155.997 Y148.257 E17.90145
G0 F6000 X155.846 Y148.337
G0 X154.581 Y147.946
G0 X154.896 Y147.556
;TYPE:WALL-OUTER
G1 F1200 X154.445 Y147.209 E17.92037
G1 X154.094 Y146.754 E17.93949
G1 X153.872 Y146.222 E17.95866
G1 X153.8 Y145.668 E17.97724
G1 X153.872 Y145.078 E17.99701
G1 X154.094 Y144.546 E18.01618
G1 X154.445 Y144.091 E18.0353
G1 X154.895 Y143.743 E18.05422
G1 X155.444 Y143.52 E18.07393
G1 X156 Y143.448 E18.09257
G1 X156.568 Y143.523 E18.11163
G1 X157.105 Y143.743 E18.13093
G1 X157.56 Y144.094 E18.15004
G1 X157.907 Y144.545 E18.16897
G1 X158.128 Y145.078 E18.18816
G1 X158.2 Y145.65 E18.20734
G1 X158.13 Y146.206 E18.22597
G1 X157.908 Y146.755 E18.24567
G1 X157.56 Y147.206 E18.26462
G1 X157.106 Y147.557 E18.2837
G1 X156.572 Y147.778 E18.30293
G1 X156.018 Y147.85 E18.32151
G1 X155.426 Y147.776 E18.34135
G1 X154.896 Y147.556 E18.36044
G1 F1500 E11.86044
G0 F6000 X154.581 Y147.946
G0 X155.274 Y148.336
G0 X155.545 Y150.422
G0 X156.001 Y155.756
;TYPE:WALL-INNER
G1 F1500 E18.36044
G1 F1200 X155.324 Y155.668 E18.38314
G1 X154.705 Y155.412 E18.40542
G1 X154.148 Y154.982 E18.42883
G1 X153.736 Y154.439 E18.4515
G1 X153.484 Y153.83 E18.47342
G1 X153.394 Y153.149 E18.49626
G1 X153.484 Y152.47 E18.51905
G1 X153.736 Y151.861 E18.54097
G1 X154.148 Y151.318 E18.56364
G1 X154.712 Y150.885 E18.58729
G1 X155.321 Y150.638 E18.60915
G1 X155.997 Y150.543 E18.63185
G1 X156.676 Y150.632 E18.65463
G1 X157.307 Y150.893 E18.67734
G1 X157.845 Y151.309 E18.69996
G1 X158.257 Y151.843 E18.72239
G1 X158.518 Y152.474 E18.7451
G1 X158.596 Y153.072 E18.76516
G1 X158.6 Y153.15 E18.76776
G1 X158.596 Y153.228 E18.77036
G1 X158.517 Y153.829 E18.79052
G1 X158.257 Y154.457 E18.81312
G1 X157.845 Y154.991 E18.83556
G1 X157.307 Y155.407 E18.85818
G1 X156.68 Y155.666 E18.88074
G1 X156.001 Y155.756 E18.90352
G0 F6000 X155.428 Y155.278
;TYPE:WALL-OUTER
G1 F1200 X154.891 Y155.053 E18.92289
G1 X154.445 Y154.709 E18.94162
G1 X154.094 Y154.254 E18.96073
G1 X153.872 Y153.722 E18.97991
G1 X153.8 Y153.168 E18.99849
G1 X153.872 Y152.578 E19.01826
G1 X154.094 Y152.046 E19.03743
G1 X154.445 Y151.591 E19.05654
G1 X154.896 Y151.244 E19.07547
G1 X155.426 Y151.024 E19.09455
G1 X155.982 Y150.95 E19.11321
G1 X156.571 Y151.022 E19.13295
G1 X157.106 Y151.243 E19.1522
G1 X157.56 Y151.594 E19.17129
G1 X157.907 Y152.045 E19.19021
G1 X158.128 Y152.578 E19.2094
G1 X158.2 Y153.15 E19.22858
G1 X158.13 Y153.706 E19.24722
G1 X157.908 Y154.255 E19.26691
G1 X157.56 Y154.706 E19.28586
G1 X157.106 Y155.057 E19.30495
G1 X156.572 Y155.278 E19.32417
G1 X156 Y155.352 E19.34335
