;FLAVOR:Marlin
;TIME:1883
;Filament used: 1.34374m
;Layer height: 0.2
;MINX:129
;MINY:129
;MINZ:0.2
;MAXX:171
;MAXY:171
;MAXZ:20
;Generated with Cura_SteamEngine 5.2.1
M140 S60
M105
M190 S60
M104 S200
M105
M109 S200
M82 ;absolute extrusion mode
; Ender 3 Max Custom Start G-code
G92 E0 ; Reset Extruder
G28 ; Home all axes
G1 Z2.0 F3000 ; Move Z Axis up little to prevent scratching of Heat Bed
G1 X0.1 Y20 Z0.3 F5000.0 ; Move to start position
G1 X0.1 Y200.0 Z0.3 F1500.0 E15 ; Draw the first line
G1 X0.4 Y200.0 Z0.3 F5000.0 ; Move to side a little
G1 X0.4 Y20 Z0.3 F1500.0 E30 ; Draw the second line
G92 E0 ; Reset Extruder
G1 Z2.0 F3000 ; Move Z Axis up little to prevent scratching of Heat Bed
G1 X5 Y20 Z0.3 F5000.0 ; Move over to prevent blob squish
G92 E0
G92 E0
G1 F1500 E-6.5
;LAYER_COUNT:100
;LAYER:0
M107
G0 F6000 X132.198 Y132.264 Z0.2
;TYPE:SKIRT
G1 F1500 E0
G1 F1200 X132.886 Y131.627 E0.03119
G1 X133.626 Y131.051 E0.06237
G1 X134.412 Y130.539 E0.09357
G1 X135.239 Y130.097 E0.12476
G1 X136.101 Y129.727 E0.15596
G1 X136.991 Y129.431 E0.18716
G1 X137.903 Y129.213 E0.21835
G1 X138.83 Y129.072 E0.24953
G1 X139.701 Y129.013 E0.27857
G1 X140.33 Y129 E0.29949
G1 X159.451 Y129.001 E0.93546
G1 X160.149 Y129.011 E0.95868
G1 X161.085 Y129.065 E0.98986
G1 X162.013 Y129.197 E1.02104
G1 X162.927 Y129.409 E1.05224
G1 X163.819 Y129.698 E1.08343
G1 X164.684 Y130.061 E1.11463
G1 X165.514 Y130.497 E1.14581
G1 X166.305 Y131.002 E1.17703
G1 X167.049 Y131.573 E1.20822
G1 X167.742 Y132.205 E1.23942
G1 X168.379 Y132.893 E1.2706
G1 X168.954 Y133.634 E1.3018
G1 X169.465 Y134.42 E1.33298
G1 X169.907 Y135.248 E1.3642
G1 X170.276 Y136.11 E1.39538
G1 X170.571 Y137 E1.42657
G1 X170.789 Y137.912 E1.45776
G1 X170.929 Y138.84 E1.48897
G1 X170.987 Y139.701 E1.51767
G1 X171 Y140.33 E1.5386
G1 X170.999 Y159.4 E2.17287
G1 X170.99 Y160.127 E2.19705
G1 X170.939 Y161.064 E2.22826
G1 X170.807 Y161.992 E2.25944
G1 X170.598 Y162.906 E2.29062
G1 X170.311 Y163.799 E2.32182
G1 X169.949 Y164.665 E2.35304
G1 X169.515 Y165.496 E2.38422
G1 X169.011 Y166.287 E2.41541
G1 X168.442 Y167.032 E2.44659
G1 X167.811 Y167.727 E2.47782
G1 X167.124 Y168.365 E2.509
G1 X166.385 Y168.942 E2.54018
G1 X165.599 Y169.454 E2.57138
G1 X164.773 Y169.897 E2.60256
G1 X163.911 Y170.269 E2.63378
G1 X163.022 Y170.565 E2.66495
G1 X162.11 Y170.785 E2.69615
G1 X161.183 Y170.926 E2.72734
G1 X160.299 Y170.987 E2.75681
G1 X159.67 Y171 E2.77773
G1 X140.565 Y170.999 E3.41317
G1 X139.867 Y170.99 E3.43639
G1 X138.931 Y170.938 E3.46757
G1 X138.002 Y170.806 E3.49878
G1 X137.088 Y170.596 E3.52997
G1 X136.195 Y170.309 E3.56116
G1 X135.33 Y169.946 E3.59237
G1 X134.499 Y169.512 E3.62355
G1 X133.708 Y169.008 E3.65474
G1 X132.963 Y168.438 E3.68594
G1 X132.269 Y167.807 E3.71714
G1 X131.632 Y167.12 E3.7483
G1 X131.055 Y166.38 E3.77951
G1 X130.543 Y165.594 E3.81071
G1 X130.1 Y164.767 E3.84191
G1 X129.729 Y163.906 E3.8731
G1 X129.433 Y163.016 E3.90429
G1 X129.214 Y162.104 E3.93549
G1 X129.073 Y161.177 E3.96667
G1 X129.013 Y160.288 E3.99631
G1 X129 Y159.658 E4.01727
G1 X129.001 Y140.525 E4.65363
G1 X129.01 Y139.86 E4.67575
G1 X129.063 Y138.924 E4.70694
G1 X129.195 Y137.995 E4.73814
G1 X129.406 Y137.081 E4.76934
G1 X129.694 Y136.189 E4.80052
G1 X130.057 Y135.324 E4.83172
G1 X130.492 Y134.493 E4.86292
G1 X130.996 Y133.703 E4.89408
G1 X131.566 Y132.958 E4.92528
G1 X132.198 Y132.264 E4.9565
G0 F6000 X132.589 Y132.439
G1 F1200 X133.274 Y131.823 E4.98714
G1 X134.01 Y131.27 E5.01776
G1 X134.791 Y130.782 E5.04839
G1 X135.611 Y130.364 E5.07901
G1 X136.465 Y130.019 E5.10964
G1 X137.345 Y129.749 E5.14026
G1 X138.245 Y129.557 E5.17086
G1 X139.159 Y129.443 E5.2015
G1 X139.712 Y129.413 E5.21992
G1 X140.33 Y129.4 E5.24048
G1 X159.293 Y129.4 E5.87119
G1 X160.143 Y129.411 E5.89946
G1 X161.062 Y129.464 E5.93008
G1 X161.973 Y129.597 E5.9607
G1 X162.869 Y129.808 E5.99132
G1 X163.743 Y130.096 E6.02192
G1 X164.59 Y130.459 E6.05257
G1 X165.401 Y130.894 E6.08318
G1 X166.171 Y131.398 E6.11379
G1 X166.895 Y131.967 E6.14442
G1 X167.567 Y132.597 E6.17506
G1 X168.182 Y133.282 E6.20567
G1 X168.735 Y134.018 E6.23629
G1 X169.222 Y134.799 E6.26691
G1 X169.639 Y135.62 E6.29753
G1 X169.984 Y136.474 E6.32817
G1 X170.253 Y137.354 E6.35877
G1 X170.445 Y138.255 E6.38941
G1 X170.558 Y139.168 E6.42001
G1 X170.587 Y139.712 E6.43813
G1 X170.6 Y140.33 E6.45869
G1 X170.599 Y159.395 E7.0928
G1 X170.59 Y160.122 E7.11698
G1 X170.539 Y161.041 E7.14759
G1 X170.408 Y161.953 E7.17823
G1 X170.198 Y162.849 E7.20884
G1 X169.912 Y163.724 E7.23946
G1 X169.551 Y164.571 E7.27008
G1 X169.117 Y165.383 E7.30071
G1 X168.615 Y166.155 E7.33134
G1 X168.047 Y166.88 E7.36197
G1 X167.419 Y167.553 E7.39258
G1 X166.735 Y168.169 E7.4232
G1 X166 Y168.723 E7.45381
G1 X165.22 Y169.212 E7.48443
G1 X164.4 Y169.631 E7.51506
G1 X163.547 Y169.977 E7.54568
G1 X162.667 Y170.248 E7.5763
G1 X161.767 Y170.441 E7.60692
G1 X160.853 Y170.556 E7.63756
G1 X160.288 Y170.587 E7.65638
G1 X159.67 Y170.6 E7.67693
G1 X140.57 Y170.599 E8.3122
G1 X139.872 Y170.59 E8.33542
G1 X138.953 Y170.538 E8.36604
G1 X138.042 Y170.407 E8.39665
G1 X137.146 Y170.197 E8.42726
G1 X136.271 Y169.91 E8.45788
G1 X135.424 Y169.548 E8.48852
G1 X134.612 Y169.114 E8.51914
G1 X133.841 Y168.612 E8.54974
G1 X133.116 Y168.044 E8.58038
G1 X132.443 Y167.415 E8.61101
G1 X131.828 Y166.731 E8.64161
G1 X131.274 Y165.996 E8.67222
G1 X130.786 Y165.215 E8.70285
G1 X130.367 Y164.395 E8.73348
G1 X130.021 Y163.542 E8.76409
G1 X129.751 Y162.662 E8.79471
G1 X129.558 Y161.761 E8.82536
G1 X129.444 Y160.848 E8.85596
G1 X129.413 Y160.277 E8.87498
G1 X129.4 Y159.658 E8.89557
G1 X129.401 Y140.531 E9.53174
G1 X129.41 Y139.866 E9.55386
G1 X129.462 Y138.946 E9.58451
G1 X129.594 Y138.035 E9.61512
G1 X129.805 Y137.139 E9.64574
G1 X130.092 Y136.264 E9.67637
G1 X130.455 Y135.418 E9.70699
G1 X130.889 Y134.606 E9.73761
G1 X131.392 Y133.835 E9.76823
G1 X131.961 Y133.111 E9.79885
G1 X132.589 Y132.439 E9.82945
G0 F6000 X132.981 Y132.617
G1 F1200 X133.662 Y132.024 E9.85948
G1 X134.394 Y131.494 E9.88954
G1 X135.169 Y131.031 E9.91956
G1 X135.982 Y130.638 E9.9496
G1 X136.827 Y130.318 E9.97965
G1 X137.696 Y130.075 E10.00966
G1 X138.584 Y129.909 E10.03971
G1 X139.723 Y129.813 E10.07773
G1 X140.33 Y129.8 E10.09792
G1 X159.293 Y129.8 E10.72863
G1 X160.137 Y129.811 E10.75671
G1 X161.039 Y129.864 E10.78676
G1 X161.932 Y129.996 E10.81678
G1 X162.81 Y130.207 E10.84682
G1 X163.666 Y130.495 E10.87686
G1 X164.493 Y130.857 E10.90688
G1 X165.285 Y131.292 E10.93694
G1 X166.036 Y131.794 E10.96698
G1 X166.739 Y132.361 E10.99702
G1 X167.389 Y132.988 E11.02706
G1 X167.981 Y133.67 E11.05709
G1 X168.511 Y134.401 E11.08713
G1 X168.973 Y135.177 E11.11716
G1 X169.366 Y135.99 E11.1472
G1 X169.684 Y136.835 E11.17723
G1 X169.927 Y137.705 E11.20727
G1 X170.092 Y138.593 E11.23731
G1 X170.187 Y139.723 E11.27503
G1 X170.2 Y140.33 E11.29522
G1 X170.199 Y159.39 E11.92916
G1 X170.19 Y160.117 E11.95334
G1 X170.139 Y161.019 E11.98339
G1 X170.008 Y161.913 E12.01344
G1 X169.799 Y162.791 E12.04346
G1 X169.513 Y163.648 E12.07351
G1 X169.152 Y164.476 E12.10355
G1 X168.72 Y165.268 E12.13356
G1 X168.219 Y166.02 E12.16361
G1 X167.653 Y166.724 E12.19366
G1 X167.028 Y167.375 E12.22367
G1 X166.347 Y167.969 E12.25373
G1 X165.616 Y168.5 E12.28378
G1 X164.842 Y168.964 E12.31379
G1 X164.029 Y169.358 E12.34384
G1 X163.185 Y169.678 E12.37386
G1 X162.315 Y169.923 E12.40393
G1 X161.428 Y170.089 E12.43394
G1 X160.277 Y170.187 E12.47236
G1 X159.67 Y170.2 E12.49255
G1 X140.575 Y170.199 E13.12766
G1 X139.877 Y170.19 E13.15087
G1 X138.976 Y170.139 E13.18089
G1 X138.082 Y170.007 E13.21095
G1 X137.204 Y169.798 E13.24096
G1 X136.347 Y169.511 E13.27102
G1 X135.52 Y169.15 E13.30104
G1 X134.727 Y168.717 E13.33109
G1 X133.976 Y168.216 E13.36111
G1 X133.272 Y167.65 E13.39116
G1 X132.621 Y167.024 E13.4212
G1 X132.028 Y166.343 E13.45123
G1 X131.498 Y165.612 E13.48126
G1 X131.034 Y164.837 E13.51131
G1 X130.64 Y164.024 E13.54135
G1 X130.32 Y163.18 E13.57138
G1 X130.076 Y162.31 E13.60143
G1 X129.91 Y161.422 E13.63148
G1 X129.813 Y160.267 E13.67003
G1 X129.8 Y159.658 E13.69029
G1 X129.801 Y140.536 E14.32629
G1 X129.81 Y139.871 E14.34841
G1 X129.862 Y138.969 E14.37846
G1 X129.994 Y138.076 E14.40848
G1 X130.204 Y137.198 E14.43851
G1 X130.491 Y136.341 E14.46857
G1 X130.853 Y135.514 E14.49859
G1 X131.286 Y134.722 E14.52861
G1 X131.788 Y133.971 E14.55866
G1 X132.355 Y133.267 E14.58872
G1 X132.981 Y132.617 E14.61874
G1 F1500 E8.11874
;MESH:xyzCalibration_cube.stl
G0 F6000 X140.414 Y139.335
G0 X140.6 Y159.4
;TYPE:WALL-INNER
G1 F1500 E14.61874
G1 F1200 X159.4 Y159.4 E15.24403
G1 X159.4 Y140.6 E15.86932
G1 X140.6 Y140.6 E16.49461
G1 X140.6 Y159.4 E17.1199
G0 F6000 X140.2 Y159.8
;TYPE:WALL-OUTER
G1 F1200 X159.8 Y159.8 E17.7718
G1 X159.8 Y140.2 E18.4237
G1 X140.2 Y140.2 E19.0756
G1 X140.2 Y159.8 E19.7275
G0 F6000 X140.47 Y159.53
G0 X140.7 Y159.04
G0 X140.96 Y159.04
;TYPE:SKIN
G1 F1200 X159.04 Y159.04 E20.32884
G1 X159.04 Y150 E20.62951
G1 X159.04 Y140.96 E20.93018
G1 X140.96 Y140.96 E21.53153
G1 X140.96 Y159.04 E22.13287
G0 F6000 X141.303 Y158.839
G1 F1200 X141.159 Y158.695 E22.13964
G0 F6000 X141.159 Y158.13
G1 F1200 X141.868 Y158.839 E22.17299
G0 F6000 X142.434 Y158.839
G1 F1200 X141.159 Y157.564 E22.23296
G0 F6000 X141.159 Y156.998
G1 F1200 X143 Y158.839 E22.31956
G0 F6000 X143.566 Y158.839
G1 F1200 X141.159 Y156.433 E22.43275
G0 F6000 X141.159 Y155.867
G1 F1200 X144.131 Y158.839 E22.57255
G0 F6000 X144.697 Y158.839
G1 F1200 X141.159 Y155.301 E22.73896
G0 F6000 X141.159 Y154.736
G1 F1200 X145.263 Y158.839 E22.93198
G0 F6000 X145.828 Y158.839
G1 F1200 X141.159 Y154.17 E23.15159
G0 F6000 X141.159 Y153.604
G1 F1200 X146.394 Y158.839 E23.39783
G0 F6000 X146.96 Y158.839
G1 F1200 X141.159 Y153.039 E23.67067
G0 F6000 X141.159 Y152.473
G1 F1200 X147.525 Y158.839 E23.97011
G0 F6000 X148.091 Y158.839
G1 F1200 X141.159 Y151.907 E24.29617
G0 F6000 X141.159 Y151.342
G1 F1200 X148.657 Y158.839 E24.64883
G0 F6000 X149.222 Y158.839
G1 F1200 X141.159 Y150.776 E25.02809
G0 F6000 X141.159 Y150.21
G1 F1200 X149.788 Y158.839 E25.43397
G0 F6000 X150.354 Y158.839
G1 F1200 X141.159 Y149.645 E25.86645
G0 F6000 X141.159 Y149.079
G1 F1200 X150.919 Y158.839 E26.32553
G0 F6000 X151.485 Y158.839
G1 F1200 X141.159 Y148.513 E26.81123
G0 F6000 X141.159 Y147.947
G1 F1200 X152.051 Y158.839 E27.32356
G0 F6000 X152.616 Y158.839
G1 F1200 X141.159 Y147.382 E27.86246
G0 F6000 X141.159 Y146.816
G1 F1200 X153.182 Y158.839 E28.42799
G0 F6000 X153.748 Y158.839
G1 F1200 X141.159 Y146.25 E29.02013
G0 F6000 X141.159 Y145.685
G1 F1200 X154.314 Y158.839 E29.63888
G0 F6000 X154.879 Y158.839
G1 F1200 X141.159 Y145.119 E30.28423
G0 F6000 X141.159 Y144.553
G1 F1200 X155.445 Y158.839 E30.9562
G0 F6000 X156.011 Y158.839
G1 F1200 X141.159 Y143.988 E31.65477
G0 F6000 X141.159 Y143.422
G1 F1200 X156.576 Y158.839 E32.37994
G0 F6000 X157.142 Y158.839
G1 F1200 X141.159 Y142.856 E33.13173
G0 F6000 X141.159 Y142.291
G1 F1200 X157.708 Y158.839 E33.91012
G0 F6000 X158.273 Y158.839
G1 F1200 X141.159 Y141.725 E34.71511
G0 F6000 X141.159 Y141.159
G1 F1200 X158.839 Y158.839 E35.54672
G0 F6000 X158.839 Y158.273
G1 F1200 X141.726 Y141.16 E36.35166
G0 F6000 X142.291 Y141.16
G1 F1200 X158.839 Y157.708 E37.13003
G0 F6000 X158.839 Y157.142
G1 F1200 X142.857 Y141.16 E37.88178
G0 F6000 X143.423 Y141.16
G1 F1200 X158.839 Y156.576 E38.6069
G0 F6000 X158.839 Y156.011
G1 F1200 X143.988 Y141.16 E39.30544
G0 F6000 X144.554 Y141.16
G1 F1200 X158.839 Y155.445 E39.97736
G0 F6000 X158.839 Y154.879
G1 F1200 X145.12 Y141.16 E40.62266
G0 F6000 X145.685 Y141.16
G1 F1200 X158.839 Y154.314 E41.24139
G0 F6000 X158.839 Y153.748
G1 F1200 X146.251 Y141.16 E41.83349
G0 F6000 X146.817 Y141.16
G1 F1200 X158.839 Y153.182 E42.39897
G0 F6000 X158.839 Y152.616
G1 F1200 X147.382 Y141.16 E42.93785
G0 F6000 X147.948 Y141.16
G1 F1200 X158.839 Y152.051 E43.45013
G0 F6000 X158.839 Y151.485
G1 F1200 X148.514 Y141.16 E43.93578
G0 F6000 X149.08 Y141.16
G1 F1200 X158.839 Y150.919 E44.39481
G0 F6000 X158.839 Y150.354
G1 F1200 X149.645 Y141.16 E44.82727
G0 F6000 X150.211 Y141.16
G1 F1200 X158.839 Y149.788 E45.23311
G0 F6000 X158.839 Y149.222
G1 F1200 X150.777 Y141.16 E45.61232
G0 F6000 X151.342 Y141.16
G1 F1200 X158.839 Y148.657 E45.96495
G0 F6000 X158.839 Y148.091
G1 F1200 X151.908 Y141.16 E46.29097
G0 F6000 X152.474 Y141.16
G1 F1200 X158.839 Y147.525 E46.59036
G0 F6000 X158.839 Y146.96
G1 F1200 X153.039 Y141.16 E46.86317
G0 F6000 X153.605 Y141.16
G1 F1200 X158.839 Y146.394 E47.10936
G0 F6000 X158.839 Y145.828
G1 F1200 X154.171 Y141.16 E47.32893
G0 F6000 X154.736 Y141.16
G1 F1200 X158.839 Y145.263 E47.52192
G0 F6000 X158.839 Y144.697
G1 F1200 X155.302 Y141.16 E47.68829
G0 F6000 X155.868 Y141.16
G1 F1200 X158.839 Y144.131 E47.82804
G0 F6000 X158.839 Y143.566
G1 F1200 X156.433 Y141.16 E47.94121
G0 F6000 X156.999 Y141.16
G1 F1200 X158.839 Y143 E48.02776
G0 F6000 X158.839 Y142.434
G1 F1200 X157.565 Y141.16 E48.08768
G0 F6000 X158.13 Y141.16
G1 F1200 X158.839 Y141.868 E48.12101
G0 F6000 X158.839 Y141.303
G1 F1200 X158.696 Y141.16 E48.12774
G1 F1500 E41.62774
;MESH:NONMESH
G0 F300 X158.696 Y141.16 Z0.4
G0 F6000 X158.696 Y140.7
G0 X140.772 Y140.772
G0 X140.6 Y159.4
;TIME_ELAPSED:87.969830
;LAYER:1
M106 S85
;TYPE:WALL-INNER
;MESH:xyzCalibration_cube.stl
G1 F1500 E48.12774
G1 F1350 X159.4 Y159.4 E48.75303
G1 X159.4 Y140.6 E49.37832
G1 X140.6 Y140.6 E50.00361
G1 X140.6 Y159.4 E50.6289
G0 F7500 X140.2 Y159.8
;TYPE:WALL-OUTER
G1 F1350 X159.8 Y159.8 E51.2808
G1 X159.8 Y140.2 E51.9327
G1 X140.2 Y140.2 E52.58459
G1 X140.2 Y159.8 E53.23649
G0 F7500 X140.47 Y159.53
G0 X140.7 Y159.04
G0 X140.96 Y159.04
;TYPE:SKIN
G1 F1350 X159.04 Y159.04 E53.83784
G1 X159.04 Y150 E54.13851
G1 X159.04 Y140.96 E54.43918
G1 X140.96 Y140.96 E55.04052
G1 X140.96 Y159.04 E55.64187
G0 F7500 X140.7 Y159.04
G0 X140.772 Y140.772
G0 X141.682 Y140.7
G0 X141.682 Y141.159
G1 F1350 X141.16 Y141.682 E55.66644
G0 F7500 X141.16 Y142.247
G1 F1350 X142.248 Y141.159 E55.71762
G0 F7500 X142.814 Y141.159
G1 F1350 X141.16 Y142.813 E55.79542
G0 F7500 X141.16 Y143.379
G1 F1350 X143.38 Y141.159 E55.89984
G0 F7500 X143.945 Y141.159
G1 F1350 X141.16 Y143.945 E56.03086
G0 F7500 X141.16 Y144.51
G1 F1350 X144.511 Y141.159 E56.18848
G0 F7500 X145.077 Y141.159
G1 F1350 X141.16 Y145.076 E56.37273
G0 F7500 X141.16 Y145.642
G1 F1350 X145.642 Y141.159 E56.58357
G0 F7500 X146.208 Y141.159
G1 F1350 X141.16 Y146.207 E56.82101
G0 F7500 X141.16 Y146.773
G1 F1350 X146.774 Y141.159 E57.08508
G0 F7500 X147.339 Y141.159
G1 F1350 X141.16 Y147.339 E57.37574
G0 F7500 X141.16 Y147.904
G1 F1350 X147.905 Y141.159 E57.69301
G0 F7500 X148.471 Y141.159
G1 F1350 X141.16 Y148.47 E58.03689
G0 F7500 X141.16 Y149.036
G1 F1350 X149.036 Y141.159 E58.40738
G0 F7500 X149.602 Y141.159
G1 F1350 X141.16 Y149.601 E58.80447
G0 F7500 X141.16 Y150.167
G1 F1350 X150.168 Y141.159 E59.22817
G0 F7500 X150.733 Y141.159
G1 F1350 X141.16 Y150.733 E59.67848
G0 F7500 X141.16 Y151.298
G1 F1350 X151.299 Y141.159 E60.15539
G0 F7500 X151.865 Y141.159
G1 F1350 X141.16 Y151.864 E60.65892
G0 F7500 X141.16 Y152.43
G1 F1350 X152.431 Y141.159 E61.18907
G0 F7500 X152.996 Y141.159
G1 F1350 X141.16 Y152.995 E61.7458
G0 F7500 X141.16 Y153.561
G1 F1350 X153.562 Y141.159 E62.32915
G0 F7500 X154.128 Y141.159
G1 F1350 X141.16 Y154.127 E62.93913
G0 F7500 X141.16 Y154.693
G1 F1350 X154.693 Y141.159 E63.5757
G0 F7500 X155.259 Y141.159
G1 F1350 X141.16 Y155.258 E64.23888
G0 F7500 X141.16 Y155.824
G1 F1350 X155.825 Y141.159 E64.92867
G0 F7500 X156.39 Y141.159
G1 F1350 X141.16 Y156.39 E65.64507
G0 F7500 X141.16 Y156.955
G1 F1350 X156.956 Y141.159 E66.38807
