;FLAVOR:Marlin
;TIME:1927
;Filament used: 0.911035m
;Layer height: 0.2
;MINX:128.324
;MINY:126.349
;MINZ:0.2
;MAXX:171.676
;MAXY:173.65
;MAXZ:13.4
;Generated with Cura_SteamEngine 5.2.1
M140 S60
M105
M190 S60
M104 S200
M105
M109 S200
M82 ;absolute extrusion mode
; Ender 3 Max Custom Start G-code
G92 E0 ; Reset Extruder
G28 ; Home all axes
G1 Z2.0 F3000 ; Move Z Axis up little to prevent scratching of Heat Bed
G1 X0.1 Y20 Z0.3 F5000.0 ; Move to start position
G1 X0.1 Y200.0 Z0.3 F1500.0 E15 ; Draw the first line
G1 X0.4 Y200.0 Z0.3 F5000.0 ; Move to side a little
G1 X0.4 Y20 Z0.3 F1500.0 E30 ; Draw the second line
G92 E0 ; Reset Extruder
G1 Z2.0 F3000 ; Move Z Axis up little to prevent scratching of Heat Bed
G1 X5 Y20 Z0.3 F5000.0 ; Move over to prevent blob squish
G92 E0
G92 E0
G1 F1500 E-6.5
;LAYER_COUNT:67
;LAYER:0
M107
G0 F6000 X131.522 Y129.613 Z0.2
;TYPE:SKIRT
G1 F1500 E0
G1 F1200 X132.21 Y128.976 E0.03119
G1 X132.95 Y128.4 E0.06237
G1 X133.736 Y127.888 E0.09357
G1 X134.563 Y127.446 E0.12476
G1 X135.425 Y127.076 E0.15596
G1 X136.315 Y126.78 E0.18716
G1 X137.227 Y126.562 E0.21835
G1 X138.154 Y126.421 E0.24953
G1 X139.025 Y126.362 E0.27857
G1 X139.654 Y126.349 E0.29949
G1 X160.127 Y126.35 E0.98043
G1 X160.825 Y126.36 E1.00365
G1 X161.761 Y126.414 E1.03483
G1 X162.689 Y126.546 E1.06601
G1 X163.603 Y126.758 E1.09721
G1 X164.495 Y127.047 E1.1284
G1 X165.36 Y127.41 E1.1596
G1 X166.19 Y127.846 E1.19078
G1 X166.981 Y128.351 E1.222
G1 X167.725 Y128.922 E1.25319
G1 X168.418 Y129.554 E1.28438
G1 X169.055 Y130.242 E1.31557
G1 X169.63 Y130.983 E1.34676
G1 X170.141 Y131.769 E1.37795
G1 X170.583 Y132.597 E1.40916
G1 X170.952 Y133.459 E1.44035
G1 X171.247 Y134.349 E1.47154
G1 X171.465 Y135.261 E1.50272
G1 X171.605 Y136.189 E1.53394
G1 X171.663 Y137.05 E1.56264
G1 X171.676 Y137.679 E1.58357
G1 X171.675 Y160.74 E2.35058
G1 X171.652 Y162.766 E2.41797
G1 X171.602 Y163.702 E2.44914
G1 X171.471 Y164.631 E2.48035
G1 X171.263 Y165.545 E2.51152
G1 X170.977 Y166.439 E2.54274
G1 X170.616 Y167.304 E2.57392
G1 X170.182 Y168.136 E2.60513
G1 X169.679 Y168.928 E2.63633
G1 X169.111 Y169.674 E2.66752
G1 X168.481 Y170.369 E2.69872
G1 X167.795 Y171.007 E2.72988
G1 X167.056 Y171.585 E2.76108
G1 X166.271 Y172.098 E2.79227
G1 X165.445 Y172.542 E2.82346
G1 X164.584 Y172.915 E2.85467
G1 X163.694 Y173.212 E2.88588
G1 X162.783 Y173.433 E2.91706
G1 X161.856 Y173.575 E2.94825
G1 X160.966 Y173.637 E2.97792
G1 X160.338 Y173.65 E2.99881
G1 X139.902 Y173.65 E3.67852
G1 X139.204 Y173.641 E3.70174
G1 X138.268 Y173.589 E3.73292
G1 X137.339 Y173.457 E3.76412
G1 X136.425 Y173.247 E3.79532
G1 X135.532 Y172.96 E3.82651
G1 X134.667 Y172.597 E3.85771
G1 X133.836 Y172.163 E3.8889
G1 X133.045 Y171.659 E3.92009
G1 X132.3 Y171.089 E3.95129
G1 X131.606 Y170.458 E3.98249
G1 X130.969 Y169.771 E4.01365
G1 X130.392 Y169.031 E4.04486
G1 X129.88 Y168.245 E4.07606
G1 X129.437 Y167.418 E4.10726
G1 X129.066 Y166.557 E4.13844
G1 X128.77 Y165.667 E4.16964
G1 X128.551 Y164.755 E4.20084
G1 X128.41 Y163.828 E4.23202
G1 X128.349 Y162.897 E4.26305
G1 X128.331 Y162.076 E4.29037
G1 X128.324 Y161.139 E4.32153
G1 X128.325 Y137.874 E5.09533
G1 X128.334 Y137.209 E5.11745
G1 X128.387 Y136.273 E5.14863
G1 X128.519 Y135.344 E5.17984
G1 X128.73 Y134.43 E5.21104
G1 X129.018 Y133.538 E5.24222
G1 X129.381 Y132.673 E5.27342
G1 X129.816 Y131.842 E5.30461
G1 X130.32 Y131.052 E5.33578
G1 X130.89 Y130.307 E5.36698
G1 X131.522 Y129.613 E5.3982
G0 F6000 X131.913 Y129.788
G1 F1200 X132.598 Y129.172 E5.42884
G1 X133.334 Y128.619 E5.45946
G1 X134.115 Y128.131 E5.49009
G1 X134.935 Y127.713 E5.5207
G1 X135.789 Y127.368 E5.55134
G1 X136.669 Y127.098 E5.58195
G1 X137.569 Y126.906 E5.61256
G1 X138.483 Y126.792 E5.6432
G1 X139.036 Y126.762 E5.66161
G1 X139.654 Y126.749 E5.68217
G1 X159.969 Y126.749 E6.35785
G1 X160.819 Y126.76 E6.38613
G1 X161.738 Y126.813 E6.41674
G1 X162.649 Y126.946 E6.44737
G1 X163.545 Y127.157 E6.47798
G1 X164.419 Y127.445 E6.50859
G1 X165.266 Y127.808 E6.53924
G1 X166.077 Y128.243 E6.56985
G1 X166.847 Y128.747 E6.60046
G1 X167.571 Y129.316 E6.63108
G1 X168.243 Y129.946 E6.66172
G1 X168.858 Y130.631 E6.69234
G1 X169.411 Y131.367 E6.72296
G1 X169.898 Y132.148 E6.75357
G1 X170.315 Y132.969 E6.7842
G1 X170.66 Y133.823 E6.81483
G1 X170.929 Y134.703 E6.84544
G1 X171.121 Y135.604 E6.87608
G1 X171.234 Y136.517 E6.90668
G1 X171.263 Y137.061 E6.92479
G1 X171.276 Y137.679 E6.94535
G1 X171.275 Y160.735 E7.7122
G1 X171.252 Y162.761 E7.77959
G1 X171.202 Y163.681 E7.81023
G1 X171.072 Y164.592 E7.84084
G1 X170.863 Y165.489 E7.87147
G1 X170.578 Y166.364 E7.90208
G1 X170.217 Y167.211 E7.9327
G1 X169.785 Y168.024 E7.96333
G1 X169.283 Y168.796 E7.99395
G1 X168.716 Y169.521 E8.02457
G1 X168.089 Y170.195 E8.05518
G1 X167.405 Y170.812 E8.08582
G1 X166.671 Y171.367 E8.11643
G1 X165.891 Y171.856 E8.14705
G1 X165.072 Y172.276 E8.17766
G1 X164.219 Y172.623 E8.20829
G1 X163.339 Y172.895 E8.23892
G1 X162.439 Y173.089 E8.26955
G1 X161.526 Y173.205 E8.30016
G1 X160.955 Y173.237 E8.31918
G1 X160.338 Y173.25 E8.3397
G1 X139.907 Y173.25 E9.01924
G1 X139.209 Y173.241 E9.04246
G1 X138.29 Y173.189 E9.07307
G1 X137.379 Y173.058 E9.10369
G1 X136.483 Y172.848 E9.13429
G1 X135.608 Y172.561 E9.16492
G1 X134.761 Y172.199 E9.19556
G1 X133.949 Y171.765 E9.22618
G1 X133.178 Y171.263 E9.25678
G1 X132.453 Y170.695 E9.28741
G1 X131.78 Y170.066 E9.31805
G1 X131.165 Y169.382 E9.34865
G1 X130.611 Y168.647 E9.37926
G1 X130.123 Y167.866 E9.40989
G1 X129.704 Y167.046 E9.44052
G1 X129.358 Y166.193 E9.47113
G1 X129.088 Y165.313 E9.50175
G1 X128.895 Y164.412 E9.5324
G1 X128.781 Y163.499 E9.563
G1 X128.749 Y162.887 E9.58338
G1 X128.731 Y162.073 E9.61046
G1 X128.724 Y161.136 E9.64163
G1 X128.725 Y137.88 E10.41513
G1 X128.734 Y137.215 E10.43725
G1 X128.786 Y136.295 E10.46789
G1 X128.918 Y135.384 E10.49851
G1 X129.129 Y134.488 E10.52913
G1 X129.416 Y133.613 E10.55975
G1 X129.779 Y132.767 E10.59037
G1 X130.213 Y131.955 E10.621
G1 X130.716 Y131.184 E10.65161
G1 X131.285 Y130.46 E10.68224
G1 X131.913 Y129.788 E10.71283
G0 F6000 X132.305 Y129.966
G1 F1200 X132.986 Y129.373 E10.74287
G1 X133.718 Y128.843 E10.77292
G1 X134.493 Y128.38 E10.80295
G1 X135.306 Y127.987 E10.83298
G1 X136.151 Y127.667 E10.86304
G1 X137.02 Y127.424 E10.89305
G1 X137.908 Y127.258 E10.9231
G1 X139.047 Y127.162 E10.96111
G1 X139.654 Y127.149 E10.98131
G1 X159.969 Y127.149 E11.65699
G1 X160.813 Y127.16 E11.68506
G1 X161.715 Y127.213 E11.71511
G1 X162.608 Y127.345 E11.74514
G1 X163.486 Y127.556 E11.77517
G1 X164.342 Y127.844 E11.80521
G1 X165.169 Y128.206 E11.83524
G1 X165.961 Y128.641 E11.86529
G1 X166.712 Y129.143 E11.89533
G1 X167.415 Y129.71 E11.92537
G1 X168.065 Y130.337 E11.95541
G1 X168.657 Y131.019 E11.98545
G1 X169.187 Y131.75 E12.01548
G1 X169.649 Y132.526 E12.04552
G1 X170.042 Y133.339 E12.07555
G1 X170.36 Y134.184 E12.10558
G1 X170.603 Y135.054 E12.13562
G1 X170.768 Y135.942 E12.16567
G1 X170.863 Y137.072 E12.20338
G1 X170.876 Y137.679 E12.22358
G1 X170.875 Y160.731 E12.99029
G1 X170.852 Y162.757 E13.05768
G1 X170.802 Y163.658 E13.08769
G1 X170.672 Y164.552 E13.11774
G1 X170.464 Y165.431 E13.14778
G1 X170.179 Y166.288 E13.17782
G1 X169.819 Y167.116 E13.20785
G1 X169.387 Y167.909 E13.23788
G1 X168.887 Y168.661 E13.26792
G1 X168.322 Y169.366 E13.29797
G1 X167.697 Y170.018 E13.32801
G1 X167.017 Y170.612 E13.35804
G1 X166.287 Y171.144 E13.38808
G1 X165.513 Y171.609 E13.41812
G1 X164.701 Y172.004 E13.44815
G1 X163.857 Y172.325 E13.47818
G1 X162.987 Y172.57 E13.50824
G1 X162.1 Y172.738 E13.53827
G1 X160.943 Y172.837 E13.57689
G1 X160.338 Y172.85 E13.59702
G1 X139.912 Y172.85 E14.27639
G1 X139.214 Y172.841 E14.29961
G1 X138.313 Y172.79 E14.32962
G1 X137.419 Y172.658 E14.35968
G1 X136.541 Y172.449 E14.3897
G1 X135.684 Y172.162 E14.41976
G1 X134.857 Y171.801 E14.44977
G1 X134.064 Y171.368 E14.47982
G1 X133.313 Y170.867 E14.50985
G1 X132.609 Y170.301 E14.53989
G1 X131.958 Y169.675 E14.56993
G1 X131.365 Y168.994 E14.59997
G1 X130.835 Y168.263 E14.63
G1 X130.371 Y167.488 E14.66004
G1 X129.977 Y166.675 E14.69009
G1 X129.657 Y165.831 E14.72011
G1 X129.413 Y164.961 E14.75016
G1 X129.247 Y164.073 E14.78021
G1 X129.149 Y162.878 E14.82009
G1 X129.131 Y162.07 E14.84697
G1 X129.124 Y161.133 E14.87814
G1 X129.125 Y137.885 E15.65137
G1 X129.134 Y137.22 E15.67349
G1 X129.186 Y136.318 E15.70354
G1 X129.318 Y135.425 E15.73356
G1 X129.528 Y134.547 E15.76359
G1 X129.815 Y133.69 E15.79365
G1 X130.177 Y132.863 E15.82367
G1 X130.61 Y132.071 E15.8537
G1 X131.112 Y131.32 E15.88374
G1 X131.679 Y130.616 E15.91381
G1 X132.305 Y129.966 E15.94382
G1 F1500 E9.44382
;MESH:Tiny_Tester.stl
G0 F6000 X141.02 Y143.989
G0 X142.221 Y147.731
;TYPE:WALL-INNER
G1 F1500 E15.94382
G1 F1200 X141.654 Y147.296 E15.96759
G1 X141.218 Y146.727 E15.99143
G1 X140.947 Y146.069 E16.0151
G1 X140.859 Y145.356 E16.03899
G1 X140.945 Y144.645 E16.06282
G1 X141.218 Y143.983 E16.08663
G1 X141.657 Y143.414 E16.11054
G1 X142.22 Y142.982 E16.13414
G1 X142.881 Y142.708 E16.15794
G1 X143.594 Y142.615 E16.18185
G1 X144.305 Y142.707 E16.2057
G1 X144.968 Y142.981 E16.22956
G1 X145.542 Y143.428 E16.25376
G1 X145.961 Y143.98 E16.2768
G1 X146.242 Y144.64 E16.30066
G1 X146.334 Y145.351 E16.32451
G1 X146.244 Y146.061 E16.34831
G1 X145.976 Y146.712 E16.37173
G1 X145.545 Y147.282 E16.3955
G1 X144.967 Y147.732 E16.41986
G1 X144.286 Y148.007 E16.44429
G1 X143.594 Y148.092 E16.46748
G1 X142.903 Y148.007 E16.49063
G1 X142.221 Y147.731 E16.5151
G0 F6000 X142.04 Y147.718
G0 X143.689 Y148.186
G0 X143.612 Y147.691
;TYPE:WALL-OUTER
G1 F1200 X142.986 Y147.612 E16.53609
G1 X142.424 Y147.381 E16.5563
G1 X141.94 Y147.01 E16.57658
G1 X141.566 Y146.523 E16.597
G1 X141.334 Y145.946 E16.61769
G1 X141.256 Y145.356 E16.63748
G1 X141.337 Y144.745 E16.65798
G1 X141.568 Y144.185 E16.67813
G1 X141.94 Y143.702 E16.69841
G1 X142.424 Y143.331 E16.71869
G1 X143.004 Y143.095 E16.73952
G1 X143.594 Y143.019 E16.7593
G1 X144.201 Y143.097 E16.77966
G1 X144.765 Y143.331 E16.79997
G1 X145.245 Y143.701 E16.82012
G1 X145.617 Y144.184 E16.8404
G1 X145.852 Y144.745 E16.86063
G1 X145.931 Y145.356 E16.88112
G1 X145.853 Y145.962 E16.90144
G1 X145.617 Y146.527 E16.92181
G1 X145.245 Y147.011 E16.94211
G1 X144.766 Y147.379 E16.9622
G1 X144.203 Y147.612 E16.98247
G1 X143.612 Y147.691 E17.0023
G1 F1500 E10.5023
G0 F6000 X143.689 Y148.186
G0 X144.962 Y147.929
G0 X147.531 Y146.902
G0 X149.286 Y148.003
;TYPE:WALL-INNER
G1 F1500 E17.0023
G1 F1200 X148.625 Y147.731 E17.02607
G1 X148.049 Y147.282 E17.05036
G1 X147.618 Y146.712 E17.07413
G1 X147.352 Y146.065 E17.0974
G1 X147.26 Y145.351 E17.12134
G1 X147.352 Y144.642 E17.14512
G1 X147.633 Y143.98 E17.16904
G1 X148.052 Y143.428 E17.19209
G1 X148.626 Y142.982 E17.21627
G1 X149.286 Y142.708 E17.24004
G1 X150 Y142.615 E17.26399
G1 X150.711 Y142.707 E17.28783
G1 X151.374 Y142.981 E17.31169
G1 X151.948 Y143.428 E17.33589
G1 X152.367 Y143.98 E17.35894
G1 X152.647 Y144.64 E17.38278
G1 X152.74 Y145.351 E17.40663
G1 X152.648 Y146.066 E17.43061
G1 X152.382 Y146.712 E17.45385
G1 X151.988 Y147.233 E17.47557
G1 X151.877 Y147.343 E17.48077
G1 X151.354 Y147.74 E17.50261
G1 X150.692 Y148.007 E17.52635
G1 X150 Y148.092 E17.54954
G1 X149.286 Y148.003 E17.57347
G0 F6000 X149.39 Y147.614
;TYPE:WALL-OUTER
G1 F1200 X148.828 Y147.379 E17.59373
G1 X148.349 Y147.011 E17.61382
G1 X147.977 Y146.527 E17.63413
G1 X147.742 Y145.962 E17.65448
G1 X147.665 Y145.374 E17.6742
G1 X147.742 Y144.748 E17.69518
G1 X147.977 Y144.184 E17.7155
G1 X148.349 Y143.701 E17.73578
G1 X148.829 Y143.331 E17.75594
G1 X149.409 Y143.095 E17.77676
G1 X150 Y143.019 E17.79658
G1 X150.607 Y143.097 E17.81694
G1 X151.171 Y143.331 E17.83725
G1 X151.651 Y143.701 E17.8574
G1 X152.023 Y144.184 E17.87768
G1 X152.257 Y144.745 E17.8979
G1 X152.337 Y145.356 E17.91839
G1 X152.258 Y145.963 E17.93875
G1 X152.023 Y146.527 E17.95907
G1 X151.633 Y147.026 E17.98014
G1 X151.172 Y147.379 E17.99945
G1 X150.609 Y147.612 E18.01972
G1 X150.018 Y147.691 E18.03955
G1 X149.39 Y147.614 E18.06059
G1 F1500 E11.56059
G0 F6000 X149.185 Y148.069
G0 X151.368 Y147.929
G0 X153.937 Y146.902
G0 X155.692 Y148.003
;TYPE:WALL-INNER
G1 F1500 E18.06059
G1 F1200 X155.031 Y147.731 E18.08436
G1 X154.455 Y147.282 E18.10865
G1 X154.025 Y146.712 E18.1324
G1 X153.757 Y146.065 E18.1557
G1 X153.666 Y145.351 E18.17964
G1 X153.757 Y144.644 E18.20334
G1 X154.039 Y143.98 E18.22734
G1 X154.458 Y143.428 E18.25039
G1 X155.032 Y142.982 E18.27456
G1 X155.692 Y142.708 E18.29833
G1 X156.408 Y142.615 E18.32235
G1 X157.131 Y142.713 E18.34661
G1 X157.78 Y142.982 E18.36998
G1 X158.343 Y143.414 E18.39358
G1 X158.783 Y143.986 E18.41759
G1 X159.053 Y144.641 E18.44115
G1 X159.142 Y145.356 E18.46511
G1 X159.053 Y146.069 E18.48901
G1 X158.782 Y146.727 E18.51268
G1 X158.394 Y147.233 E18.53389
G1 X158.283 Y147.344 E18.53911
G1 X157.779 Y147.731 E18.56024
G1 X157.097 Y148.007 E18.58472
G1 X156.407 Y148.092 E18.60784
G1 X155.692 Y148.003 E18.6318
G0 F6000 X155.796 Y147.614
;TYPE:WALL-OUTER
G1 F1200 X155.234 Y147.379 E18.65206
G1 X154.755 Y147.011 E18.67215
G1 X154.383 Y146.527 E18.69246
G1 X154.147 Y145.962 E18.71282
G1 X154.071 Y145.374 E18.73254
G1 X154.147 Y144.749 E18.75348
G1 X154.383 Y144.184 E18.77385
G1 X154.755 Y143.701 E18.79413
G1 X155.235 Y143.331 E18.81428
G1 X155.815 Y143.095 E18.83511
G1 X156.406 Y143.019 E18.85493
G1 X157.008 Y143.098 E18.87512
G1 X157.576 Y143.331 E18.89554
G1 X158.06 Y143.702 E18.91583
G1 X158.433 Y144.188 E18.9362
G1 X158.663 Y144.746 E18.95628
G1 X158.742 Y145.356 E18.97673
G1 X158.666 Y145.946 E18.99652
G1 X158.434 Y146.523 E19.0172
G1 X158.076 Y146.989 E19.03675
G1 X158.039 Y147.026 E19.03849
G1 X157.576 Y147.381 E19.05789
G1 X157.014 Y147.612 E19.0781
G1 X156.424 Y147.691 E19.0979
G1 X155.796 Y147.614 E19.11895
G1 F1500 E12.61895
G0 F6000 X155.591 Y148.069
G0 X156.302 Y148.267
G0 X156.303 Y150.453
G0 X155.695 Y156.012
;TYPE:WALL-INNER
G1 F1500 E19.11895
G1 F1200 X155.034 Y155.738 E19.14274
G1 X154.458 Y155.291 E19.16699
G1 X154.025 Y154.72 E19.19083
G1 X153.757 Y154.073 E19.21412
G1 X153.666 Y153.358 E19.23809
G1 X153.757 Y152.651 E19.2618
G1 X154.039 Y151.987 E19.2858
G1 X154.458 Y151.435 E19.30885
G1 X155.049 Y150.982 E19.33361
G1 X155.692 Y150.721 E19.35669
G1 X156.398 Y150.622 E19.38041
G1 X157.098 Y150.712 E19.40388
G1 X157.779 Y150.988 E19.42832
G1 X158.343 Y151.421 E19.45197
G1 X158.783 Y151.993 E19.47597
G1 X159.053 Y152.648 E19.49954
G1 X159.142 Y153.363 E19.5235
G1 X159.053 Y154.077 E19.54743
G1 X158.783 Y154.733 E19.57103
G1 X158.343 Y155.305 E19.59503
G1 X157.779 Y155.737 E19.61866
G1 X157.12 Y156.01 E19.64238
G1 X156.407 Y156.104 E19.6663
G1 X155.695 Y156.012 E19.69018
G0 F6000 X155.799 Y155.622
;TYPE:WALL-OUTER
G1 F1200 X155.229 Y155.383 E19.71074
G1 X154.755 Y155.018 E19.73063
G1 X154.383 Y154.535 E19.75091
G1 X154.147 Y153.97 E19.77128
G1 X154.071 Y153.381 E19.79103
G1 X154.147 Y152.756 E19.81197
G1 X154.383 Y152.191 E19.83234
G1 X154.755 Y151.708 E19.85261
G1 X155.234 Y151.34 E19.8727
G1 X155.797 Y151.107 E19.89297
G1 X156.388 Y151.028 E19.9128
G1 X157.014 Y151.107 E19.93379
G1 X157.576 Y151.338 E19.954
G1 X158.06 Y151.709 E19.97428
G1 X158.433 Y152.195 E19.99466
G1 X158.663 Y152.753 E20.01473
G1 X158.742 Y153.363 E20.03519
G1 X158.666 Y153.954 E20.05501
G1 X158.434 Y154.531 E20.07569
G1 X158.06 Y155.017 E20.09609
G1 X157.576 Y155.388 E20.11637
G1 X157.012 Y155.622 E20.13668
G1 X156.406 Y155.7 E20.157
G1 X155.799 Y155.622 E20.17736
G1 F1500 E13.67736
G0 F6000 X155.684 Y155.897
G0 X153.937 Y154.91
G0 X152.572 Y154.732
G0 X149.289 Y156.012
;TYPE:WALL-INNER
G1 F1500 E20.17736
