;FLAVOR:Marlin
;TIME:1897
;Filament used: 1.11488m
;Layer height: 0.2
;MINX:123.297
;MINY:123.296
;MINZ:0.32
;MAXX:176.704
;MAXY:176.702
;MAXZ:21.92
;Generated with Cura_SteamEngine 5.2.1
M140 S60
M105
M190 S60
M104 S200
M105
M109 S200
M82 ;absolute extrusion mode
; Ender 3 Max Custom Start G-code
G92 E0 ; Reset Extruder
G28 ; Home all axes
G1 Z2.0 F3000 ; Move Z Axis up little to prevent scratching of Heat Bed
G1 X0.1 Y20 Z0.3 F5000.0 ; Move to start position
G1 X0.1 Y200.0 Z0.3 F1500.0 E15 ; Draw the first line
G1 X0.4 Y200.0 Z0.3 F5000.0 ; Move to side a little
G1 X0.4 Y20 Z0.3 F1500.0 E30 ; Draw the second line
G92 E0 ; Reset Extruder
G1 Z2.0 F3000 ; Move Z Axis up little to prevent scratching of Heat Bed
G1 X5 Y20 Z0.3 F5000.0 ; Move over to prevent blob squish
G92 E0
G92 E0
G1 F1500 E-6.5
;LAYER_COUNT:109
;LAYER:0
M107
G0 F6000 X126.377 Y126.755 Z0.32
;TYPE:SKIRT
G1 F1500 E0
G1 F900 X127.041 Y126.113 E0.05407
G1 X127.757 Y125.53 E0.10812
G1 X128.521 Y125.012 E0.16215
G1 X129.328 Y124.562 E0.21624
G1 X130.17 Y124.184 E0.27027
G1 X130.95 Y123.901 E0.31884
G1 X131.834 Y123.636 E0.37286
G1 X132.738 Y123.448 E0.42691
G1 X133.655 Y123.339 E0.48097
G1 X134.277 Y123.31 E0.51742
G1 X134.94 Y123.299 E0.55623
G1 X145.782 Y123.296 E1.1909
G1 X146.645 Y123.307 E1.24142
G1 X147.567 Y123.36 E1.29548
G1 X148.48 Y123.493 E1.34949
G1 X149.379 Y123.704 E1.40355
G1 X150.256 Y123.992 E1.45758
G1 X151.105 Y124.354 E1.51161
G1 X151.92 Y124.789 E1.56569
G1 X152.693 Y125.293 E1.61971
G1 X153.421 Y125.862 E1.6738
G1 X154.096 Y126.492 E1.72785
G1 X154.978 Y127.51 E1.80669
G1 X155.232 Y127.844 E1.83126
G1 X156.81 Y129.854 E1.98084
G1 X158.409 Y131.775 E2.12715
G1 X160.108 Y133.703 E2.27758
G1 X161.804 Y135.523 E2.42321
G1 X163.61 Y137.351 E2.57363
G1 X165.413 Y139.079 E2.71982
G1 X167.282 Y140.77 E2.86736
G1 X169.245 Y142.446 E3.01846
G1 X171.187 Y144.014 E3.16457
G1 X171.807 Y144.487 E3.21022
G1 X172.617 Y145.123 E3.2705
G1 X173.318 Y145.724 E3.32456
G1 X173.964 Y146.383 E3.37858
G1 X174.551 Y147.096 E3.43264
G1 X175.074 Y147.857 E3.48669
G1 X175.529 Y148.66 E3.54072
G1 X175.912 Y149.5 E3.59476
G1 X176.222 Y150.37 E3.64883
G1 X176.455 Y151.263 E3.70285
G1 X176.61 Y152.173 E3.75689
G1 X176.689 Y153.186 E3.81637
G1 X176.704 Y153.839 E3.8546
G1 X176.703 Y164.994 E4.50759
G1 X176.692 Y165.73 E4.55068
G1 X176.638 Y166.652 E4.60474
G1 X176.505 Y167.566 E4.65881
G1 X176.293 Y168.464 E4.71282
G1 X175.878 Y169.674 E4.7877
G1 X175.441 Y170.63 E4.84924
G1 X174.986 Y171.433 E4.90326
G1 X174.464 Y172.194 E4.95728
G1 X173.736 Y173.069 E5.02391
G1 X173.007 Y173.796 E5.08418
G1 X172.299 Y174.389 E5.13824
G1 X171.543 Y174.919 E5.19229
G1 X170.744 Y175.381 E5.24632
G1 X169.658 Y175.873 E5.31611
G1 X169.397 Y175.974 E5.33249
G1 X168.522 Y176.269 E5.38654
G1 X167.626 Y176.488 E5.44054
G1 X166.713 Y176.628 E5.49461
G1 X165.713 Y176.691 E5.55326
G1 X164.895 Y176.702 E5.60115
G1 X152.833 Y176.699 E6.30723
G1 X151.694 Y176.68 E6.37392
G1 X150.639 Y176.633 E6.43574
G1 X149.838 Y176.573 E6.48276
G1 X149.256 Y176.51 E6.51702
G1 X147.94 Y176.33 E6.59478
G1 X147.269 Y176.216 E6.63462
G1 X146.321 Y176.024 E6.69124
G1 X145.862 Y175.92 E6.71879
G1 X144.97 Y175.698 E6.7726
G1 X144.151 Y175.47 E6.82236
G1 X143.781 Y175.357 E6.84501
G1 X142.929 Y175.079 E6.89747
G1 X142.44 Y174.906 E6.92784
G1 X141.458 Y174.523 E6.98954
G1 X140.603 Y174.158 E7.04396
G1 X140.178 Y173.966 E7.07126
G1 X139.588 Y173.683 E7.10956
G1 X139.179 Y173.475 E7.13642
G1 X138.195 Y172.944 E7.20187
G1 X137.334 Y172.44 E7.26028
G1 X136.639 Y172.005 E7.30827
G1 X135.987 Y171.574 E7.35402
G1 X135.652 Y171.34 E7.37794
G1 X134.981 Y170.852 E7.42651
G1 X134.643 Y170.596 E7.45133
G1 X134.067 Y170.141 E7.4943
G1 X133.677 Y169.817 E7.52398
G1 X132.941 Y169.17 E7.58135
G1 X132.391 Y168.659 E7.62529
G1 X132.102 Y168.379 E7.64885
G1 X131.356 Y167.623 E7.71102
G1 X130.573 Y166.773 E7.77867
G1 X129.992 Y166.093 E7.83103
G1 X129.578 Y165.582 E7.86953
G1 X129.282 Y165.199 E7.89786
G1 X128.776 Y164.513 E7.94776
G1 X128.532 Y164.167 E7.97254
G1 X128.055 Y163.451 E8.02291
G1 X127.469 Y162.513 E8.08765
G1 X126.98 Y161.677 E8.14434
G1 X126.736 Y161.228 E8.17426
G1 X126.354 Y160.483 E8.22327
G1 X126.169 Y160.102 E8.24806
G1 X125.795 Y159.281 E8.30087
G1 X125.411 Y158.374 E8.35853
G1 X125.236 Y157.936 E8.38614
G1 X125.006 Y157.318 E8.42474
G1 X124.865 Y156.912 E8.4499
G1 X124.628 Y156.187 E8.49455
G1 X124.492 Y155.739 E8.52196
G1 X124.268 Y154.936 E8.57076
G1 X124.034 Y153.981 E8.62831
G1 X123.888 Y153.297 E8.66925
G1 X123.686 Y152.184 E8.73547
G1 X123.544 Y151.229 E8.79199
G1 X123.491 Y150.79 E8.81787
G1 X123.412 Y149.999 E8.86441
G1 X123.374 Y149.496 E8.89394
G1 X123.327 Y148.485 E8.95318
G1 X123.299 Y146.879 E9.04721
G1 X123.297 Y134.93 E9.74668
G1 X123.307 Y134.267 E9.78549
G1 X123.361 Y133.346 E9.8395
G1 X123.495 Y132.432 E9.89357
G1 X123.707 Y131.533 E9.94764
G1 X123.995 Y130.657 E10.00162
G1 X124.198 Y130.16 E10.03305
G1 X124.347 Y129.819 E10.05483
G1 X124.753 Y128.99 E10.10887
G1 X125.229 Y128.199 E10.16291
G1 X125.245 Y128.177 E10.1645
G0 F810 X125.772 Y127.452
G0 X126.377 Y126.755
G0 F6000 X126.749 Y127.003
G1 F900 X127.404 Y126.38 E10.21742
G1 X128.111 Y125.817 E10.27032
G1 X128.865 Y125.318 E10.32325
G1 X129.661 Y124.889 E10.37618
G1 X130.755 Y124.435 E10.44552
G1 X131.094 Y124.317 E10.46653
G1 X131.96 Y124.058 E10.51944
G1 X132.846 Y123.876 E10.57239
G1 X133.744 Y123.774 E10.6253
G1 X134.284 Y123.75 E10.65694
G1 X134.947 Y123.739 E10.69575
G1 X145.782 Y123.736 E11.33001
G1 X146.639 Y123.747 E11.38018
G1 X147.541 Y123.8 E11.43307
G1 X148.435 Y123.932 E11.48597
G1 X149.315 Y124.143 E11.53895
G1 X150.172 Y124.43 E11.59185
G1 X151 Y124.792 E11.64475
G1 X151.793 Y125.226 E11.69767
G1 X152.544 Y125.729 E11.75058
G1 X153.249 Y126.295 E11.80351
G1 X153.9 Y126.922 E11.85641
G1 X154.628 Y127.777 E11.92215
G1 X154.88 Y128.108 E11.9465
G1 X156.456 Y130.115 E12.09588
G1 X158.085 Y132.072 E12.24493
G1 X159.784 Y134.001 E12.39541
G1 X161.497 Y135.839 E12.54248
G1 X163.303 Y137.668 E12.69295
G1 X165.089 Y139.378 E12.83769
G1 X167.013 Y141.12 E12.98962
G1 X168.957 Y142.78 E13.13926
G1 X170.898 Y144.346 E13.28525
G1 X171.536 Y144.833 E13.33224
G1 X172.346 Y145.469 E13.39252
G1 X173.031 Y146.058 E13.44541
G1 X173.662 Y146.705 E13.49831
G1 X174.233 Y147.406 E13.55124
G1 X174.74 Y148.154 E13.60413
G1 X175.179 Y148.945 E13.65709
G1 X175.547 Y149.771 E13.71002
G1 X175.839 Y150.626 E13.76291
G1 X176.056 Y151.504 E13.81585
G1 X176.194 Y152.397 E13.86875
G1 X176.249 Y153.199 E13.91581
G1 X176.264 Y153.839 E13.95328
G1 X176.263 Y164.988 E14.60592
G1 X176.252 Y165.724 E14.64901
G1 X176.198 Y166.626 E14.7019
G1 X176.065 Y167.52 E14.75481
G1 X175.854 Y168.399 E14.80773
G1 X175.469 Y169.512 E14.87667
G1 X175.041 Y170.447 E14.93686
G1 X174.593 Y171.232 E14.98977
G1 X174.078 Y171.975 E15.04269
G1 X173.409 Y172.774 E15.10369
G1 X172.696 Y173.484 E15.1626
G1 X172.001 Y174.063 E15.21555
G1 X171.259 Y174.578 E15.26842
G1 X170.473 Y175.026 E15.32138
G1 X169.499 Y175.462 E15.38385
G1 X169.238 Y175.563 E15.40023
G1 X168.382 Y175.852 E15.45312
G1 X167.503 Y176.064 E15.50605
G1 X166.609 Y176.197 E15.55896
G1 X165.706 Y176.251 E15.61191
G1 X164.895 Y176.262 E15.65939
G1 X152.841 Y176.259 E16.365
G1 X151.702 Y176.24 E16.43169
G1 X150.661 Y176.193 E16.49269
G1 X149.874 Y176.134 E16.53889
G1 X149.316 Y176.074 E16.57174
G1 X148 Y175.894 E16.64949
G1 X147.356 Y175.785 E16.68773
G1 X146.408 Y175.593 E16.74435
G1 X145.969 Y175.493 E16.7707
G1 X144.729 Y175.178 E16.8456
G1 X143.918 Y174.939 E16.89509
G1 X143.066 Y174.661 E16.94755
G1 X142.596 Y174.495 E16.97673
G1 X142.003 Y174.269 E17.01388
G1 X141.63 Y174.118 E17.03743
G1 X140.775 Y173.753 E17.09185
G1 X140.368 Y173.569 E17.118
G1 X139.778 Y173.286 E17.1563
G1 X139.386 Y173.087 E17.18204
G1 X138.415 Y172.563 E17.24663
G1 X137.568 Y172.067 E17.30408
G1 X136.605 Y171.459 E17.37075
G1 X135.911 Y170.984 E17.41998
G1 X135.24 Y170.496 E17.46855
G1 X134.916 Y170.251 E17.49233
G1 X134.34 Y169.796 E17.5353
G1 X133.966 Y169.485 E17.56377
G1 X133.241 Y168.847 E17.6203
G1 X132.413 Y168.068 E17.68685
G1 X131.677 Y167.323 E17.74816
G1 X131.164 Y166.773 E17.79218
G1 X130.906 Y166.485 E17.81482
G1 X130.334 Y165.816 E17.86634
G1 X129.92 Y165.305 E17.90484
G1 X129.636 Y164.938 E17.932
G1 X129.13 Y164.252 E17.9819
G1 X128.896 Y163.92 E18.00568
G1 X128.428 Y163.218 E18.05507
G1 X127.842 Y162.28 E18.11981
G1 X127.362 Y161.457 E18.17558
G1 X127.128 Y161.027 E18.20424
G1 X126.746 Y160.282 E18.25325
G1 X126.568 Y159.917 E18.27702
G1 X126.2 Y159.109 E18.32899
G1 X125.816 Y158.202 E18.38665
G1 X125.649 Y157.783 E18.41305
G1 X125.419 Y157.165 E18.45165
G1 X125.283 Y156.776 E18.47578
G1 X125.046 Y156.051 E18.52043
G1 X124.916 Y155.621 E18.54672
G1 X124.692 Y154.818 E18.59552
G1 X124.588 Y154.415 E18.61989
G1 X124.462 Y153.88 E18.65206
G1 X124.319 Y153.207 E18.69234
G1 X124.119 Y152.107 E18.75779
G1 X123.979 Y151.167 E18.81342
G1 X123.929 Y150.747 E18.83818
G1 X123.85 Y149.956 E18.88471
G1 X123.813 Y149.473 E18.91307
G1 X123.767 Y148.477 E18.97143
G1 X123.739 Y146.879 E19.06499
G1 X123.737 Y134.937 E19.76405
G1 X123.747 Y134.274 E19.80287
G1 X123.801 Y133.371 E19.85582
G1 X123.934 Y132.477 E19.90873
G1 X124.146 Y131.598 E19.96166
G1 X124.601 Y130.336 E20.04019
G1 X124.75 Y129.995 E20.06197
G1 X125.148 Y129.183 E20.11491
G1 X125.612 Y128.419 E20.16723
G0 F810 X125.617 Y128.41
G0 X126.151 Y127.681
G0 X126.749 Y127.003
G1 F1500 E13.66723
;MESH:Monoprice_Filament_Guide.STL
G0 F6000 X133.384 Y134.075
G0 X134.395 Y134.518
G0 X150.939 Y165.054
G1 F1500 E20.16723
G0 F6000 X150.909 Y165.312
;TYPE:WALL-INNER
G1 F900 X151.698 Y165.364 E20.21352
G1 X152.153 Y165.379 E20.24017
G1 X165.384 Y165.382 E21.01468
G1 X165.384 Y159.771 E21.34314
G1 X165.384 Y154.161 E21.67153
G1 X154.332 Y154.159 E22.3185
G1 X153.915 Y154.141 E22.34293
G1 X153.434 Y154.094 E22.37122
G1 X153.145 Y154.054 E22.3883
G1 X152.552 Y153.939 E22.42366
G1 X152.217 Y153.854 E22.44389
G1 X151.701 Y153.695 E22.4755
G1 X151.379 Y153.579 E22.49553
G1 X151.099 Y153.465 E22.51323
G1 X150.694 Y153.279 E22.53932
G1 X150.421 Y153.14 E22.55725
G1 X150.177 Y153.003 E22.57363
G1 X149.639 Y152.666 E22.61079
G1 X149.275 Y152.407 E22.63694
G1 X149.034 Y152.216 E22.65494
G1 X148.582 Y151.824 E22.68997
G1 X148.36 Y151.608 E22.7081
G1 X147.946 Y151.163 E22.74368
G1 X147.591 Y150.723 E22.77677
G1 X147.327 Y150.354 E22.80333
G1 X146.994 Y149.821 E22.84012
G1 X146.844 Y149.55 E22.85825
G1 X146.651 Y149.158 E22.88383
G1 X146.522 Y148.87 E22.9023
G1 X146.347 Y148.425 E22.93029
G1 X146.169 Y147.87 E22.96441
G1 X146.065 Y147.466 E22.98883
G1 X145.942 Y146.831 E23.0267
G1 X145.87 Y146.232 E23.06201
G1 X145.841 Y145.676 E23.0946
G1 X145.84 Y134.617 E23.74197
G1 X134.616 Y134.617 E24.399
G1 X134.62 Y147.81 E25.17129
G1 X134.643 Y148.435 E25.2079
G1 X134.685 Y149.054 E25.24422
G1 X134.791 Y149.99 E25.29936
G1 X134.89 Y150.604 E25.33577
G1 X135.077 Y151.519 E25.39044
G1 X135.224 Y152.11 E25.42609
G1 X135.491 Y153.017 E25.48144
G1 X135.773 Y153.823 E25.53142
G1 X136.039 Y154.487 E25.57329
G1 X136.279 Y155.025 E25.60778
G1 X136.566 Y155.617 E25.64629
G1 X137.015 Y156.442 E25.70127
G1 X137.334 Y156.977 E25.73774
G1 X137.676 Y157.499 E25.77427
G1 X138.011 Y157.979 E25.80853
G1 X138.603 Y158.757 E25.86576
G1 X139.004 Y159.23 E25.90206
G1 X139.422 Y159.696 E25.9387
G1 X139.855 Y160.146 E25.97526
G1 X140.302 Y160.576 E26.01157
G1 X140.768 Y160.994 E26.04821
G1 X141.219 Y161.373 E26.0827
G1 X141.978 Y161.958 E26.13879
G1 X142.615 Y162.4 E26.18418
G1 X142.995 Y162.648 E26.21074
G1 X143.558 Y162.985 E26.24915
G1 X144.106 Y163.289 E26.28584
G1 X144.65 Y163.567 E26.3216
G1 X145.482 Y163.948 E26.37516
G1 X146.08 Y164.192 E26.41297
G1 X146.939 Y164.496 E26.46631
G1 X147.553 Y164.684 E26.5039
G1 X148.139 Y164.842 E26.53943
G1 X148.914 Y165.018 E26.58595
G1 X149.109 Y165.055 E26.59757
G0 F810 X149.527 Y165.133
G0 X149.973 Y165.203
G0 X150.909 Y165.312
G0 F6000 X150.869 Y165.75
;TYPE:WALL-OUTER
G1 F900 X151.676 Y165.804 E26.64492
G1 X152.145 Y165.819 E26.67238
G1 X165.507 Y165.822 E27.45457
G1 X165.701 Y165.747 E27.46674
G1 X165.824 Y165.528 E27.48145
G1 X165.824 Y159.771 E27.81845
G1 X165.824 Y153.721 E28.1726
G1 X154.351 Y153.719 E28.84421
G1 X153.922 Y153.7 E28.86934
G1 X153.494 Y153.658 E28.89452
G1 X153.215 Y153.62 E28.911
G1 X152.659 Y153.512 E28.94416
G1 X152.346 Y153.433 E28.96305
G1 X151.82 Y153.27 E28.99529
G1 X151.543 Y153.171 E29.01251
G1 X151.282 Y153.065 E29.029
G1 X150.893 Y152.887 E29.05404
G1 X150.637 Y152.756 E29.07087
G1 X150.384 Y152.614 E29.08786
G1 X149.893 Y152.307 E29.12176
G1 X149.548 Y152.062 E29.14653
G1 X149.322 Y151.883 E29.1634
G1 X148.888 Y151.508 E29.19698
G1 X148.681 Y151.307 E29.21387
G1 X148.288 Y150.887 E29.24754
G1 X147.93 Y150.442 E29.28097
G1 X147.681 Y150.091 E29.30616
G1 X147.378 Y149.607 E29.33959
G1 X147.238 Y149.355 E29.35646
G1 X147.052 Y148.978 E29.38107
G1 X146.931 Y148.708 E29.39839
G1 X146.766 Y148.29 E29.4247
G1 X146.595 Y147.76 E29.4573
G1 X146.491 Y147.356 E29.48172
G1 X146.379 Y146.777 E29.51624
G1 X146.31 Y146.209 E29.54973
G1 X146.281 Y145.653 E29.58233
G1 X146.28 Y134.177 E30.25411
G1 X134.49 Y134.178 E30.94427
G1 X134.317 Y134.239 E30.95501
G1 X134.176 Y134.472 E30.97095
G1 X134.18 Y147.818 E31.75219
G1 X134.203 Y148.458 E31.78968
G1 X134.247 Y149.094 E31.827
G1 X134.355 Y150.05 E31.88332
G1 X134.457 Y150.681 E31.92074
G1 X134.58 Y151.309 E31.9582
G1 X134.799 Y152.225 E32.01333
G1 X135.071 Y153.15 E32.06977
G1 X135.271 Y153.734 E32.1059
G1 X135.389 Y154.049 E32.12559
G1 X135.634 Y154.659 E32.16407
G1 X135.88 Y155.211 E32.19945
G1 X136.174 Y155.818 E32.23893
G1 X136.633 Y156.66 E32.29507
G1 X136.961 Y157.21 E32.33256
G1 X137.311 Y157.745 E32.36998
G1 X137.655 Y158.239 E32.40522
G1 X138.26 Y159.033 E32.46365
G1 X138.672 Y159.519 E32.50095
G1 X139.1 Y159.996 E32.53846
G1 X139.544 Y160.457 E32.57593
G1 X140.002 Y160.898 E32.61315
G1 X140.48 Y161.326 E32.65071
G1 X140.943 Y161.716 E32.68614
G1 X141.718 Y162.314 E32.74345
G1 X142.369 Y162.765 E32.78981
G1 X142.762 Y163.021 E32.81726
G1 X143.338 Y163.366 E32.85657
G1 X143.899 Y163.677 E32.89411
G1 X144.455 Y163.961 E32.93066
G1 X144.726 Y164.091 E32.94826
G1 X145.309 Y164.352 E32.98565
G1 X145.92 Y164.602 E33.02429
G1 X146.803 Y164.914 E33.07911
G1 X147.431 Y165.107 E33.11757
G1 X148.033 Y165.269 E33.15406
G1 X148.824 Y165.449 E33.20155
G1 X149.069 Y165.495 E33.21614
G0 F810 X149.452 Y165.567
G0 X149.913 Y165.639
G0 X150.869 Y165.75
G0 F6000 X150.945 Y164.917
;TYPE:SKIN
G1 F900 X151.717 Y164.968 E33.26143
G1 X152.159 Y164.982 E33.28732
G1 X164.988 Y164.985 E34.0383
G1 X164.988 Y159.771 E34.34352
G1 X164.988 Y154.558 E34.64868
G1 X154.351 Y154.556 E35.27134
G1 X153.888 Y154.536 E35.29847
G1 X153.414 Y154.491 E35.32634
G1 X153.075 Y154.445 E35.34637
G1 X152.503 Y154.334 E35.38048
G1 X152.146 Y154.246 E35.402
G1 X151.55 Y154.062 E35.43851
G1 X151.266 Y153.96 E35.45618
G1 X150.97 Y153.841 E35.47485
G1 X150.548 Y153.65 E35.50197
G1 X150.259 Y153.503 E35.52095
G1 X149.975 Y153.344 E35.54
G1 X149.409 Y152.99 E35.57908
G1 X149.017 Y152.709 E35.60732
G1 X148.803 Y152.539 E35.62331
G1 X148.341 Y152.142 E35.65897
G1 X148.087 Y151.898 E35.67959
G1 X147.647 Y151.425 E35.71741
G1 X147.276 Y150.964 E35.75204
G1 X146.971 Y150.535 E35.78286
G1 X146.656 Y150.032 E35.8176
G1 X146.531 Y149.807 E35.83267
G1 X146.302 Y149.349 E35.86264
G1 X146.169 Y149.054 E35.88158
G1 X145.987 Y148.596 E35.91043
G1 X145.793 Y148 E35.94712
G1 X145.667 Y147.504 E35.97708
G1 X145.552 Y146.903 E36.0129
G1 X145.48 Y146.312 E36.04775
