;FLAVOR:Marlin
;TIME:1986
;Filament used: 1.15288m
;Layer height: 0.2
;MINX:124.398
;MINY:124.409
;MINZ:0.32
;MAXX:175.603
;MAXY:175.609
;MAXZ:19.92
;Generated with Cura_SteamEngine 5.2.1
M140 S60
M105
M190 S60
M104 S200
M105
M109 S200
M82 ;absolute extrusion mode
; Ender 3 Max Custom Start G-code
G92 E0 ; Reset Extruder
G28 ; Home all axes
G1 Z2.0 F3000 ; Move Z Axis up little to prevent scratching of Heat Bed
G1 X0.1 Y20 Z0.3 F5000.0 ; Move to start position
G1 X0.1 Y200.0 Z0.3 F1500.0 E15 ; Draw the first line
G1 X0.4 Y200.0 Z0.3 F5000.0 ; Move to side a little
G1 X0.4 Y20 Z0.3 F1500.0 E30 ; Draw the second line
G92 E0 ; Reset Extruder
G1 Z2.0 F3000 ; Move Z Axis up little to prevent scratching of Heat Bed
G1 X5 Y20 Z0.3 F5000.0 ; Move over to prevent blob squish
G92 E0
G92 E0
G1 F1500 E-6.5
;LAYER_COUNT:99
;LAYER:0
M107
G0 F6000 X131.824 Y131.979 Z0.32
;TYPE:SKIRT
G1 F1500 E0
G1 F900 X132.431 Y131.384 E0.04976
G1 X133.085 Y130.798 E0.10116
G1 X133.917 Y130.089 E0.16515
G1 X134.627 Y129.534 E0.2179
G1 X135.151 Y129.159 E0.25562
G1 X136.217 Y128.435 E0.33105
G1 X136.96 Y127.976 E0.38218
G1 X137.737 Y127.543 E0.43425
G1 X138.644 Y127.063 E0.49432
G1 X139.54 Y126.641 E0.55229
G1 X140.421 Y126.275 E0.60814
G1 X141.334 Y125.919 E0.6655
G1 X142.167 Y125.636 E0.717
G1 X143.291 Y125.309 E0.78553
G1 X144.013 Y125.117 E0.82926
G1 X144.824 Y124.935 E0.87792
G1 X145.719 Y124.775 E0.93114
G1 X146.739 Y124.617 E0.99156
G1 X147.612 Y124.518 E1.04299
G1 X148.242 Y124.473 E1.07996
G1 X149.535 Y124.412 E1.15574
G1 X150.422 Y124.409 E1.20766
G1 X151.334 Y124.448 E1.26109
G1 X152.376 Y124.517 E1.32222
G1 X153.297 Y124.619 E1.37647
G1 X154.183 Y124.759 E1.42898
G1 X155.235 Y124.949 E1.49155
G1 X156.189 Y125.167 E1.54884
G1 X157.076 Y125.413 E1.60272
G1 X157.9 Y125.657 E1.65303
G1 X158.762 Y125.955 E1.70642
G1 X159.715 Y126.331 E1.76639
G1 X160.655 Y126.73 E1.82617
G1 X161.449 Y127.111 E1.87772
G1 X162.429 Y127.635 E1.94277
G1 X163.085 Y128.004 E1.98683
G1 X163.852 Y128.479 E2.03964
G1 X164.832 Y129.149 E2.10913
G1 X165.429 Y129.577 E2.15213
G1 X166.159 Y130.151 E2.20649
G1 X167.005 Y130.88 E2.27187
G1 X167.577 Y131.394 E2.31688
G1 X168.23 Y132.034 E2.37041
G1 X169.051 Y132.915 E2.4409
G1 X169.556 Y133.484 E2.48544
G1 X170.099 Y134.148 E2.53565
G1 X170.632 Y134.861 E2.58776
G1 X171.202 Y135.658 E2.64512
G1 X171.686 Y136.398 E2.69688
G1 X172.138 Y137.164 E2.74894
G1 X172.676 Y138.126 E2.81346
G1 X173.102 Y138.975 E2.86907
G1 X173.468 Y139.793 E2.92152
G1 X173.829 Y140.644 E2.97564
G1 X174.129 Y141.445 E3.02571
G1 X174.416 Y142.327 E3.08
G1 X174.705 Y143.289 E3.1388
G1 X174.923 Y144.142 E3.19034
G1 X175.114 Y145.056 E3.245
G1 X175.294 Y146.033 E3.30315
G1 X175.424 Y146.973 E3.3587
G1 X175.51 Y147.894 E3.41285
G1 X175.582 Y148.928 E3.47352
G1 X175.603 Y149.825 E3.52605
G1 X175.586 Y150.748 E3.58009
G1 X175.548 Y151.711 E3.6365
G1 X175.477 Y152.572 E3.68707
G1 X175.363 Y153.46 E3.73948
G1 X175.209 Y154.483 E3.80004
G1 X175.029 Y155.404 E3.85498
G1 X174.807 Y156.321 E3.91021
G1 X174.554 Y157.272 E3.96781
G1 X174.282 Y158.133 E4.02067
G1 X173.981 Y158.962 E4.07229
G1 X173.607 Y159.926 E4.13282
G1 X173.257 Y160.723 E4.18378
G1 X172.964 Y161.322 E4.22281
G1 X172.398 Y162.416 E4.29492
G1 X171.918 Y163.245 E4.35099
G1 X171.41 Y164.038 E4.40612
G1 X170.853 Y164.867 E4.46458
G1 X170.31 Y165.6 E4.51798
G1 X169.699 Y166.355 E4.57484
G1 X169.022 Y167.15 E4.63596
G1 X168.424 Y167.791 E4.68728
G1 X167.82 Y168.387 E4.73695
G1 X167.109 Y169.06 E4.79426
G1 X166.484 Y169.605 E4.8428
G1 X165.776 Y170.169 E4.89579
G1 X164.924 Y170.815 E4.95838
G1 X164.189 Y171.325 E5.01075
G1 X163.489 Y171.765 E5.05915
G1 X162.619 Y172.288 E5.11857
G1 X161.785 Y172.74 E5.1741
G1 X160.869 Y173.185 E5.23371
G1 X160.007 Y173.579 E5.28919
G1 X159.235 Y173.893 E5.33798
G1 X158.323 Y174.218 E5.39466
G1 X157.376 Y174.53 E5.45302
G1 X156.47 Y174.784 E5.5081
G1 X155.556 Y174.998 E5.56305
G1 X154.571 Y175.205 E5.62197
G1 X153.74 Y175.343 E5.67128
G1 X153.164 Y175.415 E5.70526
G1 X151.835 Y175.549 E5.78345
G1 X150.882 Y175.601 E5.83932
G1 X149.971 Y175.609 E5.89265
G1 X148.989 Y175.597 E5.95014
G1 X148.131 Y175.549 E6.00045
G1 X147.267 Y175.462 E6.05128
G1 X146.209 Y175.332 E6.11368
G1 X145.289 Y175.178 E6.16828
G1 X144.114 Y174.924 E6.23865
G1 X143.413 Y174.754 E6.28088
G1 X142.644 Y174.536 E6.32767
G1 X141.765 Y174.247 E6.38183
G1 X140.756 Y173.887 E6.44454
G1 X139.899 Y173.539 E6.49869
G1 X139.126 Y173.185 E6.54846
G1 X138.179 Y172.725 E6.61009
G1 X137.373 Y172.286 E6.66381
G1 X136.587 Y171.813 E6.71751
G1 X135.783 Y171.307 E6.77312
G1 X135.052 Y170.8 E6.8252
G1 X134.254 Y170.191 E6.88396
G1 X133.465 Y169.559 E6.94314
G1 X132.754 Y168.936 E6.99847
G1 X132.086 Y168.296 E7.05263
G1 X131.459 Y167.671 E7.10445
G1 X130.844 Y167 E7.15773
G1 X130.047 Y166.046 E7.2305
G1 X129.603 Y165.488 E7.27224
G1 X129.083 Y164.775 E7.3239
G1 X128.394 Y163.735 E7.39693
G1 X127.949 Y163.022 E7.44613
G1 X127.508 Y162.244 E7.49848
G1 X127.03 Y161.307 E7.56005
G1 X126.7 Y160.627 E7.6043
G1 X126.367 Y159.868 E7.65282
G1 X126.054 Y159.06 E7.70354
G1 X125.713 Y158.116 E7.7623
G1 X125.435 Y157.226 E7.81688
G1 X125.118 Y156.018 E7.88998
G1 X124.951 Y155.316 E7.93223
G1 X124.782 Y154.445 E7.98416
G1 X124.679 Y153.765 E8.02442
G1 X124.524 Y152.561 E8.09548
G1 X124.45 Y151.688 E8.14677
G1 X124.415 Y150.8 E8.19879
G1 X124.398 Y149.75 E8.26027
G1 X124.422 Y148.852 E8.31285
G1 X124.487 Y147.945 E8.36608
G1 X124.583 Y146.927 E8.42594
G1 X124.706 Y146.032 E8.47882
G1 X124.867 Y145.159 E8.53079
G1 X125.077 Y144.147 E8.59129
G1 X125.312 Y143.224 E8.64704
G1 X125.573 Y142.362 E8.69976
G1 X125.886 Y141.404 E8.75876
G1 X126.178 Y140.623 E8.80757
G1 X126.536 Y139.782 E8.86107
G1 X126.992 Y138.779 E8.92557
G1 X127.437 Y137.909 E8.98277
G1 X127.99 Y136.943 E9.04793
G1 X128.339 Y136.359 E9.08776
G1 X128.804 Y135.647 E9.13754
G1 X129.179 Y135.12 E9.1754
G1 X129.957 Y134.08 E9.25143
G1 X130.543 Y133.367 E9.30545
G1 X130.59 Y133.315 E9.30956
G0 F810 X131.134 Y132.712
G0 X131.824 Y131.979
G0 F6000 X132.144 Y132.281
G1 F900 X132.726 Y131.711 E9.35724
G1 X133.37 Y131.133 E9.4079
G1 X134.202 Y130.424 E9.47189
G1 X134.883 Y129.892 E9.52248
G1 X135.634 Y129.359 E9.57638
G1 X136.463 Y128.799 E9.63495
G1 X137.176 Y128.359 E9.68399
G1 X137.715 Y128.056 E9.72019
G1 X138.85 Y127.452 E9.79545
G1 X139.709 Y127.047 E9.85104
G1 X140.59 Y126.681 E9.90689
G1 X141.493 Y126.329 E9.96362
G1 X142.291 Y126.058 E10.01295
G1 X143.404 Y125.734 E10.08081
G1 X144.126 Y125.542 E10.12454
G1 X144.904 Y125.368 E10.17121
G1 X145.787 Y125.209 E10.22373
G1 X146.807 Y125.051 E10.28415
G1 X147.643 Y124.957 E10.3334
G1 X148.546 Y124.896 E10.38638
G1 X149.555 Y124.851 E10.4455
G1 X150.405 Y124.849 E10.49526
G1 X151.305 Y124.887 E10.54799
G1 X152.347 Y124.956 E10.60912
G1 X153.23 Y125.053 E10.66112
G1 X153.846 Y125.148 E10.69761
G1 X155.156 Y125.382 E10.7755
G1 X156.071 Y125.591 E10.83045
G1 X157.151 Y125.892 E10.89608
G1 X157.774 Y126.078 E10.93414
G1 X158.601 Y126.364 E10.98536
G1 X159.554 Y126.74 E11.04533
G1 X160.481 Y127.134 E11.10429
G1 X161.243 Y127.499 E11.15375
G1 X162.001 Y127.902 E11.20401
G1 X162.869 Y128.387 E11.26221
G1 X163.605 Y128.843 E11.31289
G1 X164.367 Y129.361 E11.36683
G1 X165.173 Y129.935 E11.42475
G1 X165.873 Y130.485 E11.47687
G1 X166.711 Y131.207 E11.54162
G1 X167.283 Y131.721 E11.58663
G1 X167.909 Y132.335 E11.63796
G1 X168.722 Y133.207 E11.70775
G1 X169.227 Y133.776 E11.75228
G1 X169.747 Y134.412 E11.80038
G1 X170.274 Y135.117 E11.8519
G1 X170.844 Y135.914 E11.90926
G1 X171.308 Y136.624 E11.95891
G1 X171.754 Y137.379 E12.01024
G1 X172.292 Y138.341 E12.07476
G1 X172.701 Y139.155 E12.12809
G1 X173.157 Y140.18 E12.19376
G1 X173.424 Y140.814 E12.23403
G1 X173.712 Y141.582 E12.28204
G1 X173.914 Y142.195 E12.31982
G1 X174.284 Y143.416 E12.39451
G1 X174.493 Y144.233 E12.44387
G1 X174.681 Y145.135 E12.49781
G1 X174.861 Y146.112 E12.55596
G1 X174.986 Y147.014 E12.60927
G1 X175.072 Y147.935 E12.66342
G1 X175.143 Y148.957 E12.72339
G1 X175.163 Y149.817 E12.77374
G1 X175.139 Y150.985 E12.84213
G1 X175.109 Y151.693 E12.88361
G1 X175.04 Y152.517 E12.93202
G1 X174.928 Y153.394 E12.98377
G1 X174.774 Y154.417 E13.04433
G1 X174.601 Y155.301 E13.09706
G1 X174.379 Y156.218 E13.15229
G1 X174.129 Y157.157 E13.20917
G1 X173.868 Y157.983 E13.25988
G1 X173.477 Y159.051 E13.32646
G1 X173.197 Y159.766 E13.37141
G1 X172.862 Y160.53 E13.42024
G1 X172.569 Y161.129 E13.45927
G1 X172.008 Y162.213 E13.53072
G1 X171.548 Y163.008 E13.58449
G1 X171.04 Y163.801 E13.63962
G1 X170.489 Y164.621 E13.69745
G1 X169.968 Y165.323 E13.74862
G1 X169.165 Y166.309 E13.82306
G1 X168.689 Y166.863 E13.86582
G1 X168.115 Y167.478 E13.91506
G1 X167.34 Y168.239 E13.97864
G1 X166.808 Y168.74 E14.02142
G1 X166.208 Y169.262 E14.06798
G1 X165.51 Y169.819 E14.12025
G1 X164.658 Y170.465 E14.18284
G1 X163.954 Y170.953 E14.23298
G1 X163.263 Y171.388 E14.28078
G1 X162.393 Y171.911 E14.3402
G1 X161.593 Y172.345 E14.39348
G1 X160.677 Y172.79 E14.45309
G1 X159.826 Y173.179 E14.50787
G1 X159.085 Y173.479 E14.55466
G1 X158.185 Y173.8 E14.6106
G1 X157.238 Y174.112 E14.66896
G1 X156.37 Y174.356 E14.72174
G1 X155.456 Y174.57 E14.7767
G1 X154.482 Y174.774 E14.83495
G1 X153.686 Y174.906 E14.88218
G1 X152.846 Y175.008 E14.93171
G1 X151.792 Y175.112 E14.99371
G1 X150.878 Y175.161 E15.04729
G1 X149.967 Y175.169 E15.10062
G1 X148.995 Y175.157 E15.15753
G1 X148.173 Y175.111 E15.20572
G1 X147.321 Y175.026 E15.25584
G1 X146.263 Y174.896 E15.31824
G1 X145.381 Y174.748 E15.37059
G1 X144.498 Y174.56 E15.42344
G1 X143.516 Y174.326 E15.48253
G1 X142.779 Y174.118 E15.52736
G1 X141.913 Y173.833 E15.58073
G1 X140.904 Y173.473 E15.64344
G1 X140.083 Y173.139 E15.69533
G1 X139.068 Y172.671 E15.76075
G1 X138.372 Y172.33 E15.80612
G1 X137.599 Y171.909 E15.85765
G1 X136.813 Y171.436 E15.91135
G1 X136.019 Y170.936 E15.96627
G1 X135.317 Y170.449 E16.01629
G1 X134.529 Y169.848 E16.0743
G1 X133.74 Y169.216 E16.13348
G1 X133.059 Y168.619 E16.18649
G1 X132.226 Y167.818 E16.25414
G1 X131.77 Y167.361 E16.29193
G1 X131.181 Y166.717 E16.34302
G1 X130.565 Y165.984 E16.39907
G1 X129.948 Y165.214 E16.45683
G1 X129.448 Y164.53 E16.50642
G1 X128.94 Y163.77 E16.55994
G1 X128.322 Y162.789 E16.62781
G1 X127.899 Y162.044 E16.67796
G1 X127.527 Y161.319 E16.72566
G1 X127.096 Y160.435 E16.78323
G1 X126.777 Y159.707 E16.82975
G1 X126.468 Y158.91 E16.87979
G1 X126.127 Y157.966 E16.93855
G1 X125.86 Y157.113 E16.99087
G1 X125.546 Y155.916 E17.06331
G1 X125.379 Y155.214 E17.10555
G1 X125.217 Y154.38 E17.15528
G1 X125.079 Y153.449 E17.21038
G1 X124.96 Y152.506 E17.26602
G1 X124.89 Y151.669 E17.31518
G1 X124.855 Y150.792 E17.36656
G1 X124.838 Y149.742 E17.42803
G1 X124.861 Y148.882 E17.4784
G1 X124.925 Y147.986 E17.53098
G1 X125.021 Y146.968 E17.59083
G1 X125.139 Y146.11 E17.64153
G1 X125.298 Y145.248 E17.69284
G1 X125.508 Y144.236 E17.75335
G1 X125.734 Y143.351 E17.80681
G1 X126.071 Y142.248 E17.87433
G1 X126.304 Y141.542 E17.91785
G1 X126.584 Y140.794 E17.9646
G1 X126.936 Y139.964 E18.01738
G1 X127.392 Y138.961 E18.08187
G1 X127.819 Y138.127 E18.13672
G1 X128.368 Y137.168 E18.20141
G1 X128.717 Y136.584 E18.24123
G1 X129.163 Y135.902 E18.28893
G1 X129.696 Y135.158 E18.34251
G1 X130.308 Y134.344 E18.40212
G1 X130.87 Y133.661 E18.4539
G1 X130.91 Y133.617 E18.45738
G0 F810 X131.454 Y133.014
G0 X132.144 Y132.281
G1 F1500 E11.95738
;MESH:RunnerHolder_v1.stl
G0 F6000 X137.989 Y140.021
G0 X138.801 Y140.77
G0 X149.209 Y164.029
G1 F1500 E18.45738
G0 F6000 X149.196 Y164.288
;TYPE:WALL-INNER
G1 F900 X150.767 Y164.289 E18.54934
G1 X152.334 Y164.118 E18.64162
G1 X153.874 Y163.774 E18.73399
G1 X155.361 Y163.266 E18.82597
G1 X156.788 Y162.594 E18.91831
G1 X158.131 Y161.772 E19.01048
G1 X159.376 Y160.805 E19.10276
G1 X160.507 Y159.708 E19.19499
G1 X161.511 Y158.493 E19.28726
G1 X162.373 Y157.175 E19.37944
G1 X163.086 Y155.772 E19.47157
G1 X163.644 Y154.284 E19.5646
G1 X164.03 Y152.768 E19.65617
G1 X164.249 Y151.203 E19.74868
G1 X164.271 Y150.387 E19.79646
G1 X164.293 Y149.612 E19.84185
G1 X164.165 Y148.055 E19.9333
G1 X163.865 Y146.519 E20.02491
G1 X163.401 Y145.03 E20.11621
G1 X162.766 Y143.572 E20.2093
G1 X161.978 Y142.205 E20.30166
G1 X161.049 Y140.935 E20.39377
G1 X159.982 Y139.775 E20.48603
G1 X158.797 Y138.739 E20.57817
G1 X157.506 Y137.842 E20.6702
G1 X156.118 Y137.089 E20.76263
G1 X154.646 Y136.492 E20.85562
G1 X153.143 Y136.064 E20.9471
G1 X151.589 Y135.801 E21.03936
G1 X150.019 Y135.713 E21.13141
G1 X148.448 Y135.798 E21.22351
G1 X146.893 Y136.055 E21.31577
G1 X145.39 Y136.479 E21.40718
G1 X143.904 Y137.078 E21.50097
G1 X142.508 Y137.833 E21.59388
G1 X141.229 Y138.718 E21.68492
G1 X140.043 Y139.75 E21.77695
G1 X138.971 Y140.911 E21.86946
G1 X138.041 Y142.177 E21.96141
G1 X137.254 Y143.533 E22.05319
G1 X136.615 Y144.981 E22.14584
G1 X136.138 Y146.496 E22.23882
G1 X135.84 Y148.029 E22.33023
G1 X135.708 Y149.601 E22.42258
G1 X135.749 Y151.175 E22.51475
G1 X135.963 Y152.731 E22.60669
G1 X136.357 Y154.286 E22.70059
G1 X136.898 Y155.737 E22.79124
G1 X137.607 Y157.143 E22.88342
G1 X138.469 Y158.463 E22.97571
G1 X139.468 Y159.681 E23.06792
G1 X140.595 Y160.781 E23.16011
G1 X141.854 Y161.762 E23.25354
G1 X143.194 Y162.585 E23.34559
G1 X144.599 Y163.249 E23.43656
G1 X146.09 Y163.764 E23.5289
G1 X147.393 Y164.059 E23.60711
G0 F810 X147.628 Y164.112
G0 X149.196 Y164.288
G0 F6000 X149.171 Y164.728
;TYPE:WALL-OUTER
G1 F900 X150.791 Y164.729 E23.70194
G1 X152.406 Y164.553 E23.79704
G1 X153.994 Y164.198 E23.89229
G1 X155.527 Y163.674 E23.98712
G1 X156.998 Y162.982 E24.08229
G1 X158.381 Y162.134 E24.17725
G1 X159.665 Y161.138 E24.27238
G1 X160.831 Y160.007 E24.36746
G1 X161.866 Y158.755 E24.46255
G1 X162.755 Y157.396 E24.55762
G1 X163.49 Y155.949 E24.65262
G1 X164.064 Y154.416 E24.74844
G1 X164.462 Y152.853 E24.84286
G1 X164.688 Y151.24 E24.9382
G1 X164.711 Y150.399 E24.98745
G1 X164.733 Y149.6 E25.03424
G1 X164.601 Y147.995 E25.12851
G1 X164.292 Y146.411 E25.22298
G1 X163.814 Y144.876 E25.3171
G1 X163.16 Y143.374 E25.41299
G1 X162.347 Y141.965 E25.50822
G1 X161.389 Y140.655 E25.60322
G1 X160.29 Y139.459 E25.6983
G1 X159.068 Y138.391 E25.7933
G1 X157.737 Y137.467 E25.88815
G1 X156.306 Y136.691 E25.98344
G1 X154.789 Y136.075 E26.07929
G1 X153.24 Y135.634 E26.17356
G1 X151.638 Y135.363 E26.26867
G1 X150.019 Y135.272 E26.3636
G1 X148.4 Y135.36 E26.45851
G1 X146.797 Y135.625 E26.55362
G1 X145.248 Y136.062 E26.64783
G1 X143.716 Y136.679 E26.74451
G1 X142.278 Y137.457 E26.84022
G1 X140.959 Y138.37 E26.93413
G1 X139.736 Y139.434 E27.02902
G1 X138.631 Y140.631 E27.12438
G1 X137.673 Y141.935 E27.2191
G1 X136.861 Y143.333 E27.31374
G1 X136.203 Y144.826 E27.40925
G1 X135.711 Y146.388 E27.50511
G1 X135.404 Y147.969 E27.59939
G1 X135.268 Y149.588 E27.69449
G1 X135.31 Y151.211 E27.78953
G1 X135.531 Y152.815 E27.88432
G1 X135.937 Y154.417 E27.98106
G1 X136.494 Y155.913 E28.0745
G1 X137.225 Y157.363 E28.16956
G1 X138.113 Y158.723 E28.26464
G1 X139.143 Y159.979 E28.35972
G1 X140.305 Y161.113 E28.45477
G1 X141.603 Y162.124 E28.55108
G1 X142.984 Y162.973 E28.64597
G1 X144.433 Y163.657 E28.73977
G1 X145.969 Y164.188 E28.83491
G1 X147.368 Y164.504 E28.91886
G0 F810 X147.555 Y164.546
G0 X149.171 Y164.728
G0 F6000 X149.219 Y163.892
;TYPE:SKIN
G1 F900 X150.744 Y163.893 E29.00813
G1 X152.268 Y163.726 E29.09788
G1 X153.769 Y163.39 E29.18792
G1 X155.211 Y162.898 E29.27711
G1 X156.599 Y162.244 E29.36693
G1 X157.903 Y161.444 E29.45648
G1 X159.116 Y160.504 E29.54631
G1 X160.215 Y159.438 E29.63594
G1 X161.193 Y158.257 E29.7257
G1 X162.031 Y156.975 E29.81535
