;FLAVOR:Marlin
;TIME:2077
;Filament used: 1.1042m
;Layer height: 0.2
;MINX:124.458
;MINY:124.469
;MINZ:0.32
;MAXX:175.543
;MAXY:175.549
;MAXZ:19.92
;Generated with Cura_SteamEngine 5.2.1
M140 S60
M105
M190 S60
M104 S190
M105
M109 S190
M82 ;absolute extrusion mode
; Ender 3 Max Custom Start G-code
G92 E0 ; Reset Extruder
G28 ; Home all axes
G1 Z2.0 F3000 ; Move Z Axis up little to prevent scratching of Heat Bed
G1 X0.1 Y20 Z0.3 F5000.0 ; Move to start position
G1 X0.1 Y200.0 Z0.3 F1500.0 E15 ; Draw the first line
G1 X0.4 Y200.0 Z0.3 F5000.0 ; Move to side a little
G1 X0.4 Y20 Z0.3 F1500.0 E30 ; Draw the second line
G92 E0 ; Reset Extruder
G1 Z2.0 F3000 ; Move Z Axis up little to prevent scratching of Heat Bed
G1 X5 Y20 Z0.3 F5000.0 ; Move over to prevent blob squish
G92 E0
G92 E0
G1 F1500 E-6.5
;LAYER_COUNT:99
;LAYER:0
M107
G0 F6000 X131.868 Y132.02 Z0.32
;TYPE:SKIRT
G1 F1500 E0
G1 F900 X132.471 Y131.429 E0.04493
G1 X133.124 Y130.844 E0.09159
G1 X133.956 Y130.135 E0.14976
G1 X134.662 Y129.583 E0.19745
G1 X135.421 Y129.044 E0.24699
G1 X136.25 Y128.484 E0.30023
G1 X136.99 Y128.028 E0.34649
G1 X137.765 Y127.596 E0.3937
G1 X138.672 Y127.116 E0.44831
G1 X139.563 Y126.696 E0.50073
G1 X140.444 Y126.33 E0.5515
G1 X141.356 Y125.975 E0.60358
G1 X142.184 Y125.694 E0.65011
G1 X143.307 Y125.367 E0.71236
G1 X144.029 Y125.175 E0.75211
G1 X144.835 Y124.994 E0.79607
G1 X145.728 Y124.834 E0.84435
G1 X146.748 Y124.676 E0.89928
G1 X147.616 Y124.578 E0.94577
G1 X148.246 Y124.533 E0.97938
G1 X149.538 Y124.472 E1.04821
G1 X150.42 Y124.469 E1.09515
G1 X151.33 Y124.508 E1.14362
G1 X152.372 Y124.577 E1.19919
G1 X153.288 Y124.678 E1.24823
G1 X154.172 Y124.818 E1.29586
G1 X155.224 Y125.008 E1.35275
G1 X156.173 Y125.225 E1.40456
G1 X157.259 Y125.528 E1.46456
G1 X157.882 Y125.714 E1.49916
G1 X158.74 Y126.011 E1.54747
G1 X159.99 Y126.509 E1.61908
G1 X160.632 Y126.785 E1.65627
G1 X161.421 Y127.164 E1.70285
G1 X162.4 Y127.687 E1.76191
G1 X163.056 Y128.056 E1.80197
G1 X163.818 Y128.529 E1.8497
G1 X164.797 Y129.198 E1.9128
G1 X165.394 Y129.626 E1.95189
G1 X166.12 Y130.196 E2.00101
G1 X166.782 Y130.764 E2.04743
G1 X167.537 Y131.439 E2.10132
G1 X168.187 Y132.075 E2.14972
G1 X168.813 Y132.743 E2.19843
G1 X169.511 Y133.524 E2.25418
G1 X170.051 Y134.184 E2.29956
G1 X170.583 Y134.896 E2.34685
G1 X171.153 Y135.693 E2.399
G1 X171.635 Y136.429 E2.44582
G1 X172.086 Y137.193 E2.49303
G1 X172.624 Y138.155 E2.55169
G1 X173.048 Y139 E2.602
G1 X173.414 Y139.818 E2.64969
G1 X173.774 Y140.667 E2.69876
G1 X174.072 Y141.463 E2.74399
G1 X174.359 Y142.344 E2.7933
G1 X174.648 Y143.306 E2.84676
G1 X174.865 Y144.154 E2.89334
G1 X175.055 Y145.066 E2.94291
G1 X175.235 Y146.043 E2.99578
G1 X175.364 Y146.978 E3.04601
G1 X175.45 Y147.899 E3.09523
G1 X175.522 Y148.932 E3.15034
G1 X175.543 Y149.824 E3.19782
G1 X175.526 Y150.747 E3.24695
G1 X175.488 Y151.709 E3.29818
G1 X175.417 Y152.564 E3.34384
G1 X175.304 Y153.451 E3.39142
G1 X175.15 Y154.474 E3.44648
G1 X174.97 Y155.39 E3.49615
G1 X174.68 Y156.574 E3.56102
G1 X174.496 Y157.256 E3.59862
G1 X174.226 Y158.113 E3.64643
G1 X173.925 Y158.942 E3.69337
G1 X173.551 Y159.904 E3.74829
G1 X173.203 Y160.697 E3.79438
G1 X172.91 Y161.296 E3.82986
G1 X172.345 Y162.388 E3.89529
G1 X171.868 Y163.213 E3.94601
G1 X171.36 Y164.006 E3.99612
G1 X170.803 Y164.834 E4.04923
G1 X170.264 Y165.562 E4.09743
G1 X169.653 Y166.317 E4.14912
G1 X168.977 Y167.111 E4.20461
G1 X168.382 Y167.748 E4.251
G1 X167.6 Y168.516 E4.30933
G1 X167.068 Y169.017 E4.34822
G1 X166.447 Y169.558 E4.39205
G1 X165.739 Y170.122 E4.44022
G1 X164.887 Y170.768 E4.49712
G1 X164.157 Y171.274 E4.54438
G1 X163.458 Y171.714 E4.58834
G1 X162.588 Y172.237 E4.64236
G1 X161.759 Y172.686 E4.69253
G1 X160.578 Y173.256 E4.76231
G1 X159.983 Y173.525 E4.79706
G1 X159.214 Y173.837 E4.84123
G1 X158.304 Y174.161 E4.89263
G1 X157.357 Y174.473 E4.94569
G1 X156.456 Y174.726 E4.99549
G1 X155.267 Y175.001 E5.06044
G1 X154.559 Y175.147 E5.09891
G1 X153.733 Y175.283 E5.14346
G1 X152.883 Y175.386 E5.18902
G1 X151.829 Y175.49 E5.24538
G1 X150.881 Y175.541 E5.29591
G1 X149.97 Y175.549 E5.34439
G1 X148.99 Y175.537 E5.39654
G1 X148.136 Y175.489 E5.44206
G1 X147.274 Y175.403 E5.48816
G1 X146.216 Y175.273 E5.54489
G1 X145.302 Y175.12 E5.5942
G1 X144.419 Y174.932 E5.64225
G1 X143.427 Y174.695 E5.69652
G1 X142.662 Y174.479 E5.73883
G1 X141.785 Y174.191 E5.78795
G1 X140.776 Y173.831 E5.84496
G1 X139.924 Y173.484 E5.89392
G1 X138.901 Y173.012 E5.95387
G1 X138.205 Y172.671 E5.99512
G1 X137.403 Y172.234 E6.04372
G1 X136.617 Y171.761 E6.09254
G1 X135.816 Y171.257 E6.1429
G1 X135.088 Y170.752 E6.19005
G1 X134.291 Y170.144 E6.2434
G1 X133.502 Y169.512 E6.29719
G1 X132.796 Y168.893 E6.34716
G1 X131.957 Y168.086 E6.40911
G1 X131.501 Y167.629 E6.44347
G1 X130.89 Y166.962 E6.4916
G1 X130.274 Y166.229 E6.54255
G1 X129.65 Y165.451 E6.59563
G1 X129.132 Y164.742 E6.64236
G1 X128.624 Y163.982 E6.691
G1 X128 Y162.99 E6.75337
G1 X127.561 Y162.217 E6.80068
G1 X127.189 Y161.492 E6.84404
G1 X126.754 Y160.601 E6.89681
G1 X126.423 Y159.846 E6.94068
G1 X126.213 Y159.311 E6.97126
G1 X125.77 Y158.095 E7.04013
G1 X125.493 Y157.21 E7.08948
G1 X125.243 Y156.267 E7.1414
G1 X125.01 Y155.302 E7.19423
G1 X124.842 Y154.436 E7.24117
G1 X124.702 Y153.496 E7.29175
G1 X124.583 Y152.553 E7.34233
G1 X124.51 Y151.686 E7.38863
G1 X124.475 Y150.799 E7.43587
G1 X124.458 Y149.749 E7.49175
G1 X124.482 Y148.856 E7.53929
G1 X124.547 Y147.951 E7.58758
G1 X124.643 Y146.933 E7.64199
G1 X124.765 Y146.042 E7.68985
G1 X124.926 Y145.171 E7.73699
G1 X125.136 Y144.159 E7.79199
G1 X125.37 Y143.241 E7.8424
G1 X125.71 Y142.129 E7.90428
G1 X125.943 Y141.423 E7.94385
G1 X126.233 Y140.647 E7.98793
G1 X126.59 Y139.807 E8.0365
G1 X127.046 Y138.804 E8.09514
G1 X127.489 Y137.938 E8.1469
G1 X128.042 Y136.973 E8.20609
G1 X128.391 Y136.389 E8.2423
G1 X128.853 Y135.681 E8.28728
G1 X129.392 Y134.93 E8.33648
G1 X130.004 Y134.116 E8.39067
G1 X130.516 Y133.494 E8.43355
G0 F810 X130.587 Y133.407
G0 X131.178 Y132.753
G0 X131.868 Y132.02
G0 F6000 X132.159 Y132.295
G1 F900 X132.739 Y131.725 E8.47682
G1 X133.152 Y131.351 E8.50647
G1 X134.215 Y130.44 E8.58097
G1 X134.895 Y129.908 E8.62692
G1 X135.645 Y129.376 E8.67585
G1 X136.474 Y128.816 E8.72909
G1 X137.186 Y128.377 E8.7736
G1 X137.952 Y127.95 E8.82027
G1 X138.859 Y127.47 E8.87488
G1 X139.717 Y127.066 E8.92535
G1 X140.837 Y126.604 E8.98982
G1 X141.5 Y126.348 E9.02765
G1 X142.297 Y126.077 E9.07244
G1 X143.154 Y125.825 E9.11998
G1 X144.132 Y125.562 E9.17388
G1 X144.908 Y125.387 E9.21621
G1 X145.79 Y125.229 E9.26389
G1 X146.81 Y125.071 E9.31882
G1 X147.644 Y124.977 E9.36348
G1 X148.547 Y124.916 E9.41165
G1 X149.556 Y124.871 E9.4654
G1 X150.405 Y124.869 E9.51058
G1 X151.304 Y124.907 E9.55846
G1 X152.346 Y124.976 E9.61403
G1 X153.227 Y125.073 E9.6612
G1 X154.101 Y125.211 E9.70829
G1 X155.153 Y125.401 E9.76518
G1 X156.066 Y125.61 E9.81502
G1 X157.145 Y125.911 E9.87463
G1 X157.768 Y126.097 E9.90923
G1 X158.594 Y126.383 E9.95575
G1 X159.832 Y126.876 E10.02666
G1 X160.474 Y127.152 E10.06385
G1 X161.233 Y127.517 E10.10867
G1 X162.204 Y128.036 E10.16726
G1 X162.86 Y128.405 E10.20731
G1 X163.593 Y128.86 E10.25323
G1 X164.564 Y129.523 E10.3158
G1 X165.161 Y129.951 E10.35489
G1 X165.86 Y130.5 E10.40219
G1 X166.698 Y131.222 E10.46105
G1 X167.27 Y131.736 E10.50197
G1 X167.895 Y132.348 E10.54852
G1 X168.521 Y133.016 E10.59724
G1 X169.212 Y133.789 E10.65242
G1 X169.731 Y134.424 E10.69606
G1 X170.258 Y135.128 E10.74286
G1 X170.828 Y135.925 E10.795
G1 X171.291 Y136.634 E10.84007
G1 X171.736 Y137.388 E10.88666
G1 X172.274 Y138.35 E10.94532
G1 X172.683 Y139.163 E10.99375
G1 X173.049 Y139.981 E11.04144
G1 X173.405 Y140.822 E11.09004
G1 X173.693 Y141.589 E11.13363
G1 X173.976 Y142.459 E11.18232
G1 X174.265 Y143.421 E11.23577
G1 X174.474 Y144.237 E11.2806
G1 X174.608 Y144.868 E11.31493
G1 X174.841 Y146.116 E11.38249
G1 X174.966 Y147.016 E11.43085
G1 X175.052 Y147.937 E11.48007
G1 X175.123 Y148.959 E11.53459
G1 X175.143 Y149.817 E11.58026
G1 X175.119 Y150.984 E11.64238
G1 X175.089 Y151.692 E11.68009
G1 X175.02 Y152.515 E11.72404
G1 X174.908 Y153.391 E11.77104
G1 X174.754 Y154.414 E11.82609
G1 X174.582 Y155.296 E11.87391
G1 X174.36 Y156.213 E11.92412
G1 X174.11 Y157.152 E11.97583
G1 X173.85 Y157.976 E12.02181
G1 X173.549 Y158.805 E12.06874
G1 X173.179 Y159.758 E12.12315
G1 X172.844 Y160.521 E12.16749
G1 X172.551 Y161.12 E12.20298
G1 X171.99 Y162.204 E12.26793
G1 X171.531 Y162.997 E12.31669
G1 X171.023 Y163.79 E12.36681
G1 X170.472 Y164.61 E12.41938
G1 X169.953 Y165.311 E12.4658
G1 X169.342 Y166.066 E12.51749
G1 X168.674 Y166.85 E12.5723
G1 X168.101 Y167.463 E12.61695
G1 X167.326 Y168.225 E12.67479
G1 X166.794 Y168.726 E12.71368
G1 X166.196 Y169.247 E12.75589
G1 X165.498 Y169.803 E12.80338
G1 X164.646 Y170.449 E12.86028
G1 X163.943 Y170.937 E12.90582
G1 X163.457 Y171.245 E12.93644
G1 X162.382 Y171.894 E13.00326
G1 X161.584 Y172.327 E13.05158
G1 X160.668 Y172.772 E13.10577
G1 X159.818 Y173.16 E13.15549
G1 X159.078 Y173.46 E13.19799
G1 X158.179 Y173.781 E13.24879
G1 X157.232 Y174.093 E13.30185
G1 X156.365 Y174.336 E13.34976
G1 X155.186 Y174.609 E13.41416
G1 X154.478 Y174.755 E13.45263
G1 X153.683 Y174.886 E13.49551
G1 X152.844 Y174.988 E13.54049
G1 X151.79 Y175.092 E13.59685
G1 X150.878 Y175.141 E13.64545
G1 X149.967 Y175.149 E13.69394
G1 X148.996 Y175.137 E13.74561
G1 X148.175 Y175.091 E13.78937
G1 X147.323 Y175.006 E13.83494
G1 X146.265 Y174.876 E13.89166
G1 X145.385 Y174.728 E13.93915
G1 X144.222 Y174.477 E14.00247
G1 X143.521 Y174.307 E14.04085
G1 X142.785 Y174.099 E14.08155
G1 X141.919 Y173.814 E14.13007
G1 X140.91 Y173.454 E14.18708
G1 X140.091 Y173.121 E14.23413
G1 X139.077 Y172.653 E14.29356
G1 X138.381 Y172.312 E14.33481
G1 X137.61 Y171.892 E14.38153
G1 X136.626 Y171.297 E14.44272
G1 X136.029 Y170.919 E14.48033
G1 X135.329 Y170.433 E14.52568
G1 X134.541 Y169.832 E14.57841
G1 X133.752 Y169.2 E14.63221
G1 X133.073 Y168.604 E14.68029
G1 X132.241 Y167.804 E14.74171
G1 X131.785 Y167.347 E14.77607
G1 X131.196 Y166.704 E14.82247
G1 X130.407 Y165.76 E14.88795
G1 X129.963 Y165.202 E14.92589
G1 X129.465 Y164.519 E14.97088
G1 X128.784 Y163.492 E15.03645
G1 X128.339 Y162.779 E15.08118
G1 X127.917 Y162.034 E15.12674
G1 X127.545 Y161.309 E15.17011
G1 X127.114 Y160.426 E15.2224
G1 X126.795 Y159.7 E15.2646
G1 X126.585 Y159.165 E15.29518
G1 X126.146 Y157.959 E15.36348
G1 X125.88 Y157.108 E15.41093
G1 X125.566 Y155.912 E15.47673
G1 X125.399 Y155.21 E15.51513
G1 X125.237 Y154.377 E15.56029
G1 X125.099 Y153.446 E15.61038
G1 X124.98 Y152.503 E15.66096
G1 X124.91 Y151.668 E15.70555
G1 X124.875 Y150.792 E15.75221
G1 X124.858 Y149.742 E15.80809
G1 X124.881 Y148.884 E15.85377
G1 X124.945 Y147.988 E15.90157
G1 X125.041 Y146.97 E15.95598
G1 X125.159 Y146.114 E16.00197
G1 X125.318 Y145.253 E16.04856
G1 X125.528 Y144.241 E16.10356
G1 X125.753 Y143.357 E16.15211
G1 X126.09 Y142.254 E16.21348
G1 X126.323 Y141.548 E16.25305
G1 X126.602 Y140.801 E16.29548
G1 X126.833 Y140.25 E16.32728
G1 X127.411 Y138.97 E16.40202
G1 X127.836 Y138.137 E16.45178
G1 X128.385 Y137.179 E16.51054
G1 X128.734 Y136.595 E16.54674
G1 X129.179 Y135.913 E16.59008
G1 X129.712 Y135.17 E16.63874
G1 X130.324 Y134.356 E16.69294
G1 X130.807 Y133.769 E16.73339
G0 F810 X130.885 Y133.674
G0 X131.304 Y133.207
G0 X132.159 Y132.295
G1 F1500 E10.23339
;MESH:RunnerHolder_v1.stl
G0 F6000 X136.968 Y141.398
G0 X137.841 Y142.039
G0 X149.207 Y164.049
G1 F1500 E16.73339
G0 F6000 X149.192 Y164.348
;TYPE:WALL-INNER
G1 F900 X150.77 Y164.349 E16.81737
G1 X152.344 Y164.178 E16.90162
G1 X153.891 Y163.832 E16.98598
G1 X155.384 Y163.322 E17.06994
G1 X156.817 Y162.647 E17.15424
G1 X158.165 Y161.821 E17.23837
G1 X159.415 Y160.851 E17.32257
G1 X160.551 Y159.749 E17.40679
G1 X161.56 Y158.529 E17.49104
G1 X162.425 Y157.206 E17.57516
G1 X163.141 Y155.796 E17.65932
G1 X163.701 Y154.302 E17.74422
G1 X164.089 Y152.78 E17.82781
G1 X164.309 Y151.208 E17.91228
G1 X164.331 Y150.389 E17.95588
G1 X164.353 Y149.61 E17.99735
G1 X164.224 Y148.047 E18.08081
G1 X163.923 Y146.505 E18.16442
G1 X163.457 Y145.009 E18.2478
G1 X162.82 Y143.545 E18.33277
G1 X162.028 Y142.172 E18.41712
G1 X161.095 Y140.897 E18.50119
G1 X160.024 Y139.732 E18.58541
G1 X158.834 Y138.691 E18.66955
G1 X157.537 Y137.791 E18.75356
G1 X156.144 Y137.035 E18.8379
G1 X154.665 Y136.435 E18.92284
G1 X153.156 Y136.006 E19.00632
G1 X151.595 Y135.742 E19.09057
G1 X150.019 Y135.652 E19.17458
G1 X148.442 Y135.738 E19.25863
G1 X146.88 Y135.996 E19.34288
G1 X145.371 Y136.422 E19.42632
G1 X143.878 Y137.023 E19.51197
G1 X142.477 Y137.782 E19.59676
G1 X141.192 Y138.671 E19.67991
G1 X140.001 Y139.707 E19.76392
G1 X138.924 Y140.873 E19.84839
G1 X137.991 Y142.144 E19.93229
G1 X137.2 Y143.506 E20.01611
G1 X136.559 Y144.96 E20.10067
G1 X136.08 Y146.481 E20.18553
G1 X135.781 Y148.021 E20.26901
G1 X135.648 Y149.599 E20.35329
G1 X135.689 Y151.18 E20.43745
G1 X135.904 Y152.743 E20.52141
G1 X136.3 Y154.303 E20.60706
G1 X136.843 Y155.761 E20.68986
G1 X137.555 Y157.173 E20.77401
G1 X138.42 Y158.498 E20.85822
G1 X139.423 Y159.721 E20.94239
G1 X140.556 Y160.826 E21.02661
G1 X141.82 Y161.812 E21.11192
G1 X143.166 Y162.638 E21.19596
G1 X144.576 Y163.305 E21.27897
G1 X146.073 Y163.822 E21.36325
G1 X147.212 Y164.08 E21.4254
G0 F810 X147.618 Y164.171
G0 X149.192 Y164.348
G0 F6000 X149.17 Y164.748
;TYPE:WALL-OUTER
G1 F900 X150.792 Y164.749 E21.51171
G1 X152.41 Y164.573 E21.59833
G1 X153.999 Y164.218 E21.68497
G1 X155.534 Y163.693 E21.7713
G1 X157.007 Y162.999 E21.85796
G1 X158.393 Y162.151 E21.94442
G1 X159.678 Y161.153 E22.03101
G1 X160.845 Y160.021 E22.11753
G1 X161.882 Y158.767 E22.20412
G1 X162.772 Y157.406 E22.29066
G1 X163.508 Y155.957 E22.37715
G1 X164.083 Y154.422 E22.46438
G1 X164.482 Y152.857 E22.55033
G1 X164.708 Y151.242 E22.63711
G1 X164.731 Y150.4 E22.68193
G1 X164.753 Y149.599 E22.72458
G1 X164.621 Y147.992 E22.81038
G1 X164.311 Y146.407 E22.89633
G1 X163.833 Y144.869 E22.98204
G1 X163.178 Y143.365 E23.06933
G1 X162.364 Y141.954 E23.15602
G1 X161.405 Y140.643 E23.24246
G1 X160.304 Y139.445 E23.32905
G1 X159.08 Y138.375 E23.41557
G1 X157.747 Y137.45 E23.50191
G1 X156.315 Y136.673 E23.58861
G1 X154.795 Y136.056 E23.67591
G1 X153.244 Y135.615 E23.76172
G1 X151.64 Y135.344 E23.84829
G1 X150.019 Y135.252 E23.93469
G1 X148.398 Y135.34 E24.02108
G1 X146.793 Y135.605 E24.10765
G1 X145.241 Y136.043 E24.19347
G1 X143.708 Y136.661 E24.28143
G1 X142.267 Y137.44 E24.3686
G1 X140.946 Y138.355 E24.45411
G1 X139.722 Y139.419 E24.54042
G1 X138.615 Y140.618 E24.62726
G1 X137.656 Y141.924 E24.71349
G1 X136.843 Y143.324 E24.79964
G1 X136.184 Y144.819 E24.88659
G1 X135.692 Y146.383 E24.97384
G1 X135.384 Y147.966 E25.05966
G1 X135.248 Y149.587 E25.14623
G1 X135.29 Y151.212 E25.23273
G1 X135.511 Y152.819 E25.31905
G1 X135.918 Y154.423 E25.40712
G1 X136.476 Y155.921 E25.49219
G1 X137.208 Y157.373 E25.57872
G1 X138.097 Y158.735 E25.66528
G1 X139.128 Y159.992 E25.75179
G1 X140.292 Y161.128 E25.83834
G1 X141.592 Y162.141 E25.92605
G1 X142.975 Y162.99 E26.01241
G1 X144.425 Y163.676 E26.09777
G1 X145.963 Y164.207 E26.18436
G1 X147.19 Y164.485 E26.25131
G0 F810 X147.552 Y164.566
G0 X149.17 Y164.748
G0 F6000 X149.215 Y163.988
;TYPE:SKIN
G1 F900 X150.749 Y163.989 E26.33294
G1 X152.285 Y163.822 E26.41517
G1 X153.794 Y163.484 E26.49746
G1 X155.246 Y162.987 E26.57913
G1 X156.645 Y162.327 E26.66145
G1 X157.959 Y161.524 E26.7434
G1 X159.178 Y160.577 E26.82554
G1 X160.285 Y159.503 E26.90762
G1 X161.27 Y158.314 E26.98979
G1 X162.114 Y157.023 E27.07187
G1 X162.81 Y155.65 E27.15379
G1 X163.359 Y154.18 E27.23729
