;FLAVOR:Marlin
;TIME:2085
;Filament used: 1.14154m
;Layer height: 0.16
;MINX:101.046
;MINY:65.93
;MINZ:0.2
;MAXX:196.182
;MAXY:271.706
;MAXZ:1
;Generated with Cura_SteamEngine 5.2.1
M140 S60
M105
M190 S60
M104 S215
M105
M109 S215
M82 ;absolute extrusion mode
; Ender 3 Max Custom Start G-code
G92 E0 ; Reset Extruder
G28 ; Home all axes
G1 Z2.0 F3000 ; Move Z Axis up little to prevent scratching of Heat Bed
G1 X0.1 Y20 Z0.3 F5000.0 ; Move to start position
G1 X0.1 Y200.0 Z0.3 F1500.0 E15 ; Draw the first line
G1 X0.4 Y200.0 Z0.3 F5000.0 ; Move to side a little
G1 X0.4 Y20 Z0.3 F1500.0 E30 ; Draw the second line
G92 E0 ; Reset Extruder
G1 Z2.0 F3000 ; Move Z Axis up little to prevent scratching of Heat Bed
G1 X5 Y20 Z0.3 F5000.0 ; Move over to prevent blob squish
G92 E0
G92 E0
G1 F1500 E-6.5
;LAYER_COUNT:6
;LAYER:0
M107
G0 F6000 X112.21 Y76.473 Z0.2
;TYPE:SKIRT
G1 F1500 E0
G1 F1200 X112.778 Y75.727 E0.03119
G1 X113.409 Y75.032 E0.06241
G1 X114.096 Y74.394 E0.09359
G1 X114.835 Y73.816 E0.12479
G1 X115.421 Y73.425 E0.14823
G1 X117.454 Y72.16 E0.22786
G1 X118.553 Y71.462 E0.27117
G1 X119.365 Y70.993 E0.30236
G1 X120.215 Y70.596 E0.33356
G1 X121.095 Y70.272 E0.36475
G1 X121.999 Y70.024 E0.39593
G1 X122.922 Y69.855 E0.42714
G1 X124.108 Y69.753 E0.46673
G1 X124.901 Y69.728 E0.49312
G1 X127.51 Y69.615 E0.57997
G1 X130.045 Y69.432 E0.66451
G1 X132.502 Y69.186 E0.74664
G1 X135.057 Y68.856 E0.83232
G1 X137.513 Y68.469 E0.91502
G1 X139.977 Y68.008 E0.99839
G1 X142.408 Y67.481 E1.08112
G1 X144.731 Y66.898 E1.16078
G1 X144.989 Y66.845 E1.16954
G1 X146.02 Y66.581 E1.20494
G1 X146.667 Y66.429 E1.22705
G1 X147.202 Y66.321 E1.2452
G1 X147.86 Y66.205 E1.26742
G1 X148.504 Y66.111 E1.28907
G1 X149.117 Y66.04 E1.30959
G1 X149.765 Y65.982 E1.33123
G1 X150.775 Y65.936 E1.36486
G1 X151.379 Y65.93 E1.38495
G1 X151.957 Y65.94 E1.40418
G1 X152.641 Y65.973 E1.42695
G1 X153.369 Y66.031 E1.45124
G1 X154.01 Y66.101 E1.47269
G1 X154.499 Y66.169 E1.48911
G1 X155.169 Y66.283 E1.51172
G1 X155.929 Y66.437 E1.53751
G1 X156.618 Y66.6 E1.56106
G1 X157.412 Y66.815 E1.58842
G1 X159.921 Y67.455 E1.67454
G1 X162.417 Y68.016 E1.75963
G1 X164.839 Y68.489 E1.8417
G1 X167.333 Y68.903 E1.92579
G1 X169.839 Y69.247 E2.00992
G1 X172.319 Y69.517 E2.09289
G1 X174.843 Y69.718 E2.17711
G1 X177.39 Y69.85 E2.26194
G1 X178.217 Y69.882 E2.28946
G1 X179.152 Y69.959 E2.32067
G1 X180.077 Y70.114 E2.35186
G1 X180.985 Y70.348 E2.38305
G1 X181.87 Y70.659 E2.41425
G1 X182.725 Y71.043 E2.44542
G1 X183.453 Y71.444 E2.47306
G1 X186.179 Y73.081 E2.57882
G1 X186.51 Y73.273 E2.59155
G1 X187.3 Y73.778 E2.62274
G1 X188.045 Y74.348 E2.65394
G1 X188.738 Y74.979 E2.68511
G1 X189.376 Y75.667 E2.71632
G1 X189.952 Y76.407 E2.74751
G1 X190.463 Y77.194 E2.77871
G1 X190.905 Y78.021 E2.8099
G1 X191.276 Y78.882 E2.84109
G1 X191.571 Y79.773 E2.8723
G1 X191.79 Y80.685 E2.9035
G1 X191.93 Y81.612 E2.93468
G1 X191.99 Y82.554 E2.96607
G1 X192.009 Y83.738 E3.00546
G1 X191.99 Y85.02 E3.0481
G1 X191.957 Y86.211 E3.08773
G1 X191.957 Y88.73 E3.17151
G1 X192.012 Y90.962 E3.24577
G1 X192.004 Y92.199 E3.28692
G1 X191.966 Y92.987 E3.31316
G1 X191.76 Y95.444 E3.39516
G1 X191.617 Y97.971 E3.47935
G1 X191.545 Y100.466 E3.56236
G1 X191.545 Y102.99 E3.64631
G1 X191.616 Y105.541 E3.73119
G1 X191.756 Y108.001 E3.81314
G1 X191.972 Y110.547 E3.89813
G1 X192.253 Y113.027 E3.98114
G1 X192.614 Y115.564 E4.06637
G1 X193.033 Y118.015 E4.14908
G1 X193.521 Y120.455 E4.23184
G1 X194.087 Y122.913 E4.31573
G1 X194.732 Y125.393 E4.40096
G1 X195.352 Y127.545 E4.47545
G1 X195.7 Y128.695 E4.51541
G1 X195.933 Y129.604 E4.54662
G1 X196.088 Y130.529 E4.57781
G1 X196.169 Y131.671 E4.61589
G1 X196.182 Y132.461 E4.64217
G1 X196.181 Y173.574 E6.0096
G1 X196.17 Y174.285 E6.03325
G1 X196.115 Y175.221 E6.06443
G1 X196.014 Y175.969 E6.08954
G1 X195.567 Y178.585 E6.17781
G1 X195.209 Y181.104 E6.26243
G1 X194.93 Y183.562 E6.34471
G1 X194.717 Y186.085 E6.42892
G1 X194.575 Y188.607 E6.51294
G1 X194.504 Y191.131 E6.59692
G1 X194.504 Y193.655 E6.68087
G1 X194.575 Y196.141 E6.76359
G1 X194.72 Y198.673 E6.84794
G1 X194.931 Y201.16 E6.93095
G1 X195.219 Y203.673 E7.01508
G1 X195.591 Y206.284 E7.1028
G1 X195.744 Y207.278 E7.13625
G1 X195.848 Y208.21 E7.16744
G1 X195.871 Y208.732 E7.18482
G1 X195.884 Y209.481 E7.20974
G1 X195.914 Y230.064 E7.89433
G1 X195.883 Y250.64 E8.57869
G1 X195.872 Y251.335 E8.60181
G1 X195.817 Y252.271 E8.633
G1 X195.682 Y253.2 E8.66422
G1 X195.47 Y254.113 E8.69539
G1 X195.18 Y255.005 E8.72659
G1 X194.815 Y255.869 E8.75779
G1 X194.377 Y256.699 E8.789
G1 X193.871 Y257.488 E8.82018
G1 X193.3 Y258.232 E8.85137
G1 X192.667 Y258.924 E8.88256
G1 X191.977 Y259.559 E8.91375
G1 X191.236 Y260.134 E8.94495
G1 X190.448 Y260.643 E8.97615
G1 X189.62 Y261.084 E9.00735
G1 X188.758 Y261.452 E9.03852
G1 X187.872 Y261.744 E9.06955
G1 X186.693 Y262.076 E9.11029
G1 X151.812 Y271.211 E10.30956
G1 X151.119 Y271.383 E10.33331
G1 X150.2 Y271.57 E10.3645
G1 X149.268 Y271.678 E10.39571
G1 X148.331 Y271.706 E10.42689
G1 X147.394 Y271.654 E10.4581
G1 X146.466 Y271.523 E10.48927
G1 X145.834 Y271.387 E10.51077
G1 X145.068 Y271.198 E10.53701
G1 X109.265 Y261.812 E11.76807
G1 X108.369 Y261.536 E11.79925
G1 X107.5 Y261.184 E11.83043
G1 X106.663 Y260.76 E11.86164
G1 X105.866 Y260.266 E11.89283
G1 X105.114 Y259.706 E11.92401
G1 X104.412 Y259.083 E11.95523
G1 X103.766 Y258.404 E11.9864
G1 X103.18 Y257.671 E12.01762
G1 X102.659 Y256.892 E12.04879
G1 X102.206 Y256.07 E12.08
G1 X101.824 Y255.214 E12.11118
G1 X101.517 Y254.328 E12.14237
G1 X101.287 Y253.418 E12.17359
G1 X101.135 Y252.493 E12.20476
G1 X101.056 Y251.346 E12.243
G1 X101.046 Y250.713 E12.26406
G1 X101.046 Y209.486 E13.63528
G1 X101.057 Y208.776 E13.65889
G1 X101.112 Y207.839 E13.69011
G1 X101.214 Y207.089 E13.71529
G1 X101.658 Y204.498 E13.80272
G1 X102.012 Y202.012 E13.88624
G1 X102.298 Y199.489 E13.97069
G1 X102.511 Y196.991 E14.05408
G1 X102.652 Y194.509 E14.13676
G1 X102.724 Y191.952 E14.22184
G1 X102.724 Y189.463 E14.30462
G1 X102.652 Y186.905 E14.38974
G1 X102.512 Y184.444 E14.47172
G1 X102.296 Y181.89 E14.55697
G1 X102.016 Y179.438 E14.63906
G1 X101.636 Y176.762 E14.72895
G1 X101.484 Y175.783 E14.76191
G1 X101.38 Y174.851 E14.7931
G1 X101.356 Y174.304 E14.81131
G1 X101.344 Y173.579 E14.83542
G1 X101.314 Y152.995 E15.52005
G1 X101.345 Y132.412 E16.20465
G1 X101.356 Y131.71 E16.228
G1 X101.411 Y130.773 E16.25922
G1 X101.545 Y129.845 E16.2904
G1 X101.758 Y128.932 E16.32158
G1 X102.048 Y128.04 E16.35278
G1 X102.274 Y127.481 E16.37283
G1 X102.747 Y126.397 E16.41217
G1 X103.773 Y123.954 E16.5003
G1 X104.685 Y121.594 E16.58445
G1 X105.513 Y119.261 E16.66679
G1 X106.288 Y116.864 E16.75058
G1 X106.999 Y114.428 E16.83498
G1 X107.639 Y111.983 E16.91904
G1 X108.199 Y109.571 E17.0014
G1 X108.707 Y107.049 E17.08696
G1 X109.127 Y104.62 E17.16895
G1 X109.488 Y102.112 E17.25323
G1 X109.779 Y99.596 E17.33747
G1 X109.996 Y97.085 E17.4213
G1 X110.141 Y94.597 E17.50419
G1 X110.219 Y91.882 E17.59453
G1 X110.247 Y89.884 E17.66099
G1 X110.282 Y88.646 E17.70218
G1 X110.282 Y86.139 E17.78556
G1 X110.226 Y83.88 E17.86072
G1 X110.234 Y82.634 E17.90216
G1 X110.285 Y81.697 E17.93337
G1 X110.416 Y80.768 E17.96458
G1 X110.625 Y79.854 E17.99576
G1 X110.911 Y78.961 E18.02695
G1 X111.273 Y78.096 E18.05814
G1 X111.707 Y77.264 E18.08935
G1 X112.21 Y76.473 E18.12053
G0 F6000 X112.606 Y76.605
G1 F1200 X113.173 Y75.879 E18.15117
G1 X113.801 Y75.206 E18.18178
G1 X114.485 Y74.59 E18.2124
G1 X115.219 Y74.035 E18.243
G1 X115.632 Y73.764 E18.25943
G1 X117.658 Y72.503 E18.3388
G1 X118.767 Y71.799 E18.38249
G1 X119.565 Y71.34 E18.41311
G1 X120.4 Y70.952 E18.44374
G1 X121.265 Y70.637 E18.47435
G1 X122.154 Y70.399 E18.50496
G1 X123.061 Y70.239 E18.5356
G1 X124.12 Y70.153 E18.57094
G1 X124.93 Y70.128 E18.59789
G1 X127.523 Y70.015 E18.68421
G1 X130.074 Y69.831 E18.76928
G1 X132.56 Y69.582 E18.85238
G1 X135.099 Y69.255 E18.93752
G1 X137.577 Y68.864 E19.02096
G1 X140.036 Y68.403 E19.10417
G1 X142.522 Y67.865 E19.18877
G1 X144.828 Y67.286 E19.26785
G1 X145.073 Y67.236 E19.27617
G1 X146.119 Y66.968 E19.31208
G1 X146.755 Y66.819 E19.33381
G1 X147.272 Y66.715 E19.35135
G1 X147.93 Y66.599 E19.37357
G1 X148.55 Y66.508 E19.39441
G1 X149.163 Y66.437 E19.41494
G1 X149.796 Y66.381 E19.43607
G1 X150.79 Y66.336 E19.46917
G1 X151.372 Y66.33 E19.48853
G1 X151.95 Y66.34 E19.50775
G1 X152.609 Y66.371 E19.5297
G1 X153.337 Y66.429 E19.55399
G1 X153.955 Y66.497 E19.57467
G1 X154.444 Y66.565 E19.59109
G1 X155.089 Y66.675 E19.61285
G1 X155.849 Y66.829 E19.63864
G1 X156.513 Y66.986 E19.66133
G1 X157.337 Y67.209 E19.68973
G1 X159.807 Y67.839 E19.77451
G1 X162.324 Y68.405 E19.86032
G1 X164.802 Y68.889 E19.94429
G1 X167.244 Y69.295 E20.02663
G1 X169.782 Y69.643 E20.11183
G1 X172.309 Y69.917 E20.19637
G1 X174.794 Y70.116 E20.27929
G1 X177.429 Y70.252 E20.36705
G1 X178.202 Y70.282 E20.39278
G1 X179.119 Y70.358 E20.42338
G1 X180.027 Y70.513 E20.45402
G1 X180.917 Y70.746 E20.48462
G1 X181.784 Y71.055 E20.51523
G1 X182.621 Y71.439 E20.54586
G1 X183.247 Y71.787 E20.56968
G1 X185.978 Y73.427 E20.67563
G1 X186.309 Y73.619 E20.68836
G1 X187.085 Y74.115 E20.71899
G1 X187.814 Y74.677 E20.74961
G1 X188.493 Y75.299 E20.78023
G1 X189.114 Y75.978 E20.81084
G1 X189.675 Y76.708 E20.84146
G1 X190.17 Y77.485 E20.8721
G1 X190.596 Y78.301 E20.90272
G1 X190.949 Y79.151 E20.93333
G1 X191.227 Y80.029 E20.96396
G1 X191.428 Y80.927 E20.99457
G1 X191.55 Y81.84 E21.0252
G1 X191.591 Y82.563 E21.04929
G1 X191.609 Y83.733 E21.08821
G1 X191.59 Y85.009 E21.13065
G1 X191.557 Y86.2 E21.17028
G1 X191.557 Y88.74 E21.25476
G1 X191.612 Y90.972 E21.32902
G1 X191.604 Y92.194 E21.36967
G1 X191.568 Y92.954 E21.39497
G1 X191.36 Y95.425 E21.47745
G1 X191.218 Y97.938 E21.56116
G1 X191.145 Y100.49 E21.64608
G1 X191.145 Y103.001 E21.7296
G1 X191.216 Y105.539 E21.81404
G1 X191.359 Y108.059 E21.89799
G1 X191.573 Y110.59 E21.98247
G1 X191.853 Y113.057 E22.06505
G1 X192.217 Y115.616 E22.15102
G1 X192.64 Y118.089 E22.23447
G1 X193.127 Y120.525 E22.3171
G1 X193.703 Y123.023 E22.40236
G1 X194.344 Y125.489 E22.4871
G1 X194.985 Y127.712 E22.56405
G1 X195.317 Y128.811 E22.60224
G1 X195.545 Y129.703 E22.63286
G1 X195.695 Y130.611 E22.66347
G1 X195.769 Y131.679 E22.69908
G1 X195.782 Y132.461 E22.72509
G1 X195.781 Y173.568 E24.09231
G1 X195.77 Y174.279 E24.11596
G1 X195.716 Y175.198 E24.14658
G1 X195.619 Y175.902 E24.17022
G1 X195.175 Y178.498 E24.25782
G1 X194.814 Y181.039 E24.34318
G1 X194.529 Y183.554 E24.42736
G1 X194.316 Y186.065 E24.51118
G1 X194.175 Y188.572 E24.5947
G1 X194.104 Y191.12 E24.67948
G1 X194.104 Y193.632 E24.76302
G1 X194.177 Y196.173 E24.84757
G1 X194.32 Y198.692 E24.93149
G1 X194.534 Y201.205 E25.01538
G1 X194.824 Y203.743 E25.10034
G1 X195.19 Y206.309 E25.18655
G1 X195.349 Y207.339 E25.22121
G1 X195.45 Y208.254 E25.25183
G1 X195.471 Y208.741 E25.26804
G1 X195.484 Y209.482 E25.29269
G1 X195.514 Y230.064 E25.97725
G1 X195.483 Y250.634 E26.66142
G1 X195.472 Y251.329 E26.68453
G1 X195.417 Y252.248 E26.71515
G1 X195.283 Y253.159 E26.74578
G1 X195.07 Y254.054 E26.77638
G1 X194.781 Y254.928 E26.807
G1 X194.417 Y255.774 E26.83763
G1 X193.98 Y256.585 E26.86827
G1 X193.475 Y257.354 E26.89887
G1 X192.906 Y258.077 E26.92947
G1 X192.275 Y258.748 E26.96011
G1 X191.589 Y259.362 E26.99073
G1 X190.852 Y259.914 E27.02135
G1 X190.07 Y260.4 E27.05198
G1 X189.249 Y260.816 E27.08259
G1 X188.394 Y261.159 E27.11323
G1 X187.763 Y261.359 E27.13524
G1 X186.592 Y261.689 E27.17571
G1 X151.715 Y270.823 E28.37484
G1 X151.022 Y270.995 E28.39859
G1 X150.12 Y271.178 E28.4292
G1 X149.205 Y271.281 E28.45983
G1 X148.285 Y271.305 E28.49044
G1 X147.366 Y271.249 E28.52106
G1 X146.455 Y271.114 E28.55169
G1 X145.93 Y270.998 E28.56958
G1 X145.015 Y270.771 E28.60093
G1 X109.367 Y261.425 E29.82666
G1 X108.487 Y261.154 E29.85728
G1 X107.635 Y260.806 E29.8879
G1 X106.815 Y260.386 E29.91854
G1 X106.035 Y259.897 E29.94916
G1 X105.301 Y259.342 E29.97976
G1 X104.618 Y258.725 E30.01038
G1 X103.99 Y258.051 E30.04102
G1 X103.424 Y257.325 E30.07164
G1 X102.922 Y256.553 E30.10226
G1 X102.49 Y255.74 E30.13288
G1 X102.13 Y254.893 E30.16349
G1 X101.844 Y254.018 E30.19411
G1 X101.636 Y253.121 E30.22474
G1 X101.506 Y252.21 E30.25535
G1 X101.456 Y251.339 E30.28436
G1 X101.446 Y250.706 E30.30542
G1 X101.446 Y209.492 E31.6762
G1 X101.457 Y208.782 E31.69982
G1 X101.511 Y207.863 E31.73044
G1 X101.608 Y207.156 E31.75417
G1 X102.054 Y204.55 E31.84211
G1 X102.412 Y202.043 E31.92634
G1 X102.692 Y199.567 E32.00922
G1 X102.91 Y197.011 E32.09454
G1 X103.052 Y194.509 E32.17789
G1 X103.124 Y191.963 E32.2626
G1 X103.124 Y189.452 E32.34612
G1 X103.052 Y186.907 E32.4308
G1 X102.909 Y184.386 E32.51478
G1 X102.696 Y181.878 E32.5985
G1 X102.412 Y179.377 E32.68222
G1 X102.032 Y176.706 E32.77195
G1 X101.879 Y175.722 E32.80507
G1 X101.778 Y174.807 E32.83569
G1 X101.756 Y174.296 E32.8527
G1 X101.744 Y173.578 E32.87658
G1 X101.714 Y152.995 E33.56118
G1 X101.745 Y132.418 E34.24557
G1 X101.756 Y131.716 E34.26893
G1 X101.811 Y130.797 E34.29955
G1 X101.945 Y129.886 E34.33017
G1 X102.157 Y128.99 E34.3608
G1 X102.446 Y128.116 E34.39141
G1 X102.641 Y127.641 E34.40849
G1 X103.112 Y126.563 E34.44762
G1 X104.144 Y124.105 E34.53629
G1 X105.06 Y121.736 E34.62076
G1 X105.895 Y119.381 E34.70387
G1 X106.666 Y116.994 E34.7873
G1 X107.384 Y114.536 E34.87247
G1 X108.021 Y112.103 E34.95612
G1 X108.594 Y109.635 E35.04039
G1 X109.1 Y107.125 E35.12555
G1 X109.524 Y104.673 E35.20831
G1 X109.888 Y102.144 E35.2933
G1 X110.177 Y99.64 E35.37713
G1 X110.393 Y97.144 E35.46046
G1 X110.539 Y94.631 E35.54418
G1 X110.619 Y91.832 E35.63732
G1 X110.647 Y89.896 E35.70172
G1 X110.682 Y88.658 E35.74291
G1 X110.682 Y86.129 E35.82702
G1 X110.626 Y83.87 E35.90218
G1 X110.634 Y82.638 E35.94316
G1 X110.685 Y81.719 E35.97377
G1 X110.815 Y80.808 E36.00438
G1 X111.024 Y79.911 E36.03501
G1 X111.31 Y79.036 E36.06563
G1 X111.671 Y78.189 E36.09625
G1 X112.104 Y77.377 E36.12686
G1 X112.606 Y76.605 E36.15749
G0 F6000 X113.002 Y76.74
G1 F1200 X113.567 Y76.035 E36.18754
G1 X114.193 Y75.383 E36.2176
G1 X114.873 Y74.79 E36.24761
G1 X115.844 Y74.104 E36.28715
G1 X117.862 Y72.848 E36.36621
G1 X118.982 Y72.137 E36.41033
G1 X119.765 Y71.687 E36.44037
G1 X120.584 Y71.308 E36.47038
G1 X121.435 Y71.004 E36.50044
G1 X122.308 Y70.775 E36.53046
G1 X123.199 Y70.625 E36.56051
G1 X124.133 Y70.553 E36.59167
G1 X124.957 Y70.527 E36.61909
G1 X127.535 Y70.415 E36.70491
G1 X130.107 Y70.23 E36.79068
G1 X132.614 Y69.979 E36.87448
G1 X135.146 Y69.652 E36.95939
G1 X137.641 Y69.258 E37.04341
G1 X140.123 Y68.794 E37.12739
G1 X142.615 Y68.254 E37.2122
G1 X144.926 Y67.674 E37.29144
G1 X145.173 Y67.623 E37.29983
G1 X146.48 Y67.292 E37.34468
G1 X146.844 Y67.209 E37.35709
G1 X147.341 Y67.109 E37.37395
G1 X147.999 Y66.993 E37.39618
G1 X148.596 Y66.906 E37.41624
G1 X149.604 Y66.797 E37.44997
G1 X150.221 Y66.757 E37.47053
G1 X150.805 Y66.735 E37.48997
G1 X151.365 Y66.73 E37.50859
G1 X151.943 Y66.74 E37.52782
G1 X152.577 Y66.77 E37.54893
G1 X153.305 Y66.828 E37.57322
G1 X153.9 Y66.893 E37.59313
G1 X154.389 Y66.961 E37.60955
G1 X155.01 Y67.067 E37.6305
G1 X155.77 Y67.221 E37.65629
G1 X156.409 Y67.372 E37.67813
G1 X157.199 Y67.586 E37.70536
G1 X159.767 Y68.241 E37.7935
G1 X162.231 Y68.795 E37.8775
G1 X164.691 Y69.275 E37.96086
G1 X167.235 Y69.698 E38.04664
G1 X169.716 Y70.038 E38.12993
G1 X172.235 Y70.312 E38.21421
G1 X174.813 Y70.518 E38.30022
G1 X177.393 Y70.651 E38.38615
G1 X178.186 Y70.682 E38.41254
G1 X179.086 Y70.757 E38.44258
G1 X179.976 Y70.911 E38.47262
G1 X180.849 Y71.143 E38.50267
G1 X181.697 Y71.452 E38.53269
G1 X182.515 Y71.835 E38.56273
