;FLAVOR:Marlin
;TIME:10878
;Filament used: 7.36881m
;Layer height: 0.2
;MINX:41.302
;MINY:72.541
;MINZ:0.2
;MAXX:247.311
;MAXY:227.968
;MAXZ:10.8
;Generated with Cura_SteamEngine 5.2.1
M140 S60
M105
M190 S60
M104 S215
M105
M109 S215
M82 ;absolute extrusion mode
; Ender 3 Max Custom Start G-code
G92 E0 ; Reset Extruder
G28 ; Home all axes
G1 Z2.0 F3000 ; Move Z Axis up little to prevent scratching of Heat Bed
G1 X0.1 Y20 Z0.3 F5000.0 ; Move to start position
G1 X0.1 Y200.0 Z0.3 F1500.0 E15 ; Draw the first line
G1 X0.4 Y200.0 Z0.3 F5000.0 ; Move to side a little
G1 X0.4 Y20 Z0.3 F1500.0 E30 ; Draw the second line
G92 E0 ; Reset Extruder
G1 Z2.0 F3000 ; Move Z Axis up little to prevent scratching of Heat Bed
G1 X5 Y20 Z0.3 F5000.0 ; Move over to prevent blob squish
G92 E0
G92 E0
G1 F1500 E-6.5
;LAYER_COUNT:54
;LAYER:0
M107
G0 F6000 X47.539 Y78.856 Z0.2
;TYPE:SKIRT
G1 F1500 E0
G1 F1200 X48.358 Y78.398 E0.03121
G1 X49.212 Y78.011 E0.06239
G1 X50.096 Y77.698 E0.09359
G1 X51.004 Y77.462 E0.12479
G1 X51.928 Y77.304 E0.15597
G1 X52.673 Y77.235 E0.18085
G1 X55.651 Y77.06 E0.28007
G1 X58.13 Y76.841 E0.36284
G1 X61.152 Y76.48 E0.46407
G1 X61.593 Y76.42 E0.47887
G1 X62.691 Y76.252 E0.51582
G1 X62.964 Y76.222 E0.52495
G1 X64.148 Y76.048 E0.56476
G1 X65.372 Y75.937 E0.60563
G1 X66.72 Y75.891 E0.65049
G1 X66.901 Y75.878 E0.65653
G1 X68.605 Y75.839 E0.71322
G1 X69.561 Y75.859 E0.74502
G1 X70.657 Y75.929 E0.78155
G1 X71.804 Y75.991 E0.81976
G1 X73.253 Y76.093 E0.86807
G1 X74.647 Y76.211 E0.9146
G1 X75.713 Y76.272 E0.95011
G1 X77.367 Y76.389 E1.00526
G1 X78.738 Y76.504 E1.05102
G1 X81.264 Y76.646 E1.13517
G1 X83.743 Y76.716 E1.21766
G1 X87.533 Y76.69 E1.34371
G1 X88.224 Y76.671 E1.36671
G1 X89.015 Y76.678 E1.39302
G1 X91.878 Y76.806 E1.48833
G1 X94.42 Y76.847 E1.57289
G1 X96.911 Y76.815 E1.65575
G1 X99.421 Y76.713 E1.7393
G1 X102.085 Y76.528 E1.82812
G1 X103.445 Y76.422 E1.87349
G1 X104.329 Y76.379 E1.90293
G1 X104.838 Y76.363 E1.91987
G1 X107.3 Y76.216 E2.0019
G1 X109.835 Y75.993 E2.08654
G1 X112.341 Y75.7 E2.17046
G1 X114.85 Y75.334 E2.25479
G1 X116.262 Y75.094 E2.30243
G1 X117.157 Y74.979 E2.33244
G1 X118.699 Y74.85 E2.3839
G1 X120.005 Y74.775 E2.42741
G1 X121.154 Y74.769 E2.46563
G1 X123.742 Y74.891 E2.5518
G1 X126.241 Y74.94 E2.63494
G1 X128.803 Y74.916 E2.72015
G1 X131.288 Y74.824 E2.80286
G1 X133.773 Y74.661 E2.88569
G1 X136.329 Y74.42 E2.97108
G1 X138.843 Y74.112 E3.05532
G1 X140.265 Y73.918 E3.10305
G1 X142.624 Y73.617 E3.18215
G1 X143.738 Y73.488 E3.21945
G1 X147.197 Y73.132 E3.33511
G1 X150.289 Y72.884 E3.43828
G1 X151.881 Y72.781 E3.49134
G1 X154.912 Y72.631 E3.59227
G1 X156.242 Y72.587 E3.63653
G1 X157.71 Y72.556 E3.68537
G1 X159.227 Y72.541 E3.73583
G1 X162.152 Y72.565 E3.83312
G1 X163.359 Y72.598 E3.87328
G1 X166.176 Y72.732 E3.96708
G1 X167.724 Y72.826 E4.01866
G1 X169.328 Y72.96 E4.07219
G1 X170.739 Y73.108 E4.11938
G1 X175.093 Y73.623 E4.2652
G1 X177.624 Y73.846 E4.34971
G1 X180.089 Y73.993 E4.43184
G1 X182.617 Y74.072 E4.51597
G1 X186.015 Y74.07 E4.62898
G1 X186.952 Y74.109 E4.66018
G1 X187.882 Y74.229 E4.69136
G1 X188.459 Y74.344 E4.71093
G1 X191.091 Y74.942 E4.8007
G1 X193.574 Y75.432 E4.88488
G1 X196.061 Y75.85 E4.96876
G1 X198.553 Y76.197 E5.05244
G1 X201.048 Y76.473 E5.13593
G1 X203.556 Y76.678 E5.21963
G1 X206.04 Y76.811 E5.30237
G1 X208.598 Y76.875 E5.38747
G1 X211.088 Y76.868 E5.47029
G1 X213.621 Y76.788 E5.55458
G1 X216.156 Y76.637 E5.63904
G1 X218.614 Y76.42 E5.72111
G1 X221.485 Y76.08 E5.81727
G1 X222.614 Y75.929 E5.85516
G1 X223.547 Y75.845 E5.88631
G1 X224.445 Y75.803 E5.91621
G1 X225.507 Y75.769 E5.95155
G1 X226.593 Y75.752 E5.98768
G1 X227.608 Y75.762 E6.02144
G1 X229.981 Y75.753 E6.10037
G1 X234.039 Y75.696 E6.23535
G1 X234.756 Y75.702 E6.2592
G1 X235.692 Y75.759 E6.29039
G1 X236.619 Y75.896 E6.32155
G1 X237.532 Y76.112 E6.35276
G1 X238.423 Y76.405 E6.38396
G1 X239.286 Y76.772 E6.41515
G1 X240.028 Y77.161 E6.44301
G1 X241.076 Y77.767 E6.48328
G1 X241.647 Y78.115 E6.50552
G1 X242.426 Y78.637 E6.53671
G1 X243.158 Y79.223 E6.56789
G1 X243.837 Y79.87 E6.59909
G1 X244.459 Y80.572 E6.63028
G1 X245.019 Y81.324 E6.66147
G1 X245.513 Y82.121 E6.69265
G1 X246.093 Y83.318 E6.73689
G1 X246.403 Y84.095 E6.76472
G1 X246.641 Y84.745 E6.78774
G1 X246.926 Y85.639 E6.81895
G1 X247.133 Y86.553 E6.85012
G1 X247.262 Y87.482 E6.88132
G1 X247.311 Y88.419 E6.91252
G1 X247.281 Y89.356 E6.9437
G1 X247.14 Y90.464 E6.98085
G1 X246.679 Y93.041 E7.06792
G1 X246.365 Y94.337 E7.11228
G1 X246.266 Y94.659 E7.12348
G1 X246.056 Y95.29 E7.1456
G1 X245.716 Y96.164 E7.17679
G1 X245.303 Y97.006 E7.20798
G1 X244.82 Y97.81 E7.23918
G1 X244.269 Y98.57 E7.2704
G1 X243.657 Y99.28 E7.30158
G1 X242.998 Y99.923 E7.3322
G1 X241.645 Y101.129 E7.39248
G1 X239.776 Y102.864 E7.4773
G1 X237.987 Y104.621 E7.5607
G1 X236.236 Y106.441 E7.6447
G1 X234.528 Y108.321 E7.72919
G1 X232.907 Y110.208 E7.81192
G1 X231.321 Y112.163 E7.89565
G1 X229.795 Y114.158 E7.97919
G1 X228.316 Y116.209 E8.0633
G1 X226.905 Y118.288 E8.14687
G1 X225.545 Y120.418 E8.23092
G1 X224.263 Y122.558 E8.31389
G1 X223.009 Y124.791 E8.39907
G1 X221.862 Y126.977 E8.48118
G1 X220.745 Y129.26 E8.56571
G1 X219.702 Y131.555 E8.64956
G1 X218.729 Y133.869 E8.73305
G1 X217.819 Y136.212 E8.81665
G1 X216.97 Y138.597 E8.90085
G1 X216.194 Y140.991 E8.98455
G1 X215.495 Y143.376 E9.06722
G1 X214.845 Y145.846 E9.15217
G1 X214.274 Y148.304 E9.2361
G1 X213.778 Y150.742 E9.31885
G1 X213.346 Y153.228 E9.40277
G1 X212.986 Y155.712 E9.48625
G1 X212.689 Y158.27 E9.5719
G1 X212.429 Y160.924 E9.6606
G1 X212.347 Y161.647 E9.6848
G1 X212.129 Y164.188 E9.76962
G1 X211.984 Y166.707 E9.85354
G1 X211.912 Y169.194 E9.9363
G1 X211.91 Y171.719 E10.02028
G1 X211.98 Y174.239 E10.10413
G1 X212.121 Y176.76 E10.18811
G1 X212.331 Y179.249 E10.27118
G1 X212.667 Y182.247 E10.37152
G1 X212.73 Y183.139 E10.40126
G1 X212.745 Y183.802 E10.42332
G1 X212.744 Y216.368 E11.50647
G1 X212.735 Y217.095 E11.53065
G1 X212.684 Y218.032 E11.56186
G1 X212.552 Y218.96 E11.59304
G1 X212.343 Y219.874 E11.62422
G1 X212.056 Y220.767 E11.65542
G1 X211.694 Y221.633 E11.68664
G1 X211.26 Y222.464 E11.71782
G1 X210.756 Y223.255 E11.74902
G1 X210.187 Y224 E11.7802
G1 X209.556 Y224.695 E11.81142
G1 X208.869 Y225.333 E11.8426
G1 X208.13 Y225.91 E11.87379
G1 X207.344 Y226.422 E11.90499
G1 X206.518 Y226.865 E11.93616
G1 X205.656 Y227.237 E11.96739
G1 X204.767 Y227.533 E11.99855
G1 X203.855 Y227.753 E12.02975
G1 X202.928 Y227.894 E12.06094
G1 X202.044 Y227.955 E12.09041
G1 X201.415 Y227.968 E12.11134
G1 X101.474 Y227.965 E15.43539
G1 X100.777 Y227.953 E15.45857
G1 X99.84 Y227.897 E15.48979
G1 X98.912 Y227.762 E15.52098
G1 X97.999 Y227.547 E15.55218
G1 X97.108 Y227.256 E15.58336
G1 X96.244 Y226.89 E15.61457
G1 X95.415 Y226.452 E15.64575
G1 X94.626 Y225.944 E15.67696
G1 X93.884 Y225.372 E15.70812
G1 X93.193 Y224.738 E15.73931
G1 X92.558 Y224.047 E15.77053
G1 X91.984 Y223.305 E15.80173
G1 X91.476 Y222.517 E15.83291
G1 X91.037 Y221.689 E15.86408
G1 X90.669 Y220.826 E15.89529
G1 X90.377 Y219.934 E15.9265
G1 X90.162 Y219.022 E15.95767
G1 X90.025 Y218.094 E15.98887
G1 X89.97 Y217.255 E16.01683
G1 X89.957 Y216.623 E16.03786
G1 X89.964 Y203.217 E16.48374
G1 X89.957 Y202.305 E16.51408
G1 X89.958 Y184.023 E17.12214
G1 X89.968 Y183.316 E17.14566
G1 X89.985 Y182.847 E17.16127
G1 X90.143 Y180.076 E17.25358
G1 X90.215 Y177.522 E17.33856
G1 X90.215 Y175.037 E17.42121
G1 X90.143 Y172.489 E17.50599
G1 X90 Y169.987 E17.58934
G1 X89.789 Y167.504 E17.67223
G1 X89.501 Y164.972 E17.75698
G1 X89.15 Y162.503 E17.83993
G1 X88.723 Y160.014 E17.92392
G1 X88.232 Y157.566 E18.00697
G1 X87.655 Y155.062 E18.09243
G1 X87.036 Y152.685 E18.17413
G1 X86.327 Y150.245 E18.25864
G1 X85.545 Y147.816 E18.34351
G1 X84.714 Y145.461 E18.42657
G1 X83.827 Y143.157 E18.50869
G1 X82.833 Y140.781 E18.59435
G1 X81.815 Y138.529 E18.67655
G1 X80.688 Y136.212 E18.76224
G1 X79.551 Y134.032 E18.84402
G1 X78.296 Y131.784 E18.92965
G1 X77.038 Y129.674 E19.01136
G1 X75.664 Y127.509 E19.09664
G1 X74.263 Y125.434 E19.17992
G1 X72.803 Y123.4 E19.26319
G1 X71.27 Y121.388 E19.34732
G1 X69.696 Y119.436 E19.43072
G1 X68.055 Y117.515 E19.51475
G1 X66.372 Y115.655 E19.59818
G1 X64.619 Y113.826 E19.68245
G1 X62.833 Y112.063 E19.76592
G1 X60.994 Y110.347 E19.84957
G1 X59.101 Y108.68 E19.93347
G1 X57.163 Y107.069 E20.01729
G1 X55.189 Y105.518 E20.10079
G1 X53.153 Y104.011 E20.18504
G1 X51.143 Y102.609 E20.26654
G1 X47.964 Y100.552 E20.39248
G1 X47.469 Y100.245 E20.41186
G1 X46.931 Y99.889 E20.43331
G1 X46.499 Y99.585 E20.45088
G1 X45.982 Y99.205 E20.47222
G1 X45.254 Y98.613 E20.50343
G1 X44.579 Y97.962 E20.53462
G1 X43.963 Y97.255 E20.56581
G1 X43.408 Y96.498 E20.59703
G1 X42.92 Y95.697 E20.62823
G1 X42.503 Y94.858 E20.65939
G1 X42.146 Y93.95 E20.69184
G1 X41.979 Y93.463 E20.70896
G1 X41.785 Y92.854 E20.73022
G1 X41.546 Y91.947 E20.76142
G1 X41.385 Y91.023 E20.79261
G1 X41.304 Y90.088 E20.82383
G1 X41.302 Y89.15 E20.85503
G1 X41.381 Y88.216 E20.8862
G1 X41.538 Y87.291 E20.91741
G1 X41.777 Y86.374 E20.94893
G1 X41.939 Y85.846 E20.96729
G1 X42.131 Y85.268 E20.98755
G1 X42.471 Y84.394 E21.01874
G1 X42.885 Y83.553 E21.04992
G1 X43.369 Y82.749 E21.08113
G1 X43.919 Y81.99 E21.11231
G1 X44.532 Y81.28 E21.14351
G1 X45.204 Y80.626 E21.1747
G1 X45.689 Y80.215 E21.19584
G1 X46.214 Y79.797 E21.21816
G1 X46.763 Y79.382 E21.24105
G1 X47.539 Y78.856 E21.27223
G0 F6000 X47.764 Y79.188
G1 F1200 X48.568 Y78.74 E21.30284
G1 X49.408 Y78.363 E21.33347
G1 X50.278 Y78.061 E21.3641
G1 X51.171 Y77.836 E21.39473
G1 X52.079 Y77.689 E21.42532
G1 X52.696 Y77.634 E21.44592
G1 X55.676 Y77.459 E21.54521
G1 X58.179 Y77.238 E21.62878
G1 X61.196 Y76.877 E21.72984
G1 X61.702 Y76.808 E21.74683
G1 X62.751 Y76.648 E21.78212
G1 X63.015 Y76.619 E21.79096
G1 X64.206 Y76.444 E21.83099
G1 X65.386 Y76.337 E21.8704
G1 X66.627 Y76.295 E21.9117
G1 X66.91 Y76.278 E21.92113
G1 X68.614 Y76.239 E21.97782
G1 X69.535 Y76.258 E22.00846
G1 X70.611 Y76.327 E22.04432
G1 X71.782 Y76.39 E22.08333
G1 X73.219 Y76.492 E22.13124
G1 X74.589 Y76.608 E22.17697
G1 X75.685 Y76.671 E22.21348
G1 X77.339 Y76.788 E22.26863
G1 X78.719 Y76.904 E22.31469
G1 X81.231 Y77.046 E22.39838
G1 X83.734 Y77.116 E22.48166
G1 X87.547 Y77.09 E22.60848
G1 X88.235 Y77.071 E22.63138
G1 X88.997 Y77.078 E22.65672
G1 X91.854 Y77.206 E22.75184
G1 X94.419 Y77.247 E22.83716
G1 X96.932 Y77.215 E22.92075
G1 X99.429 Y77.113 E23.00387
G1 X102.065 Y76.93 E23.09176
G1 X103.128 Y76.843 E23.12723
G1 X104.145 Y76.787 E23.16111
G1 X104.839 Y76.763 E23.1842
G1 X107.358 Y76.613 E23.26813
G1 X109.88 Y76.391 E23.35234
G1 X112.378 Y76.099 E23.43599
G1 X114.888 Y75.733 E23.52036
G1 X116.329 Y75.488 E23.56897
G1 X117.192 Y75.378 E23.59791
G1 X118.722 Y75.249 E23.64898
G1 X120.028 Y75.174 E23.69249
G1 X121.135 Y75.169 E23.72931
G1 X123.715 Y75.291 E23.81521
G1 X126.237 Y75.34 E23.89911
G1 X128.786 Y75.316 E23.98389
G1 X131.329 Y75.222 E24.06853
G1 X133.835 Y75.058 E24.15206
G1 X136.348 Y74.821 E24.23601
G1 X138.87 Y74.512 E24.32052
G1 X140.315 Y74.315 E24.36903
G1 X142.67 Y74.014 E24.44799
G1 X143.91 Y73.871 E24.48951
G1 X146.988 Y73.552 E24.59243
G1 X150.156 Y73.294 E24.69815
G1 X151.901 Y73.18 E24.75631
G1 X154.753 Y73.038 E24.85129
G1 X156.25 Y72.987 E24.90111
G1 X157.718 Y72.956 E24.94994
G1 X159.224 Y72.941 E25.00004
G1 X161.959 Y72.962 E25.09101
G1 X163.104 Y72.989 E25.1291
G1 X166.151 Y73.131 E25.23055
G1 X167.699 Y73.225 E25.28213
G1 X169.287 Y73.358 E25.33514
G1 X170.692 Y73.505 E25.38212
G1 X175.077 Y74.024 E25.52899
G1 X177.566 Y74.243 E25.61209
G1 X180.087 Y74.393 E25.69609
G1 X182.605 Y74.472 E25.77988
G1 X186.015 Y74.47 E25.89329
G1 X186.935 Y74.509 E25.92392
G1 X187.848 Y74.629 E25.95455
G1 X188.37 Y74.734 E25.97226
G1 X190.99 Y75.329 E26.06162
G1 X193.542 Y75.833 E26.14814
G1 X195.971 Y76.241 E26.23006
G1 X198.49 Y76.592 E26.31465
G1 X201.005 Y76.87 E26.39881
G1 X203.539 Y77.078 E26.48337
G1 X206.045 Y77.212 E26.56684
G1 X208.589 Y77.275 E26.65148
G1 X211.101 Y77.267 E26.73503
G1 X213.656 Y77.187 E26.82005
G1 X216.147 Y77.039 E26.90305
G1 X218.663 Y76.816 E26.98706
G1 X221.583 Y76.471 E27.08486
G1 X222.667 Y76.326 E27.12123
G1 X223.567 Y76.244 E27.15129
G1 X224.296 Y76.209 E27.17556
G1 X225.515 Y76.169 E27.21613
G1 X226.59 Y76.152 E27.25189
G1 X227.607 Y76.162 E27.28572
G1 X229.989 Y76.153 E27.36494
G1 X234.046 Y76.096 E27.49989
G1 X234.748 Y76.102 E27.52324
G1 X235.667 Y76.159 E27.55387
G1 X236.577 Y76.296 E27.58447
G1 X237.473 Y76.511 E27.61512
G1 X238.346 Y76.803 E27.64574
G1 X239.19 Y77.17 E27.67635
G1 X239.829 Y77.508 E27.70039
G1 X240.63 Y77.968 E27.73111
G1 X241.438 Y78.457 E27.76253
G1 X242.203 Y78.969 E27.79314
G1 X242.92 Y79.547 E27.82377
G1 X243.585 Y80.184 E27.8544
G1 X244.191 Y80.876 E27.885
G1 X244.736 Y81.619 E27.91564
G1 X245.213 Y82.406 E27.94625
G1 X245.723 Y83.471 E27.98553
G1 X246.028 Y84.232 E28.01279
G1 X246.266 Y84.882 E28.03582
G1 X246.544 Y85.76 E28.06645
G1 X246.746 Y86.658 E28.09706
G1 X246.869 Y87.571 E28.1277
G1 X246.912 Y88.49 E28.1583
G1 X246.875 Y89.41 E28.18893
G1 X246.746 Y90.394 E28.22194
G1 X246.285 Y92.971 E28.30901
G1 X245.983 Y94.219 E28.35171
G1 X245.786 Y94.844 E28.37351
G1 X245.678 Y95.161 E28.38465
G1 X245.343 Y96.019 E28.41528
G1 X244.936 Y96.845 E28.44591
G1 X244.458 Y97.632 E28.47654
G1 X243.914 Y98.374 E28.50714
G1 X243.307 Y99.067 E28.53778
G1 X242.731 Y99.626 E28.56447
G1 X241.337 Y100.869 E28.62659
G1 X239.506 Y102.568 E28.70967
G1 X237.7 Y104.342 E28.79387
G1 X235.952 Y106.159 E28.87773
G1 X234.245 Y108.037 E28.96214
G1 X232.577 Y109.98 E29.04731
G1 X231.008 Y111.913 E29.13012
G1 X229.468 Y113.927 E29.21444
G1 X227.993 Y115.972 E29.29831
G1 X226.563 Y118.078 E29.38297
G1 X225.222 Y120.178 E29.46584
G1 X223.905 Y122.379 E29.55116
G1 X222.664 Y124.588 E29.63543
G1 X221.506 Y126.795 E29.71832
G1 X220.38 Y129.098 E29.80359
G1 X219.333 Y131.4 E29.8877
G1 X218.357 Y133.722 E29.97147
G1 X217.445 Y136.07 E30.05525
G1 X216.588 Y138.477 E30.14023
G1 X215.823 Y140.838 E30.22278
G1 X215.101 Y143.299 E30.30808
G1 X214.465 Y145.718 E30.39127
G1 X213.877 Y148.247 E30.47763
G1 X213.387 Y150.659 E30.55949
G1 X212.949 Y153.18 E30.6446
G1 X212.587 Y155.675 E30.72845
G1 X212.289 Y158.242 E30.8144
G1 X212.012 Y161.058 E30.90852
G1 X211.946 Y161.635 E30.92783
G1 X211.731 Y164.132 E31.01119
G1 X211.586 Y166.672 E31.09581
G1 X211.512 Y169.216 E31.18046
G1 X211.51 Y171.73 E31.26407
G1 X211.58 Y174.273 E31.34869
G1 X211.72 Y176.778 E31.43213
G1 X211.933 Y179.29 E31.51598
G1 X212.269 Y182.291 E31.61642
G1 X212.33 Y183.151 E31.6451
G1 X212.345 Y183.802 E31.66675
G1 X212.344 Y216.363 E32.74974
G1 X212.335 Y217.09 E32.77392
G1 X212.284 Y218.009 E32.80453
G1 X212.153 Y218.921 E32.83518
G1 X211.943 Y219.817 E32.86578
G1 X211.657 Y220.692 E32.8964
G1 X211.296 Y221.539 E32.92703
G1 X210.862 Y222.351 E32.95765
G1 X210.36 Y223.123 E32.98828
G1 X209.792 Y223.848 E33.01891
G1 X209.164 Y224.521 E33.04953
G1 X208.48 Y225.137 E33.08014
G1 X207.745 Y225.691 E33.11075
G1 X206.965 Y226.18 E33.14137
G1 X206.145 Y226.599 E33.172
G1 X205.292 Y226.945 E33.20262
G1 X204.412 Y227.216 E33.23324
G1 X203.512 Y227.409 E33.26386
G1 X202.598 Y227.524 E33.2945
G1 X202.033 Y227.555 E33.31332
G1 X201.415 Y227.568 E33.33388
G1 X101.481 Y227.565 E36.65769
G1 X100.784 Y227.553 E36.68088
G1 X99.865 Y227.498 E36.7115
G1 X98.954 Y227.362 E36.74214
G1 X98.058 Y227.148 E36.77278
G1 X97.185 Y226.858 E36.80337
G1 X96.34 Y226.492 E36.834
G1 X95.53 Y226.055 E36.86461
G1 X94.761 Y225.549 E36.89523
G1 X94.038 Y224.978 E36.92587
G1 X93.368 Y224.347 E36.95648
G1 X92.756 Y223.659 E36.98711
