;FLAVOR:Marlin
;TIME:10728
;Filament used: 7.5139m
;Layer height: 0.2
;MINX:83.54
;MINY:102.508
;MINZ:0.32
;MAXX:216.495
;MAXY:197.492
;MAXZ:9.72
;Generated with Cura_SteamEngine 5.2.1
M140 S60
M105
M190 S60
M104 S200
M105
M109 S200
M82 ;absolute extrusion mode
; Ender 3 Max Custom Start G-code
G92 E0 ; Reset Extruder
G28 ; Home all axes
G1 Z2.0 F3000 ; Move Z Axis up little to prevent scratching of Heat Bed
G1 X0.1 Y20 Z0.3 F5000.0 ; Move to start position
G1 X0.1 Y200.0 Z0.3 F1500.0 E15 ; Draw the first line
G1 X0.4 Y200.0 Z0.3 F5000.0 ; Move to side a little
G1 X0.4 Y20 Z0.3 F1500.0 E30 ; Draw the second line
G92 E0 ; Reset Extruder
G1 Z2.0 F3000 ; Move Z Axis up little to prevent scratching of Heat Bed
G1 X5 Y20 Z0.3 F5000.0 ; Move over to prevent blob squish
G92 E0
G92 E0
G1 F1500 E-6.5
;LAYER_COUNT:48
;LAYER:0
M107
G0 F6000 X87.416 Y104.962 Z0.32
;TYPE:SKIRT
G1 F1500 E0
G1 F900 X88.152 Y104.405 E0.05403
G1 X88.934 Y103.914 E0.10808
G1 X89.756 Y103.492 E0.16217
G1 X90.61 Y103.143 E0.21618
G1 X91.492 Y102.869 E0.27024
G1 X92.394 Y102.673 E0.32427
G1 X93.31 Y102.555 E0.37834
G1 X93.91 Y102.521 E0.41352
G1 X94.53 Y102.508 E0.44982
G1 X205.281 Y102.509 E6.93294
G1 X205.979 Y102.519 E6.97381
G1 X206.9 Y102.572 E7.02781
G1 X207.814 Y102.705 E7.08188
G1 X208.713 Y102.916 E7.13593
G1 X209.59 Y103.205 E7.18998
G1 X210.439 Y103.568 E7.24403
G1 X211.253 Y104.003 E7.29806
G1 X212.027 Y104.507 E7.35213
G1 X212.754 Y105.076 E7.40617
G1 X213.429 Y105.706 E7.46022
G1 X214.047 Y106.392 E7.51427
G1 X214.603 Y107.128 E7.56827
G1 X215.094 Y107.911 E7.62237
G1 X215.515 Y108.732 E7.67638
G1 X215.863 Y109.587 E7.73041
G1 X216.136 Y110.469 E7.78446
G1 X216.332 Y111.371 E7.83849
G1 X216.449 Y112.287 E7.89255
G1 X216.482 Y112.878 E7.9272
G1 X216.495 Y113.498 E7.9635
G1 X216.494 Y186.228 E12.22096
G1 X216.485 Y186.955 E12.26352
G1 X216.434 Y187.877 E12.31757
G1 X216.303 Y188.791 E12.37162
G1 X216.093 Y189.69 E12.42567
G1 X215.807 Y190.568 E12.47972
G1 X215.445 Y191.417 E12.53375
G1 X215.012 Y192.232 E12.58777
G1 X214.509 Y193.007 E12.64186
G1 X213.942 Y193.735 E12.69587
G1 X213.313 Y194.411 E12.74992
G1 X212.628 Y195.031 E12.80401
G1 X211.893 Y195.588 E12.85799
G1 X211.111 Y196.08 E12.91208
G1 X210.291 Y196.503 E12.96609
G1 X209.436 Y196.853 E13.02017
G1 X208.555 Y197.128 E13.07419
G1 X207.653 Y197.325 E13.12824
G1 X206.737 Y197.444 E13.18231
G1 X206.125 Y197.479 E13.21819
G1 X205.505 Y197.492 E13.2545
G1 X94.77 Y197.491 E19.73668
G1 X94.072 Y197.482 E19.77755
G1 X93.15 Y197.43 E19.8316
G1 X92.236 Y197.299 E19.88565
G1 X91.337 Y197.089 E19.9397
G1 X90.459 Y196.802 E19.99377
G1 X89.61 Y196.44 E20.0478
G1 X88.795 Y196.006 E20.10185
G1 X88.021 Y195.503 E20.15588
G1 X87.293 Y194.935 E20.20993
G1 X86.617 Y194.306 E20.26399
G1 X85.998 Y193.621 E20.31803
G1 X85.441 Y192.885 E20.37206
G1 X84.949 Y192.104 E20.4261
G1 X84.527 Y191.283 E20.48013
G1 X84.177 Y190.428 E20.53421
G1 X83.903 Y189.547 E20.58822
G1 X83.706 Y188.645 E20.64227
G1 X83.588 Y187.729 E20.69633
G1 X83.553 Y187.111 E20.73257
G1 X83.54 Y186.49 E20.76893
G1 X83.541 Y113.698 E25.03001
G1 X83.55 Y113.033 E25.06894
G1 X83.602 Y112.111 E25.123
G1 X83.734 Y111.197 E25.17706
G1 X83.945 Y110.298 E25.23112
G1 X84.233 Y109.421 E25.28515
G1 X84.595 Y108.572 E25.33918
G1 X85.03 Y107.757 E25.39326
G1 X85.533 Y106.983 E25.44729
G1 X86.101 Y106.256 E25.5013
G1 X86.121 Y106.235 E25.503
G0 F810 X86.731 Y105.58
G0 X87.416 Y104.962
G0 F6000 X87.843 Y105.182
G1 F900 X88.574 Y104.651 E25.55588
G1 X89.35 Y104.186 E25.60884
G1 X90.163 Y103.792 E25.66173
G1 X91.009 Y103.471 E25.71469
G1 X91.879 Y103.226 E25.7676
G1 X92.767 Y103.059 E25.8205
G1 X93.923 Y102.961 E25.88841
G1 X94.53 Y102.948 E25.92395
G1 X205.274 Y102.949 E32.40666
G1 X205.972 Y102.959 E32.44753
G1 X206.875 Y103.012 E32.50048
G1 X207.769 Y103.144 E32.55338
G1 X208.648 Y103.355 E32.60629
G1 X209.505 Y103.643 E32.65922
G1 X210.333 Y104.006 E32.71214
G1 X211.126 Y104.44 E32.76506
G1 X211.878 Y104.942 E32.81799
G1 X212.582 Y105.509 E32.8709
G1 X213.233 Y106.136 E32.92381
G1 X213.826 Y106.818 E32.97671
G1 X214.357 Y107.55 E33.02965
G1 X214.821 Y108.326 E33.08258
G1 X215.214 Y109.14 E33.13549
G1 X215.534 Y109.985 E33.18838
G1 X215.779 Y110.856 E33.24135
G1 X215.945 Y111.744 E33.29423
G1 X216.042 Y112.891 E33.36161
G1 X216.055 Y113.498 E33.39715
G1 X216.054 Y186.223 E37.65432
G1 X216.045 Y186.95 E37.69688
G1 X215.994 Y187.852 E37.74976
G1 X215.863 Y188.747 E37.80271
G1 X215.654 Y189.626 E37.8556
G1 X215.368 Y190.483 E37.90849
G1 X215.007 Y191.312 E37.96142
G1 X214.575 Y192.106 E38.01433
G1 X214.073 Y192.859 E38.06731
G1 X213.508 Y193.564 E38.12019
G1 X212.882 Y194.216 E38.17311
G1 X212.201 Y194.811 E38.22604
G1 X211.47 Y195.343 E38.27897
G1 X210.696 Y195.808 E38.33182
G1 X209.882 Y196.203 E38.38479
G1 X209.038 Y196.525 E38.43766
G1 X208.168 Y196.771 E38.49059
G1 X207.28 Y196.939 E38.54349
G1 X206.112 Y197.039 E38.61212
G1 X205.505 Y197.052 E38.64766
G1 X94.775 Y197.051 E45.12955
G1 X94.077 Y197.042 E45.17041
G1 X93.175 Y196.991 E45.2233
G1 X92.28 Y196.859 E45.27626
G1 X91.401 Y196.65 E45.32915
G1 X90.544 Y196.363 E45.38205
G1 X89.715 Y196.002 E45.43498
G1 X88.921 Y195.569 E45.48792
G1 X88.169 Y195.067 E45.54085
G1 X87.464 Y194.501 E45.59377
G1 X86.812 Y193.875 E45.64668
G1 X86.218 Y193.194 E45.69958
G1 X85.686 Y192.463 E45.75251
G1 X85.221 Y191.688 E45.80541
G1 X84.826 Y190.875 E45.85832
G1 X84.505 Y190.03 E45.91124
G1 X84.26 Y189.16 E45.96415
G1 X84.092 Y188.271 E46.01711
G1 X83.993 Y187.099 E46.08596
G1 X83.98 Y186.49 E46.12161
G1 X83.981 Y113.704 E50.38235
G1 X83.99 Y113.039 E50.42128
G1 X84.042 Y112.136 E50.47423
G1 X84.174 Y111.242 E50.52713
G1 X84.384 Y110.363 E50.58003
G1 X84.671 Y109.505 E50.63299
G1 X85.033 Y108.677 E50.68589
G1 X85.467 Y107.884 E50.73881
G1 X85.968 Y107.132 E50.7917
G1 X86.529 Y106.435 E50.84408
G0 F810 X86.535 Y106.427
G0 X87.161 Y105.776
G0 X87.843 Y105.182
G1 F1500 E44.34408
;MESH:telefon_stand.stl
G0 F6000 X127.139 Y135.434
G0 X130.456 Y158.948
G0 X130.782 Y159.42
G1 F1500 E50.84408
G0 F6000 X130.782 Y159.16
;TYPE:WALL-INNER
G1 F900 X130.566 Y159.068 E50.85782
G1 X130.409 Y158.938 E50.86976
G1 X130.289 Y158.742 E50.88321
G1 X130.244 Y158.582 E50.89294
G1 X130.244 Y141.5 E51.89288
G1 X130.289 Y141.257 E51.90735
G1 X130.41 Y141.061 E51.92083
G1 X130.567 Y140.932 E51.93273
G1 X130.904 Y140.84 E51.95318
G1 X188.025 Y140.84 E55.29691
G1 X188.242 Y140.931 E55.31069
G1 X188.399 Y141.061 E55.32262
G1 X188.52 Y141.257 E55.33611
G1 X188.564 Y141.5 E55.35056
G1 X188.564 Y158.586 E56.35074
G1 X188.52 Y158.742 E56.36023
G1 X188.399 Y158.939 E56.37376
G1 X188.242 Y159.068 E56.38566
G1 X188.018 Y159.151 E56.39964
G1 X187.904 Y159.16 E56.40633
G1 X132.6 Y159.16 E59.64371
G0 F810 X130.782 Y159.16
G0 F6000 X130.739 Y158.646
;TYPE:WALL-OUTER
G1 F900 X130.687 Y158.538 E59.65073
G1 X130.684 Y141.437 E60.65178
G1 X130.791 Y141.31 E60.6615
G1 X130.904 Y141.28 E60.66835
G1 X187.945 Y141.28 E64.0074
G1 X188.069 Y141.353 E64.01583
G1 X188.124 Y141.442 E64.02195
G1 X188.122 Y158.538 E65.02271
G1 X188.069 Y158.647 E65.02981
G1 X187.942 Y158.717 E65.0383
G1 X132.537 Y158.72 E68.28159
G0 F810 X130.863 Y158.72
G0 X130.739 Y158.646
G0 F6000 X129.984 Y158.646
G0 X127.594 Y164.11
G0 X127.365 Y164.339
;TYPE:WALL-INNER
G1 F900 X191.444 Y164.34 E72.03263
G1 X191.444 Y138.311 E73.55631
G1 X191.444 Y135.661 E73.71144
G1 X127.366 Y135.661 E77.46243
G1 X127.365 Y162.521 E79.03475
G0 F810 X127.365 Y164.339
G0 F6000 X126.925 Y164.779
;TYPE:WALL-OUTER
G1 F900 X191.884 Y164.78 E82.83731
G1 X191.884 Y138.311 E84.38675
G1 X191.884 Y135.221 E84.56763
G1 X126.926 Y135.221 E88.37013
G1 X126.925 Y162.961 E89.99397
G0 F810 X126.925 Y164.779
G0 F6000 X127.594 Y164.11
G0 X127.761 Y163.943
;TYPE:SKIN
G1 F900 X191.048 Y163.944 E93.69866
G1 X191.048 Y138.311 E95.19916
G1 X191.048 Y136.057 E95.3311
G1 X127.763 Y136.058 E99.03567
G1 X127.761 Y162.125 E100.56157
G0 F810 X127.761 Y163.943
G0 F6000 X130.615 Y159.517
G1 F900 X130.338 Y159.389 E100.57944
G1 X130.113 Y159.202 E100.59656
G1 X129.92 Y158.889 E100.61809
G1 X129.851 Y158.644 E100.63299
G1 X129.851 Y141.463 E101.63873
G1 X129.917 Y141.114 E101.65952
G1 X130.113 Y140.797 E101.68134
G1 X130.338 Y140.611 E101.69842
G1 X130.617 Y140.482 E101.71642
G1 X130.881 Y140.445 E101.73202
G1 X187.927 Y140.445 E105.07137
G1 X188.16 Y140.476 E105.08513
G1 X188.447 Y140.588 E105.10317
G1 X188.697 Y140.798 E105.12228
G1 X188.892 Y141.11 E105.14382
G1 X188.957 Y141.461 E105.16471
G1 X188.957 Y158.647 E106.17074
G1 X188.873 Y158.918 E106.18735
G1 X188.698 Y159.202 E106.20688
G1 X188.446 Y159.411 E106.22604
G1 X188.152 Y159.527 E106.24455
G1 X187.926 Y159.555 E106.25788
G1 X132.431 Y159.555 E109.50643
G0 F810 X130.881 Y159.555
G0 X130.615 Y159.517
G0 F6000 X128.2 Y163.502
G1 F900 X128.655 Y163.502 E109.53307
G1 X128.2 Y163.046 E109.57078
G1 X128.2 Y162.424 E109.60719
G1 X129.278 Y163.502 E109.69643
G1 X129.9 Y163.502 E109.73284
G1 X128.2 Y161.802 E109.87357
G1 X128.2 Y161.18 E109.90999
G1 X130.522 Y163.502 E110.10221
G1 X131.144 Y163.502 E110.13862
G1 X128.2 Y160.557 E110.38238
G1 X128.2 Y159.935 E110.41879
G1 X131.767 Y163.502 E110.71409
G1 X132.389 Y163.502 E110.7505
G1 X128.2 Y159.313 E111.09728
G1 X128.2 Y158.691 E111.1337
G1 X133.011 Y163.502 E111.53197
G1 X133.633 Y163.502 E111.56838
G1 X128.2 Y158.068 E112.0182
G1 X128.2 Y157.558 E112.04805
G0 F810 X128.2 Y157.446
G0 X129.407 Y158.653
G1 F1500 E105.54805
G0 F6000 X130.056 Y159.348
G0 X188.752 Y159.348
G0 X189.399 Y141.485
G1 F1500 E112.04805
G1 F900 X189.399 Y141.44 E112.05069
G1 X189.327 Y141.05 E112.0739
G1 X189.253 Y140.859 E112.08589
G1 X189.034 Y140.505 E112.11026
G1 X188.67 Y140.203 E112.13795
G1 X188.226 Y140.041 E112.16561
G1 X187.911 Y139.998 E112.18422
G1 X184.41 Y136.497 E112.47405
G1 X183.788 Y136.497 E112.51046
G1 X187.298 Y140.007 E112.80104
G1 X186.676 Y140.007 E112.83745
G1 X183.166 Y136.497 E113.12802
G1 X182.543 Y136.497 E113.16449
G1 X186.053 Y140.007 E113.45507
G1 X185.431 Y140.007 E113.49148
G1 X181.921 Y136.497 E113.78206
G1 X181.299 Y136.497 E113.81847
G1 X184.809 Y140.007 E114.10904
G1 X184.187 Y140.007 E114.14545
G1 X180.677 Y136.497 E114.43603
G1 X180.054 Y136.497 E114.4725
G1 X183.564 Y140.007 E114.76307
G1 X182.942 Y140.007 E114.79948
G1 X179.432 Y136.497 E115.09006
G1 X178.81 Y136.497 E115.12647
G1 X182.32 Y140.007 E115.41704
G1 X181.698 Y140.007 E115.45345
G1 X178.188 Y136.497 E115.74403
G1 X177.565 Y136.497 E115.7805
G1 X181.075 Y140.007 E116.07107
G1 X180.453 Y140.007 E116.10748
G1 X176.943 Y136.497 E116.39806
G1 X176.321 Y136.497 E116.43447
G1 X179.831 Y140.007 E116.72505
G1 X179.209 Y140.007 E116.76146
G1 X175.699 Y136.497 E117.05203
G1 X175.076 Y136.497 E117.0885
G1 X178.586 Y140.007 E117.37908
G1 X177.964 Y140.007 E117.41549
G1 X174.454 Y136.497 E117.70606
G1 X173.832 Y136.497 E117.74247
G1 X177.342 Y140.007 E118.03305
G1 X176.72 Y140.007 E118.06946
G1 X173.21 Y136.497 E118.36003
G1 X172.587 Y136.497 E118.3965
G1 X176.097 Y140.007 E118.68708
G1 X175.475 Y140.007 E118.72349
G1 X171.965 Y136.497 E119.01406
G1 X171.343 Y136.497 E119.05047
G1 X174.853 Y140.007 E119.34105
G1 X174.231 Y140.007 E119.37746
G1 X170.721 Y136.497 E119.66804
G1 X170.098 Y136.497 E119.7045
G1 X173.608 Y140.007 E119.99508
G1 X172.986 Y140.007 E120.03149
G1 X169.476 Y136.497 E120.32207
G1 X168.854 Y136.497 E120.35848
G1 X172.364 Y140.007 E120.64905
G1 X171.742 Y140.007 E120.68546
G1 X168.232 Y136.497 E120.97604
G1 X167.609 Y136.497 E121.01251
G1 X171.119 Y140.007 E121.30308
G1 X170.497 Y140.007 E121.33949
G1 X166.987 Y136.497 E121.63007
G1 X166.365 Y136.497 E121.66648
G1 X169.875 Y140.007 E121.95705
G1 X169.253 Y140.007 E121.99346
G1 X165.743 Y136.497 E122.28404
G1 X165.12 Y136.497 E122.32051
G1 X168.63 Y140.007 E122.61108
G1 X168.008 Y140.007 E122.64749
G1 X164.498 Y136.497 E122.93807
G1 X163.876 Y136.497 E122.97448
G1 X167.386 Y140.007 E123.26506
G1 X166.764 Y140.007 E123.30147
G1 X163.253 Y136.497 E123.59208
G1 X162.631 Y136.497 E123.62849
G1 X166.141 Y140.007 E123.91907
G1 X165.519 Y140.007 E123.95548
G1 X162.009 Y136.497 E124.24605
G1 X161.387 Y136.497 E124.28247
G1 X164.897 Y140.007 E124.57304
G1 X164.275 Y140.007 E124.60945
G1 X160.764 Y136.497 E124.90007
G1 X160.142 Y136.497 E124.93648
G1 X163.652 Y140.007 E125.22705
G1 X163.03 Y140.007 E125.26346
G1 X159.52 Y136.497 E125.55404
G1 X158.898 Y136.497 E125.59045
G1 X162.408 Y140.007 E125.88103
G1 X161.786 Y140.007 E125.91744
G1 X158.275 Y136.497 E126.20805
G1 X157.653 Y136.497 E126.24446
G1 X161.163 Y140.007 E126.53504
G1 X160.541 Y140.007 E126.57145
G1 X157.031 Y136.497 E126.86202
G1 X156.409 Y136.497 E126.89844
G1 X159.919 Y140.007 E127.18901
G1 X159.297 Y140.007 E127.22542
G1 X155.786 Y136.497 E127.51604
G1 X155.164 Y136.497 E127.55245
G1 X158.674 Y140.007 E127.84302
G1 X158.052 Y140.007 E127.87943
G1 X154.542 Y136.497 E128.17001
G1 X153.92 Y136.497 E128.20642
G1 X157.43 Y140.007 E128.497
G1 X156.807 Y140.007 E128.53346
G1 X153.297 Y136.497 E128.82404
G1 X152.675 Y136.497 E128.86045
G1 X156.185 Y140.007 E129.15103
G1 X155.563 Y140.007 E129.18744
G1 X152.053 Y136.497 E129.47801
G1 X151.431 Y136.497 E129.51442
G1 X154.941 Y140.007 E129.805
G1 X154.318 Y140.007 E129.84147
G1 X150.808 Y136.497 E130.13204
G1 X150.186 Y136.497 E130.16845
G1 X153.696 Y140.007 E130.45903
G1 X153.074 Y140.007 E130.49544
G1 X149.564 Y136.497 E130.78601
G1 X148.942 Y136.497 E130.82242
G1 X152.452 Y140.007 E131.113
G1 X151.829 Y140.007 E131.14947
G1 X148.319 Y136.497 E131.44004
G1 X147.697 Y136.497 E131.47646
G1 X151.207 Y140.007 E131.76703
G1 X150.585 Y140.007 E131.80344
G1 X147.075 Y136.497 E132.09402
G1 X146.453 Y136.497 E132.13043
G1 X149.963 Y140.007 E132.421
G1 X149.34 Y140.007 E132.45747
G1 X145.83 Y136.497 E132.74805
G1 X145.208 Y136.497 E132.78446
G1 X148.718 Y140.007 E133.07503
G1 X148.096 Y140.007 E133.11144
G1 X144.586 Y136.497 E133.40202
G1 X143.964 Y136.497 E133.43843
G1 X147.474 Y140.007 E133.729
G1 X146.851 Y140.007 E133.76547
G1 X143.341 Y136.497 E134.05605
G1 X142.719 Y136.497 E134.09246
G1 X146.229 Y140.007 E134.38303
G1 X145.607 Y140.007 E134.41945
G1 X142.097 Y136.497 E134.71002
G1 X141.475 Y136.497 E134.74643
G1 X144.985 Y140.007 E135.03701
G1 X144.362 Y140.007 E135.07348
G1 X140.852 Y136.497 E135.36405
G1 X140.23 Y136.497 E135.40046
G1 X143.74 Y140.007 E135.69104
G1 X143.118 Y140.007 E135.72745
G1 X139.608 Y136.497 E136.01802
G1 X138.986 Y136.497 E136.05443
G1 X142.496 Y140.007 E136.34501
G1 X141.873 Y140.007 E136.38148
G1 X138.363 Y136.497 E136.67205
G1 X137.741 Y136.497 E136.70846
G1 X141.251 Y140.007 E136.99904
G1 X140.629 Y140.007 E137.03545
G1 X137.119 Y136.497 E137.32602
G1 X136.497 Y136.497 E137.36244
G1 X140.007 Y140.007 E137.65301
G1 X139.384 Y140.007 E137.68948
G1 X135.874 Y136.497 E137.98006
G1 X135.252 Y136.497 E138.01647
G1 X138.762 Y140.007 E138.30704
G1 X138.14 Y140.007 E138.34345
G1 X134.63 Y136.497 E138.63403
G1 X134.008 Y136.497 E138.67044
G1 X137.518 Y140.007 E138.96101
G1 X136.895 Y140.007 E138.99748
G1 X133.385 Y136.497 E139.28806
G1 X132.763 Y136.497 E139.32447
G1 X136.273 Y140.007 E139.61504
G1 X135.651 Y140.007 E139.65145
G1 X132.141 Y136.497 E139.94203
G1 X131.519 Y136.497 E139.97844
G1 X135.029 Y140.007 E140.26902
G1 X134.406 Y140.007 E140.30548
G1 X130.896 Y136.497 E140.59606
G1 X130.274 Y136.497 E140.63247
G1 X133.784 Y140.007 E140.92305
G1 X133.162 Y140.007 E140.95946
G1 X129.652 Y136.497 E141.25003
G1 X129.03 Y136.497 E141.28644
G1 X132.54 Y140.007 E141.57702
G1 X131.917 Y140.007 E141.61349
G1 X128.407 Y136.497 E141.90406
G1 X128.202 Y136.497 E141.91606
