;FLAVOR:Marlin
;TIME:10849
;Filament used: 9.37303m
;Layer height: 0.2
;MINX:115.171
;MINY:113.199
;MINZ:0.2
;MAXX:184.825
;MAXY:181.877
;MAXZ:62.8
;Generated with Cura_SteamEngine 5.2.1
M140 S60
M105
M190 S60
M104 S215
M105
M109 S215
M82 ;absolute extrusion mode
; Ender 3 Max Custom Start G-code
G92 E0 ; Reset Extruder
G28 ; Home all axes
G1 Z2.0 F3000 ; Move Z Axis up little to prevent scratching of Heat Bed
G1 X0.1 Y20 Z0.3 F5000.0 ; Move to start position
G1 X0.1 Y200.0 Z0.3 F1500.0 E15 ; Draw the first line
G1 X0.4 Y200.0 Z0.3 F5000.0 ; Move to side a little
G1 X0.4 Y20 Z0.3 F1500.0 E30 ; Draw the second line
G92 E0 ; Reset Extruder
G1 Z2.0 F3000 ; Move Z Axis up little to prevent scratching of Heat Bed
G1 X5 Y20 Z0.3 F5000.0 ; Move over to prevent blob squish
G92 E0
G92 E0
G1 F1500 E-6.5
;LAYER_COUNT:315
;LAYER:0
M107
G0 F6000 X121.255 Y118.938 Z0.2
;TYPE:SKIRT
G1 F1500 E0
G1 F1200 X121.962 Y118.323 E0.03117
G1 X122.72 Y117.77 E0.06237
G1 X123.17 Y117.485 E0.08009
G1 X123.544 Y117.261 E0.09459
G1 X124.46 Y116.77 E0.12916
G1 X125.732 Y116.169 E0.17595
G1 X126.694 Y115.75 E0.21085
G1 X127.777 Y115.308 E0.24975
G1 X128.318 Y115.102 E0.26901
G1 X129.549 Y114.656 E0.31255
G1 X130.957 Y114.186 E0.36193
G1 X131.955 Y113.882 E0.39662
G1 X132.41 Y113.754 E0.41235
G1 X132.987 Y113.605 E0.43217
G1 X133.772 Y113.433 E0.45889
G1 X134.086 Y113.376 E0.46951
G1 X135.015 Y113.248 E0.5007
G1 X135.952 Y113.199 E0.53191
G1 X136.889 Y113.231 E0.56309
G1 X137.482 Y113.292 E0.58292
G1 X138.269 Y113.395 E0.60932
G1 X140.816 Y113.696 E0.69462
G1 X143.331 Y113.92 E0.7786
G1 X145.862 Y114.075 E0.86294
G1 X148.35 Y114.156 E0.94573
G1 X150.873 Y114.166 E1.02965
G1 X153.396 Y114.106 E1.11359
G1 X155.913 Y113.974 E1.19742
G1 X158.409 Y113.772 E1.28071
G1 X160.94 Y113.496 E1.36539
G1 X162.47 Y113.294 E1.41672
G1 X163.404 Y113.212 E1.4479
G1 X164.342 Y113.209 E1.4791
G1 X165.277 Y113.286 E1.5103
G1 X165.779 Y113.36 E1.52718
G1 X166.248 Y113.441 E1.54301
G1 X167.292 Y113.675 E1.5786
G1 X168.023 Y113.876 E1.60381
G1 X168.422 Y113.994 E1.61765
G1 X169.51 Y114.34 E1.65562
G1 X170.825 Y114.786 E1.70181
G1 X171.188 Y114.916 E1.71463
G1 X172.457 Y115.401 E1.75982
G1 X173.481 Y115.825 E1.79668
G1 X174.75 Y116.386 E1.84283
G1 X175.44 Y116.714 E1.86824
G1 X176.491 Y117.286 E1.90804
G1 X176.958 Y117.574 E1.92628
G1 X177.735 Y118.1 E1.95749
G1 X178.464 Y118.69 E1.98869
G1 X179.14 Y119.34 E2.01988
G1 X180.009 Y120.37 E2.0647
G1 X180.201 Y120.628 E2.0754
G1 X180.728 Y121.403 E2.10657
G1 X181.187 Y122.221 E2.13776
G1 X181.575 Y123.075 E2.16896
G1 X181.889 Y123.959 E2.20016
G1 X182.127 Y124.866 E2.23135
G1 X182.269 Y125.639 E2.25749
G1 X182.386 Y126.57 E2.2887
G1 X182.423 Y127.507 E2.31989
G1 X182.396 Y128.248 E2.34455
G1 X182.352 Y128.854 E2.36476
G1 X182.223 Y130.351 E2.41474
G1 X182.08 Y132.823 E2.49709
G1 X182.005 Y135.346 E2.58104
G1 X182.001 Y137.87 E2.66499
G1 X182.069 Y140.393 E2.74894
G1 X182.206 Y142.876 E2.83165
G1 X182.419 Y145.413 E2.91633
G1 X182.746 Y148.339 E3.01425
G1 X182.81 Y149.275 E3.04546
G1 X182.782 Y150.406 E3.08309
G1 X182.73 Y151.082 E3.10564
G1 X182.655 Y151.788 E3.12925
G1 X182.524 Y152.607 E3.15684
G1 X182.424 Y153.112 E3.17396
G1 X182.252 Y153.86 E3.19949
G1 X182.076 Y154.489 E3.22121
G1 X181.862 Y155.175 E3.24511
G1 X181.552 Y156.04 E3.27567
G1 X181.285 Y156.697 E3.29926
G1 X181.107 Y157.11 E3.31422
G1 X180.515 Y158.408 E3.36167
G1 X179.96 Y159.575 E3.40465
G1 X179.177 Y161.167 E3.46366
G1 X178.23 Y163.007 E3.53249
G1 X177.139 Y165.024 E3.60876
G1 X176.606 Y165.966 E3.64475
G1 X175.491 Y167.859 E3.71783
G1 X174.47 Y169.529 E3.78293
G1 X173.3 Y171.393 E3.85613
G1 X172.526 Y172.58 E3.90326
G1 X172.082 Y173.207 E3.92881
G1 X171.611 Y173.839 E3.95503
G1 X170.743 Y174.867 E3.99978
G1 X170.375 Y175.252 E4.01749
G1 X169.698 Y175.901 E4.04868
G1 X169.03 Y176.446 E4.07736
G1 X168.644 Y176.736 E4.09342
G1 X167.871 Y177.266 E4.12459
G1 X167.227 Y177.64 E4.14936
G1 X166.885 Y177.823 E4.16226
G1 X165.987 Y178.252 E4.19536
G1 X164.968 Y178.676 E4.23207
G1 X164.147 Y178.988 E4.26128
G1 X163.02 Y179.39 E4.30108
G1 X162.228 Y179.657 E4.32888
G1 X161.064 Y180.026 E4.36949
G1 X160.359 Y180.233 E4.39393
G1 X159.427 Y180.484 E4.42603
G1 X158.584 Y180.691 E4.4549
G1 X157.668 Y180.894 E4.48611
G1 X156.739 Y181.076 E4.51759
G1 X155.269 Y181.328 E4.5672
G1 X153.068 Y181.643 E4.64115
G1 X151.653 Y181.798 E4.6885
G1 X150.908 Y181.854 E4.71334
G1 X150.287 Y181.875 E4.73401
G1 X149.887 Y181.877 E4.74732
G1 X149.083 Y181.851 E4.77407
G1 X148.453 Y181.808 E4.79507
G1 X147.924 Y181.76 E4.81274
G1 X146.898 Y181.64 E4.8471
G1 X145.271 Y181.413 E4.90174
G1 X143.446 Y181.112 E4.96326
G1 X142.629 Y180.956 E4.99092
G1 X141.79 Y180.777 E5.01945
G1 X140.615 Y180.494 E5.05965
G1 X140.24 Y180.396 E5.07254
G1 X138.985 Y180.038 E5.11595
G1 X137.856 Y179.68 E5.15534
G1 X136.242 Y179.126 E5.2121
G1 X135.283 Y178.775 E5.24606
G1 X134.511 Y178.472 E5.27365
G1 X133.722 Y178.127 E5.30229
G1 X132.979 Y177.762 E5.32982
G1 X132.081 Y177.236 E5.36444
G1 X131.501 Y176.835 E5.38789
G1 X130.986 Y176.454 E5.4092
G1 X130.256 Y175.865 E5.44039
G1 X129.35 Y174.967 E5.48282
G1 X128.992 Y174.569 E5.50063
G1 X128.354 Y173.791 E5.53409
G1 X127.681 Y172.877 E5.57184
G1 X127.256 Y172.253 E5.59695
G1 X126.695 Y171.39 E5.63119
G1 X126.221 Y170.641 E5.66067
G1 X124.889 Y168.493 E5.74473
G1 X124.022 Y167.046 E5.80084
G1 X122.974 Y165.22 E5.87086
G1 X122.331 Y164.054 E5.91515
G1 X121.386 Y162.269 E5.98233
G1 X120.517 Y160.547 E6.04648
G1 X119.726 Y158.917 E6.10674
G1 X119.077 Y157.519 E6.15801
G1 X118.632 Y156.499 E6.19502
G1 X118.424 Y155.982 E6.21355
G1 X118.255 Y155.529 E6.22964
G1 X118.002 Y154.78 E6.25593
G1 X117.837 Y154.22 E6.27535
G1 X117.649 Y153.462 E6.30132
G1 X117.541 Y152.959 E6.31843
G1 X117.379 Y151.998 E6.35085
G1 X117.275 Y151.156 E6.37907
G1 X117.2 Y150.222 E6.41023
G1 X117.212 Y149.141 E6.44619
G1 X117.249 Y148.532 E6.46648
G1 X117.295 Y147.998 E6.48431
G1 X117.601 Y145.215 E6.57743
G1 X117.806 Y142.667 E6.66245
G1 X117.937 Y140.172 E6.74555
G1 X117.996 Y137.653 E6.82935
G1 X117.986 Y135.126 E6.9134
G1 X117.904 Y132.613 E6.99703
G1 X117.748 Y130.078 E7.0815
G1 X117.611 Y128.335 E7.13965
G1 X117.577 Y127.398 E7.17084
G1 X117.623 Y126.461 E7.20204
G1 X117.77 Y125.419 E7.23704
G1 X117.826 Y125.124 E7.24703
G1 X118.04 Y124.21 E7.27825
G1 X118.331 Y123.319 E7.30942
G1 X118.697 Y122.455 E7.34063
G1 X119.135 Y121.626 E7.37182
G1 X119.82 Y120.592 E7.41307
G1 X120.009 Y120.339 E7.42357
G1 X120.602 Y119.612 E7.45478
G1 X121.255 Y118.938 E7.48599
G0 F6000 X121.555 Y119.205
G1 F1200 X122.252 Y118.604 E7.5166
G1 X123.375 Y117.828 E7.562
G1 X123.749 Y117.604 E7.5765
G1 X124.632 Y117.131 E7.60982
G1 X125.893 Y116.535 E7.65621
G1 X126.615 Y116.218 E7.68244
G1 X127.7 Y115.769 E7.72149
G1 X128.454 Y115.478 E7.74837
G1 X129.685 Y115.032 E7.79192
G1 X130.807 Y114.654 E7.8313
G1 X132.071 Y114.265 E7.87528
G1 X132.51 Y114.142 E7.89045
G1 X133.087 Y113.993 E7.91027
G1 X133.844 Y113.826 E7.93605
G1 X134.158 Y113.769 E7.94667
G1 X135.07 Y113.645 E7.97728
G1 X135.989 Y113.599 E8.00788
G1 X136.909 Y113.634 E8.0385
G1 X137.43 Y113.689 E8.05593
G1 X138.172 Y113.786 E8.08082
G1 X140.804 Y114.097 E8.16897
G1 X143.305 Y114.32 E8.25248
G1 X145.826 Y114.474 E8.33649
G1 X148.335 Y114.556 E8.41998
G1 X150.881 Y114.566 E8.50466
G1 X153.427 Y114.505 E8.58937
G1 X155.931 Y114.374 E8.67276
G1 X158.452 Y114.17 E8.75689
G1 X160.987 Y113.893 E8.8417
G1 X162.522 Y113.691 E8.8932
G1 X163.439 Y113.61 E8.92382
G1 X164.36 Y113.61 E8.95445
G1 X165.711 Y113.755 E8.99964
G1 X166.18 Y113.836 E9.01547
G1 X167.186 Y114.06 E9.04975
G1 X167.917 Y114.261 E9.07497
G1 X168.302 Y114.375 E9.08832
G1 X169.172 Y114.65 E9.11867
G1 X170.697 Y115.165 E9.1722
G1 X171.046 Y115.29 E9.18453
G1 X172.305 Y115.771 E9.22936
G1 X173.32 Y116.191 E9.2659
G1 X174.279 Y116.611 E9.30072
G1 X175.268 Y117.076 E9.33707
G1 X176.281 Y117.627 E9.37542
G1 X176.748 Y117.915 E9.39367
G1 X177.51 Y118.432 E9.4243
G1 X178.224 Y119.013 E9.45491
G1 X178.885 Y119.653 E9.48551
G1 X179.688 Y120.609 E9.52704
G1 X179.88 Y120.867 E9.53773
G1 X180.397 Y121.628 E9.56833
G1 X180.846 Y122.432 E9.59896
G1 X181.223 Y123.272 E9.62959
G1 X181.527 Y124.141 E9.66021
G1 X181.828 Y125.428 E9.70417
G1 X181.875 Y125.706 E9.71355
G1 X181.989 Y126.62 E9.74418
G1 X182.023 Y127.54 E9.7748
G1 X181.997 Y128.22 E9.79743
G1 X181.966 Y128.659 E9.81207
G1 X181.826 Y130.294 E9.86665
G1 X181.679 Y132.824 E9.95094
G1 X181.605 Y135.333 E10.03443
G1 X181.601 Y137.879 E10.11911
G1 X181.669 Y140.391 E10.20269
G1 X181.809 Y142.93 E10.28726
G1 X182.021 Y145.459 E10.37167
G1 X182.348 Y148.384 E10.46957
G1 X182.411 Y149.302 E10.50017
G1 X182.383 Y150.375 E10.53587
G1 X182.331 Y151.051 E10.55842
G1 X182.258 Y151.74 E10.58146
G1 X182.132 Y152.529 E10.60804
G1 X182.032 Y153.034 E10.62516
G1 X181.864 Y153.764 E10.65008
G1 X181.694 Y154.37 E10.67101
G1 X181.48 Y155.056 E10.69491
G1 X181.181 Y155.89 E10.72438
G1 X180.914 Y156.547 E10.74797
G1 X180.743 Y156.944 E10.76234
G1 X180.154 Y158.237 E10.8096
G1 X179.599 Y159.404 E10.85258
G1 X178.821 Y160.984 E10.91116
G1 X177.874 Y162.824 E10.97999
G1 X176.79 Y164.828 E11.05577
G1 X176.261 Y165.763 E11.0915
G1 X175.055 Y167.808 E11.17046
G1 X174.193 Y169.217 E11.2254
G1 X172.964 Y171.176 E11.30232
G1 X172.198 Y172.351 E11.34897
G1 X171.761 Y172.968 E11.37411
G1 X171.29 Y173.6 E11.40033
G1 X170.454 Y174.59 E11.44343
G1 X170.086 Y174.975 E11.46114
G1 X169.421 Y175.613 E11.49179
G1 X168.79 Y176.126 E11.51884
G1 X168.404 Y176.416 E11.5349
G1 X167.645 Y176.936 E11.5655
G1 X167.038 Y177.287 E11.58882
G1 X166.696 Y177.47 E11.60172
G1 X165.831 Y177.884 E11.63362
G1 X165.175 Y178.162 E11.65731
G1 X164.221 Y178.534 E11.69137
G1 X162.892 Y179.011 E11.73833
G1 X162.1 Y179.278 E11.76613
G1 X161.124 Y179.589 E11.8002
G1 X160.253 Y179.847 E11.83042
G1 X159.332 Y180.095 E11.86214
G1 X158.269 Y180.354 E11.89853
G1 X157.861 Y180.445 E11.91243
G1 X156.391 Y180.733 E11.96226
G1 X155.202 Y180.934 E12.00236
G1 X153.012 Y181.247 E12.07594
G1 X151.612 Y181.4 E12.12278
G1 X150.884 Y181.455 E12.14707
G1 X150.285 Y181.475 E12.167
G1 X149.885 Y181.477 E12.18031
G1 X149.11 Y181.452 E12.2061
G1 X148.48 Y181.409 E12.2271
G1 X147.971 Y181.362 E12.2441
G1 X146.692 Y181.21 E12.28694
G1 X145.327 Y181.017 E12.33279
G1 X143.79 Y180.767 E12.38458
G1 X142.704 Y180.563 E12.42133
G1 X141.617 Y180.327 E12.45833
G1 X140.348 Y180.011 E12.50183
G1 X139.406 Y179.746 E12.53437
G1 X137.985 Y179.302 E12.58389
G1 X136.595 Y178.827 E12.63275
G1 X135.421 Y178.399 E12.67431
G1 X134.659 Y178.1 E12.70153
G1 X133.887 Y177.763 E12.72955
G1 X133.165 Y177.409 E12.7563
G1 X132.283 Y176.891 E12.79032
G1 X131.739 Y176.514 E12.81233
G1 X131.224 Y176.133 E12.83364
G1 X130.508 Y175.553 E12.86428
G1 X129.647 Y174.7 E12.90459
G1 X129.289 Y174.302 E12.9224
G1 X128.674 Y173.552 E12.95466
G1 X128.01 Y172.65 E12.99191
G1 X127.591 Y172.035 E13.01666
G1 X127.033 Y171.176 E13.05073
G1 X126.561 Y170.43 E13.08009
G1 X125.232 Y168.287 E13.16396
G1 X124.264 Y166.668 E13.2267
G1 X123.406 Y165.173 E13.28403
G1 X122.684 Y163.867 E13.33367
G1 X121.84 Y162.277 E13.39354
G1 X120.876 Y160.372 E13.46455
G1 X120.171 Y158.923 E13.51815
G1 X119.323 Y157.091 E13.58529
G1 X118.999 Y156.341 E13.61246
G1 X118.799 Y155.842 E13.63034
G1 X118.63 Y155.389 E13.64642
G1 X118.382 Y154.657 E13.67213
G1 X118.224 Y154.118 E13.69081
G1 X118.04 Y153.378 E13.71617
G1 X117.932 Y152.875 E13.73329
G1 X117.776 Y151.949 E13.76452
G1 X117.672 Y151.107 E13.79274
G1 X117.599 Y150.19 E13.82333
G1 X117.612 Y149.165 E13.85743
G1 X117.649 Y148.556 E13.87772
G1 X117.692 Y148.041 E13.89491
G1 X118.002 Y145.22 E13.9893
G1 X118.206 Y142.686 E14.07385
G1 X118.336 Y140.2 E14.15665
G1 X118.396 Y137.661 E14.24112
G1 X118.386 Y135.111 E14.32594
G1 X118.304 Y132.611 E14.40913
G1 X118.145 Y130.018 E14.49554
G1 X118.01 Y128.303 E14.55275
G1 X117.977 Y127.383 E14.58337
G1 X118.025 Y126.464 E14.61398
G1 X118.163 Y125.493 E14.6466
G1 X118.219 Y125.198 E14.65659
G1 X118.43 Y124.302 E14.6872
G1 X118.718 Y123.427 E14.71784
G1 X119.08 Y122.581 E14.74845
G1 X119.515 Y121.77 E14.77906
G1 X120.141 Y120.831 E14.81659
G1 X120.33 Y120.578 E14.8271
G1 X120.912 Y119.865 E14.85771
G1 X121.555 Y119.205 E14.88836
G0 F6000 X121.854 Y119.473
G1 F1200 X122.54 Y118.886 E14.91838
G1 X123.581 Y118.171 E14.96039
G1 X123.955 Y117.947 E14.97489
G1 X124.804 Y117.492 E15.00693
G1 X126.053 Y116.902 E15.05287
G1 X126.998 Y116.49 E15.08716
G1 X128.065 Y116.054 E15.12549
G1 X128.59 Y115.854 E15.14418
G1 X129.821 Y115.408 E15.18773
G1 X130.933 Y115.034 E15.22675
G1 X132.188 Y114.648 E15.27042
G1 X132.61 Y114.529 E15.285
G1 X133.187 Y114.38 E15.30482
G1 X133.915 Y114.22 E15.32962
G1 X134.229 Y114.163 E15.34023
G1 X135.124 Y114.041 E15.37027
G1 X136.026 Y113.999 E15.40031
G1 X136.928 Y114.037 E15.43033
G1 X137.378 Y114.086 E15.44539
G1 X138.151 Y114.187 E15.47132
G1 X140.72 Y114.491 E15.55736
G1 X143.282 Y114.719 E15.64291
G1 X145.789 Y114.872 E15.72645
G1 X148.356 Y114.956 E15.81187
G1 X150.889 Y114.966 E15.89612
G1 X153.422 Y114.905 E15.98039
G1 X155.951 Y114.773 E16.06462
G1 X158.489 Y114.568 E16.14931
G1 X161.038 Y114.289 E16.2346
G1 X162.574 Y114.087 E16.28612
G1 X163.474 Y114.009 E16.31617
G1 X164.377 Y114.011 E16.3462
G1 X165.643 Y114.149 E16.38856
G1 X166.112 Y114.23 E16.40439
G1 X167.08 Y114.446 E16.43738
G1 X168.181 Y114.756 E16.47542
G1 X169.253 Y115.097 E16.51284
G1 X170.568 Y115.543 E16.55902
G1 X170.904 Y115.664 E16.5709
G1 X172.153 Y116.141 E16.61537
G1 X172.944 Y116.466 E16.64381
G1 X174.119 Y116.978 E16.68644
G1 X175.096 Y117.437 E16.72234
G1 X176.071 Y117.967 E16.75925
G1 X176.538 Y118.255 E16.7775
G1 X177.285 Y118.763 E16.80755
G1 X177.984 Y119.335 E16.83759
G1 X178.63 Y119.966 E16.86762
G1 X179.367 Y120.847 E16.90583
G1 X179.559 Y121.105 E16.91652
G1 X180.065 Y121.853 E16.94656
G1 X180.504 Y122.643 E16.97662
G1 X180.871 Y123.468 E17.00665
G1 X181.163 Y124.322 E17.03667
G1 X181.433 Y125.495 E17.07671
G1 X181.48 Y125.773 E17.08608
G1 X181.591 Y126.669 E17.11611
G1 X181.623 Y127.571 E17.14613
G1 X181.598 Y128.191 E17.16677
G1 X181.555 Y128.786 E17.18661
G1 X181.427 Y130.275 E17.23632
G1 X181.281 Y132.787 E17.32001
G1 X181.205 Y135.356 E17.40549
G1 X181.201 Y137.89 E17.48977
G1 X181.269 Y140.423 E17.57405
G1 X181.409 Y142.952 E17.65829
G1 X181.619 Y145.461 E17.74204
G1 X181.951 Y148.428 E17.84133
G1 X182.011 Y149.329 E17.87137
G1 X181.984 Y150.344 E17.90514
G1 X181.932 Y151.02 E17.92769
G1 X181.861 Y151.692 E17.95016
G1 X181.74 Y152.451 E17.97573
G1 X181.64 Y152.956 E17.99285
G1 X181.475 Y153.667 E18.01713
G1 X181.312 Y154.251 E18.03729
G1 X181.098 Y154.937 E18.06119
G1 X180.81 Y155.739 E18.08954
G1 X180.379 Y156.779 E18.12698
G1 X179.866 Y157.907 E18.16819
G1 X179.18 Y159.35 E18.22134
G1 X178.465 Y160.801 E18.27514
G1 X177.42 Y162.828 E18.35099
G1 X176.526 Y164.48 E18.41346
G1 X175.917 Y165.56 E18.4547
G1 X174.802 Y167.453 E18.52777
G1 X173.852 Y169.008 E18.58838
G1 X172.628 Y170.959 E18.66498
G1 X171.87 Y172.122 E18.71116
G1 X171.441 Y172.729 E18.73588
G1 X170.97 Y173.361 E18.76209
G1 X170.164 Y174.314 E18.80361
G1 X169.796 Y174.699 E18.82132
G1 X169.144 Y175.323 E18.85134
G1 X168.55 Y175.806 E18.8768
G1 X168.164 Y176.096 E18.89286
G1 X167.418 Y176.606 E18.92292
G1 X166.849 Y176.934 E18.94476
G1 X166.507 Y177.117 E18.95766
G1 X165.675 Y177.515 E18.98834
G1 X164.683 Y177.929 E19.02409
G1 X163.877 Y178.235 E19.05276
G1 X162.764 Y178.632 E19.09207
G1 X161.972 Y178.899 E19.11987
G1 X160.836 Y179.259 E19.1595
G1 X160.148 Y179.461 E19.18335
G1 X159.236 Y179.707 E19.21477
