;FLAVOR:Marlin
;TIME:14773
;Filament used: 7.63887m
;Layer height: 0.2
;MINX:31.109
;MINY:60.112
;MINZ:0.2
;MAXX:220.29
;MAXY:236.841
;MAXZ:72.4
;Generated with Cura_SteamEngine 5.2.1
M140 S60
M105
M190 S60
M104 S210
M105
M109 S210
M82 ;absolute extrusion mode
; Ender 3 Max Custom Start G-code
G92 E0 ; Reset Extruder
G28 ; Home all axes
G1 Z2.0 F3000 ; Move Z Axis up little to prevent scratching of Heat Bed
G1 X0.1 Y20 Z0.3 F5000.0 ; Move to start position
G1 X0.1 Y200.0 Z0.3 F1500.0 E15 ; Draw the first line
G1 X0.4 Y200.0 Z0.3 F5000.0 ; Move to side a little
G1 X0.4 Y20 Z0.3 F1500.0 E30 ; Draw the second line
G92 E0 ; Reset Extruder
G1 Z2.0 F3000 ; Move Z Axis up little to prevent scratching of Heat Bed
G1 X5 Y20 Z0.3 F5000.0 ; Move over to prevent blob squish
G92 E0
G92 E0
G1 F1500 E-6.5
;LAYER_COUNT:362
;LAYER:0
M107
G0 F6000 X59.031 Y64.324 Z0.2
;TYPE:SKIRT
G1 F1500 E0
G1 F1200 X59.731 Y63.699 E0.03121
G1 X60.481 Y63.137 E0.06238
G1 X61.277 Y62.64 E0.0936
G1 X62.112 Y62.213 E0.12479
G1 X62.98 Y61.859 E0.15597
G1 X63.876 Y61.579 E0.18719
G1 X64.792 Y61.378 E0.21838
G1 X65.721 Y61.255 E0.24955
G1 X66.658 Y61.211 E0.28075
G1 X67.595 Y61.248 E0.31194
G1 X68.837 Y61.421 E0.35364
G1 X71.335 Y61.916 E0.43834
G1 X73.827 Y62.342 E0.52243
G1 X76.306 Y62.693 E0.6057
G1 X78.831 Y62.978 E0.69022
G1 X81.321 Y63.188 E0.77333
G1 X83.852 Y63.331 E0.85765
G1 X86.365 Y63.4 E0.94126
G1 X88.89 Y63.398 E1.02524
G1 X91.387 Y63.326 E1.10833
G1 X93.89 Y63.183 E1.19171
G1 X96.424 Y62.965 E1.27631
G1 X98.931 Y62.679 E1.36023
G1 X101.399 Y62.326 E1.44315
G1 X103.883 Y61.9 E1.52698
G1 X106.332 Y61.408 E1.61006
G1 X108.837 Y60.828 E1.69558
G1 X110.462 Y60.419 E1.75131
G1 X111.383 Y60.24 E1.78252
G1 X112.316 Y60.141 E1.81372
G1 X112.793 Y60.12 E1.8296
G1 X113.183 Y60.112 E1.84258
G1 X114.128 Y60.121 E1.87401
G1 X115.065 Y60.176 E1.90523
G1 X115.993 Y60.312 E1.93642
G1 X116.906 Y60.526 E1.96761
G1 X118.036 Y60.909 E2.0073
G1 X119.784 Y61.608 E2.06991
G1 X122.173 Y62.513 E2.15488
G1 X124.538 Y63.334 E2.23815
G1 X126.907 Y64.083 E2.32078
G1 X129.352 Y64.779 E2.40534
G1 X131.827 Y65.408 E2.49027
G1 X134.25 Y65.953 E2.57287
G1 X136.699 Y66.431 E2.65586
G1 X139.223 Y66.85 E2.74096
G1 X141.684 Y67.187 E2.82358
G1 X144.208 Y67.461 E2.90802
G1 X146.685 Y67.659 E2.99067
G1 X149.24 Y67.79 E3.07576
G1 X151.75 Y67.848 E3.15927
G1 X153.806 Y67.843 E3.22765
G1 X154.92 Y67.829 E3.2647
G1 X166.179 Y67.83 E3.63918
G1 X166.866 Y67.84 E3.66203
G1 X167.802 Y67.894 E3.69321
G1 X168.731 Y68.027 E3.72443
G1 X169.529 Y68.205 E3.75162
G1 X170.429 Y68.467 E3.7828
G1 X171.304 Y68.805 E3.814
G1 X171.91 Y69.091 E3.83629
G1 X173.026 Y69.66 E3.87795
G1 X173.168 Y69.725 E3.88314
G1 X174.341 Y70.323 E3.92694
G1 X176.614 Y71.403 E4.01064
G1 X178.937 Y72.428 E4.09509
G1 X181.288 Y73.386 E4.17952
G1 X183.606 Y74.256 E4.26187
G1 X185.981 Y75.07 E4.34538
G1 X188.409 Y75.827 E4.42996
G1 X190.824 Y76.506 E4.5134
G1 X193.265 Y77.119 E4.59711
G1 X195.729 Y77.663 E4.68104
G1 X198.188 Y78.133 E4.76431
G1 X200.69 Y78.539 E4.84861
G1 X203.161 Y78.869 E4.93153
G1 X205.688 Y79.134 E5.01604
G1 X208.21 Y79.325 E5.10016
G1 X209.868 Y79.414 E5.15538
G1 X210.802 Y79.504 E5.18659
G1 X211.724 Y79.673 E5.21777
G1 X212.629 Y79.92 E5.24897
G1 X213.509 Y80.243 E5.28015
G1 X214.359 Y80.64 E5.31135
G1 X215.172 Y81.108 E5.34255
G1 X215.942 Y81.644 E5.37375
G1 X216.663 Y82.243 E5.40493
G1 X217.331 Y82.902 E5.43614
G1 X217.94 Y83.615 E5.46733
G1 X218.487 Y84.377 E5.49853
G1 X218.966 Y85.183 E5.52971
G1 X219.375 Y86.027 E5.56091
G1 X219.711 Y86.903 E5.59211
G1 X219.971 Y87.804 E5.6233
G1 X220.153 Y88.724 E5.65449
G1 X220.277 Y90.089 E5.70008
G1 X220.29 Y90.718 E5.72101
G1 X220.289 Y91.714 E5.75413
G1 X220.271 Y93.027 E5.79781
G1 X220.271 Y95.639 E5.88468
G1 X220.286 Y96.348 E5.90827
G1 X220.289 Y97.852 E5.95829
G1 X220.278 Y98.559 E5.98181
G1 X220.223 Y99.495 E6.013
G1 X220.089 Y100.424 E6.04421
G1 X219.876 Y101.337 E6.0754
G1 X219.703 Y101.9 E6.09499
G1 X219.12 Y103.612 E6.15514
G1 X218.355 Y106.007 E6.23876
G1 X217.654 Y108.43 E6.32266
G1 X217.022 Y110.872 E6.40655
G1 X216.461 Y113.331 E6.49044
G1 X215.972 Y115.789 E6.5738
G1 X215.55 Y118.27 E6.6575
G1 X215.2 Y120.759 E6.7411
G1 X214.919 Y123.267 E6.82504
G1 X214.707 Y125.801 E6.90961
G1 X214.571 Y128.27 E6.99186
G1 X214.503 Y130.802 E7.0761
G1 X214.507 Y133.32 E7.15985
G1 X214.583 Y135.85 E7.24404
G1 X214.727 Y138.33 E7.32666
G1 X214.946 Y140.856 E7.41099
G1 X215.233 Y143.352 E7.49456
G1 X215.593 Y145.855 E7.57866
G1 X216.02 Y148.326 E7.66207
G1 X216.705 Y151.686 E7.77612
G1 X216.857 Y152.611 E7.8073
G1 X216.934 Y153.728 E7.84454
G1 X216.946 Y154.481 E7.86958
G1 X216.945 Y159.368 E8.03213
G1 X216.935 Y160.072 E8.05554
G1 X216.882 Y161.009 E8.08676
G1 X216.749 Y161.937 E8.11794
G1 X216.537 Y162.851 E8.14915
G1 X216.249 Y163.743 E8.18032
G1 X215.885 Y164.608 E8.21154
G1 X215.449 Y165.438 E8.24272
G1 X214.944 Y166.228 E8.2739
G1 X214.397 Y166.945 E8.3039
G1 X214.058 Y167.354 E8.32157
G1 X212.383 Y169.429 E8.41026
G1 X210.87 Y171.417 E8.49336
G1 X209.399 Y173.467 E8.57728
G1 X207.994 Y175.547 E8.66076
G1 X206.658 Y177.65 E8.74363
G1 X205.361 Y179.829 E8.82797
G1 X204.119 Y182.05 E8.91261
G1 X202.972 Y184.25 E8.99513
G1 X201.856 Y186.545 E9.08
G1 X200.828 Y188.822 E9.1631
G1 X199.864 Y191.128 E9.24623
G1 X198.946 Y193.511 E9.33116
G1 X198.109 Y195.881 E9.41476
G1 X197.346 Y198.254 E9.49767
G1 X197.224 Y198.672 E9.51215
G1 X196.435 Y201.243 E9.6016
G1 X195.889 Y202.92 E9.66026
G1 X195.6 Y203.77 E9.69012
G1 X195.261 Y204.645 E9.72133
G1 X194.848 Y205.487 E9.75252
G1 X194.364 Y206.29 E9.78371
G1 X193.814 Y207.05 E9.81491
G1 X193.202 Y207.76 E9.84608
G1 X192.531 Y208.416 E9.8773
G1 X191.799 Y209.017 E9.9088
G1 X190.981 Y209.631 E9.94282
G1 X189.468 Y210.733 E10.00507
G1 X188.728 Y211.256 E10.03521
G1 X187.939 Y211.764 E10.06642
G1 X187.11 Y212.202 E10.09761
G1 X186.247 Y212.568 E10.12878
G1 X185.092 Y212.929 E10.16903
G1 X184.498 Y213.08 E10.18942
G1 X181.974 Y213.756 E10.27632
G1 X179.708 Y214.43 E10.35496
G1 X178.751 Y214.728 E10.38829
G1 X177.844 Y214.968 E10.4195
G1 X176.921 Y215.131 E10.45067
G1 X175.994 Y215.214 E10.48163
G1 X175.257 Y215.247 E10.50616
G1 X174.093 Y215.282 E10.5449
G1 X171.574 Y215.43 E10.62882
G1 X169.08 Y215.648 E10.71209
G1 X166.569 Y215.939 E10.79617
G1 X164.103 Y216.295 E10.87904
G1 X161.602 Y216.729 E10.96346
G1 X159.136 Y217.228 E11.04714
G1 X156.676 Y217.8 E11.13115
G1 X154.274 Y218.43 E11.21374
G1 X151.829 Y219.146 E11.29848
G1 X149.423 Y219.926 E11.3826
G1 X147.09 Y220.755 E11.46495
G1 X144.727 Y221.669 E11.54922
G1 X142.401 Y222.648 E11.63315
G1 X140.102 Y223.692 E11.71713
G1 X137.854 Y224.791 E11.80036
G1 X135.638 Y225.953 E11.88358
G1 X133.412 Y227.203 E11.96849
G1 X131.271 Y228.484 E12.05148
G1 X129.116 Y229.858 E12.13648
G1 X127.057 Y231.255 E12.21924
G1 X124.992 Y232.743 E12.30389
G1 X123.369 Y233.968 E12.37153
G1 X122.817 Y234.363 E12.3941
G1 X122.032 Y234.875 E12.42527
G1 X121.135 Y235.353 E12.45908
G1 X120.657 Y235.58 E12.47668
G1 X119.793 Y235.946 E12.50789
G1 X118.89 Y236.24 E12.53947
G1 X118.409 Y236.374 E12.55608
G1 X117.496 Y236.587 E12.58726
G1 X116.533 Y236.725 E12.61962
G1 X116.004 Y236.777 E12.6373
G1 X115.093 Y236.829 E12.66765
G1 X114.291 Y236.841 E12.69433
G1 X68.922 Y236.841 E14.20331
G1 X68.256 Y236.832 E14.22546
G1 X67.498 Y236.796 E14.2507
G1 X66.954 Y236.751 E14.26885
G1 X66.024 Y236.633 E14.30003
G1 X65.087 Y236.432 E14.33191
G1 X64.592 Y236.303 E14.34892
G1 X63.695 Y236.028 E14.38013
G1 X62.817 Y235.675 E14.4116
G1 X62.359 Y235.467 E14.42833
G1 X61.523 Y235.043 E14.45951
G1 X60.693 Y234.527 E14.49201
G1 X60.233 Y234.212 E14.51056
G1 X59.482 Y233.65 E14.54176
G1 X58.692 Y232.936 E14.57717
G1 X58.337 Y232.583 E14.59382
G1 X57.701 Y231.894 E14.62501
G1 X57.155 Y231.195 E14.65451
G1 X56.863 Y230.788 E14.67117
G1 X56.361 Y230.022 E14.70163
G1 X55.836 Y229.142 E14.73571
G1 X33.251 Y190.023 E16.23809
G1 X32.945 Y189.477 E16.25891
G1 X32.598 Y188.803 E16.28412
G1 X32.343 Y188.264 E16.30396
G1 X31.978 Y187.4 E16.33515
G1 X31.671 Y186.446 E16.36848
G1 X31.547 Y185.99 E16.3842
G1 X31.34 Y185.076 E16.41537
G1 X31.214 Y184.177 E16.44557
G1 X31.16 Y183.626 E16.46398
G1 X31.109 Y182.689 E16.49519
G1 X31.145 Y181.652 E16.5297
G1 X31.186 Y181.153 E16.54635
G1 X31.303 Y180.223 E16.57753
G1 X31.492 Y179.329 E16.60792
G1 X31.626 Y178.805 E16.62591
G1 X31.897 Y177.907 E16.65711
G1 X32.291 Y176.93 E16.69215
G1 X32.494 Y176.489 E16.70829
G1 X32.875 Y175.739 E16.73627
G1 X33.373 Y174.847 E16.77025
G1 X41.594 Y160.607 E17.31714
G1 X42.89 Y158.288 E17.4055
G1 X44.051 Y156.063 E17.48897
G1 X45.146 Y153.814 E17.57217
G1 X46.197 Y151.49 E17.657
G1 X47.155 Y149.202 E17.7395
G1 X48.066 Y146.839 E17.82373
G1 X48.904 Y144.465 E17.90747
G1 X49.677 Y142.062 E17.99142
G1 X50.377 Y139.658 E18.0747
G1 X51.012 Y137.22 E18.1585
G1 X51.58 Y134.759 E18.2425
G1 X52.077 Y132.283 E18.3265
G1 X52.502 Y129.807 E18.41005
G1 X52.857 Y127.325 E18.49344
G1 X53.14 Y124.84 E18.57663
G1 X53.356 Y122.311 E18.66105
G1 X53.498 Y119.826 E18.74384
G1 X53.57 Y117.275 E18.82872
G1 X53.571 Y114.775 E18.91187
G1 X53.501 Y112.222 E18.99681
G1 X53.397 Y110.29 E19.06116
G1 X53.331 Y109.255 E19.09566
G1 X53.311 Y108.751 E19.11243
G1 X53.299 Y107.994 E19.13762
G1 X53.3 Y103.091 E19.30069
G1 X53.311 Y102.385 E19.32417
G1 X53.366 Y101.448 E19.35539
G1 X53.443 Y100.848 E19.37551
G1 X53.606 Y99.811 E19.41043
G1 X53.962 Y97.317 E19.49422
G1 X54.244 Y94.842 E19.57707
G1 X54.463 Y92.289 E19.6623
G1 X54.606 Y89.784 E19.74575
G1 X54.677 Y87.295 E19.82857
G1 X54.679 Y84.771 E19.91251
G1 X54.608 Y82.241 E19.9967
G1 X54.467 Y79.719 E20.08071
G1 X54.418 Y79.124 E20.10057
G1 X54.369 Y78.378 E20.12543
G1 X54.348 Y77.865 E20.14251
G1 X54.337 Y77.156 E20.16609
G1 X54.338 Y74.109 E20.26744
G1 X54.348 Y73.408 E20.29075
G1 X54.401 Y72.472 E20.32193
G1 X54.534 Y71.543 E20.35315
G1 X54.746 Y70.63 E20.38432
G1 X55.034 Y69.737 E20.41553
G1 X55.398 Y68.873 E20.44671
G1 X55.834 Y68.042 E20.47793
G1 X56.339 Y67.252 E20.50911
G1 X56.909 Y66.508 E20.54028
G1 X57.282 Y66.084 E20.55907
G1 X57.683 Y65.662 E20.57843
G1 X58.528 Y64.813 E20.61827
G1 X59.031 Y64.324 E20.6416
G0 F6000 X59.31 Y64.611
G1 F1200 X59.998 Y63.998 E20.67225
G1 X60.735 Y63.448 E20.70284
G1 X61.518 Y62.963 E20.73347
G1 X62.34 Y62.549 E20.76408
G1 X63.195 Y62.207 E20.79471
G1 X64.077 Y61.941 E20.82535
G1 X64.978 Y61.752 E20.85597
G1 X65.892 Y61.642 E20.88659
G1 X66.812 Y61.612 E20.9172
G1 X67.731 Y61.661 E20.94781
G1 X68.76 Y61.813 E20.98241
G1 X71.269 Y62.31 E21.06748
G1 X73.775 Y62.738 E21.15204
G1 X76.276 Y63.093 E21.23606
G1 X78.789 Y63.376 E21.32017
G1 X81.298 Y63.588 E21.40391
G1 X83.819 Y63.73 E21.4879
G1 X86.354 Y63.8 E21.57224
G1 X88.867 Y63.798 E21.65582
G1 X91.422 Y63.724 E21.74084
G1 X93.946 Y63.58 E21.82492
G1 X96.432 Y63.367 E21.90791
G1 X99.001 Y63.073 E21.99392
G1 X101.452 Y62.723 E22.07626
G1 X103.958 Y62.292 E22.16084
G1 X106.436 Y61.795 E22.2449
G1 X108.901 Y61.225 E22.32905
G1 X110.555 Y60.808 E22.38578
G1 X111.459 Y60.633 E22.41641
G1 X112.802 Y60.52 E22.46123
G1 X113.192 Y60.512 E22.47421
G1 X114.122 Y60.521 E22.50514
G1 X115.041 Y60.576 E22.53576
G1 X115.951 Y60.711 E22.56636
G1 X116.847 Y60.925 E22.597
G1 X117.887 Y61.28 E22.63355
G1 X119.64 Y61.981 E22.69634
G1 X122.036 Y62.889 E22.78156
G1 X124.424 Y63.718 E22.86564
G1 X126.792 Y64.467 E22.94824
G1 X129.249 Y65.166 E23.03321
G1 X131.712 Y65.792 E23.11773
G1 X134.157 Y66.342 E23.20108
G1 X136.662 Y66.831 E23.28597
G1 X139.134 Y67.241 E23.36932
G1 X141.658 Y67.587 E23.45405
G1 X144.169 Y67.86 E23.53806
G1 X146.668 Y68.059 E23.62144
G1 X149.209 Y68.19 E23.70606
G1 X151.741 Y68.248 E23.7903
G1 X153.813 Y68.243 E23.85922
G1 X154.92 Y68.229 E23.89604
G1 X166.173 Y68.23 E24.27031
G1 X166.86 Y68.24 E24.29317
G1 X167.779 Y68.293 E24.32378
G1 X168.69 Y68.426 E24.3544
G1 X169.433 Y68.594 E24.37974
G1 X170.317 Y68.852 E24.41037
G1 X171.175 Y69.185 E24.44098
G1 X171.728 Y69.447 E24.46133
G1 X172.789 Y69.988 E24.50095
G1 X172.986 Y70.081 E24.50819
G1 X174.153 Y70.675 E24.55174
G1 X176.473 Y71.779 E24.6372
G1 X178.761 Y72.788 E24.72037
G1 X181.145 Y73.759 E24.80599
G1 X183.472 Y74.632 E24.88865
G1 X185.869 Y75.454 E24.97293
G1 X188.297 Y76.211 E25.05752
G1 X190.715 Y76.891 E25.14106
G1 X193.154 Y77.503 E25.2247
G1 X195.673 Y78.059 E25.3105
G1 X198.12 Y78.528 E25.39337
G1 X200.61 Y78.932 E25.47727
G1 X203.138 Y79.269 E25.56209
G1 X205.617 Y79.529 E25.645
G1 X208.2 Y79.725 E25.73116
G1 X209.847 Y79.813 E25.78601
G1 X210.763 Y79.902 E25.81662
G1 X211.668 Y80.07 E25.84724
G1 X212.556 Y80.316 E25.87789
G1 X213.418 Y80.639 E25.9085
G1 X214.249 Y81.034 E25.93911
G1 X215.043 Y81.501 E25.96974
G1 X215.793 Y82.034 E26.00035
G1 X216.494 Y82.631 E26.03097
G1 X217.141 Y83.286 E26.06159
G1 X217.729 Y83.995 E26.09223
G1 X218.252 Y84.752 E26.12283
G1 X218.708 Y85.552 E26.15346
G1 X219.093 Y86.388 E26.18407
G1 X219.404 Y87.255 E26.21471
G1 X219.639 Y88.145 E26.24532
G1 X219.795 Y89.052 E26.27593
G1 X219.877 Y90.1 E26.31089
G1 X219.89 Y90.718 E26.33145
G1 X219.889 Y91.708 E26.36438
G1 X219.871 Y93.021 E26.40806
G1 X219.871 Y95.648 E26.49543
G1 X219.886 Y96.357 E26.51902
G1 X219.889 Y97.846 E26.56854
G1 X219.878 Y98.553 E26.59206
G1 X219.823 Y99.472 E26.62268
G1 X219.69 Y100.383 E26.6533
G1 X219.477 Y101.279 E26.68393
G1 X219.324 Y101.772 E26.7011
G1 X218.738 Y103.494 E26.7616
G1 X217.965 Y105.912 E26.84603
G1 X217.267 Y108.324 E26.92955
G1 X216.639 Y110.755 E27.01306
G1 X216.064 Y113.27 E27.09887
G1 X215.578 Y115.716 E27.18181
G1 X215.159 Y118.18 E27.26494
G1 X214.8 Y120.734 E27.35072
G1 X214.521 Y123.222 E27.43399
G1 X214.31 Y125.747 E27.51827
G1 X214.171 Y128.274 E27.60244
G1 X214.103 Y130.792 E27.68622
G1 X214.107 Y133.332 E27.7707
G1 X214.182 Y135.849 E27.85446
G1 X214.328 Y138.355 E27.93795
G1 X214.548 Y140.9 E28.02291
G1 X214.838 Y143.419 E28.10724
G1 X215.196 Y145.908 E28.19088
G1 X215.628 Y148.401 E28.27503
G1 X216.024 Y150.373 E28.34193
G1 X216.314 Y151.767 E28.38929
G1 X216.462 Y152.676 E28.41992
G1 X216.534 Y153.735 E28.45523
G1 X216.546 Y154.481 E28.48004
G1 X216.545 Y159.363 E28.64242
G1 X216.535 Y160.067 E28.66583
G1 X216.482 Y160.986 E28.69645
G1 X216.349 Y161.897 E28.72707
G1 X216.138 Y162.793 E28.75769
G1 X215.85 Y163.667 E28.7883
G1 X215.487 Y164.513 E28.81891
G1 X215.052 Y165.325 E28.84955
G1 X214.548 Y166.095 E28.88016
G1 X214.09 Y166.689 E28.90511
G1 X213.689 Y167.172 E28.92599
G1 X212.099 Y169.142 E29.01019
G1 X210.543 Y171.187 E29.09566
G1 X209.075 Y173.233 E29.17941
G1 X207.669 Y175.314 E29.26294
G1 X206.295 Y177.478 E29.3482
G1 X205.001 Y179.65 E29.43229
G1 X203.796 Y181.808 E29.5145
G1 X202.602 Y184.097 E29.60036
G1 X201.51 Y186.341 E29.68337
G1 X200.453 Y188.682 E29.7688
G1 X199.485 Y190.996 E29.85223
G1 X198.57 Y193.371 E29.93688
G1 X197.737 Y195.73 E30.02009
G1 X196.967 Y198.126 E30.10379
G1 X196.054 Y201.12 E30.2079
G1 X195.464 Y202.93 E30.27122
G1 X195.222 Y203.641 E30.2962
G1 X194.887 Y204.499 E30.32683
G1 X194.48 Y205.325 E30.35746
G1 X194.003 Y206.112 E30.38807
G1 X193.459 Y206.855 E30.4187
G1 X192.852 Y207.548 E30.44934
G1 X192.188 Y208.185 E30.47994
G1 X191.559 Y208.697 E30.50692
G1 X190.746 Y209.307 E30.54072
G1 X189.233 Y210.409 E30.60298
G1 X188.497 Y210.929 E30.63295
G1 X187.723 Y211.427 E30.66356
G1 X186.908 Y211.855 E30.69418
G1 X186.059 Y212.211 E30.7248
G1 X184.994 Y212.542 E30.76189
G1 X184.357 Y212.703 E30.78375
G1 X181.837 Y213.379 E30.87053
G1 X179.625 Y214.036 E30.94727
G1 X178.632 Y214.346 E30.98187
G1 X177.742 Y214.581 E31.01249
G1 X176.835 Y214.739 E31.04311
G1 X175.975 Y214.814 E31.07182
