;FLAVOR:Marlin
;TIME:14808
;Filament used: 7.64194m
;Layer height: 0.2
;MINX:31.889
;MINY:29.064
;MINZ:0.2
;MAXX:244.695
;MAXY:234.028
;MAXZ:72.4
;Generated with Cura_SteamEngine 5.2.1
M140 S60
M105
M190 S60
M104 S215
M105
M109 S215
M82 ;absolute extrusion mode
; Ender 3 Max Custom Start G-code
G92 E0 ; Reset Extruder
G28 ; Home all axes
G1 Z2.0 F3000 ; Move Z Axis up little to prevent scratching of Heat Bed
G1 X0.1 Y20 Z0.3 F5000.0 ; Move to start position
G1 X0.1 Y200.0 Z0.3 F1500.0 E15 ; Draw the first line
G1 X0.4 Y200.0 Z0.3 F5000.0 ; Move to side a little
G1 X0.4 Y20 Z0.3 F1500.0 E30 ; Draw the second line
G92 E0 ; Reset Extruder
G1 Z2.0 F3000 ; Move Z Axis up little to prevent scratching of Heat Bed
G1 X5 Y20 Z0.3 F5000.0 ; Move over to prevent blob squish
G92 E0
G92 E0
G1 F1500 E-6.5
;LAYER_COUNT:362
;LAYER:0
M107
G0 F6000 X57.084 Y35.973 Z0.2
;TYPE:SKIRT
G1 F1500 E0
G1 F1200 X57.475 Y35.366 E0.02401
G1 X57.801 Y34.894 E0.04309
G1 X58.366 Y34.145 E0.0743
G1 X59.051 Y33.389 E0.10823
G1 X59.394 Y33.044 E0.12441
G1 X60.083 Y32.408 E0.1556
G1 X60.772 Y31.87 E0.18467
G1 X61.203 Y31.56 E0.20233
G1 X61.987 Y31.045 E0.23353
G1 X62.903 Y30.556 E0.26807
G1 X63.391 Y30.324 E0.28604
G1 X64.254 Y29.957 E0.31723
G1 X65.22 Y29.646 E0.35098
G1 X65.693 Y29.517 E0.36729
G1 X66.607 Y29.309 E0.39847
G1 X67.49 Y29.184 E0.42813
G1 X68.019 Y29.131 E0.44581
G1 X68.951 Y29.077 E0.47686
G1 X69.753 Y29.065 E0.50354
G1 X114.973 Y29.064 E2.00756
G1 X115.788 Y29.074 E2.03467
G1 X116.546 Y29.11 E2.05991
G1 X117.09 Y29.155 E2.07806
G1 X118.02 Y29.273 E2.10924
G1 X118.957 Y29.474 E2.14112
G1 X119.452 Y29.603 E2.15813
G1 X120.349 Y29.878 E2.18934
G1 X121.227 Y30.231 E2.22081
G1 X121.685 Y30.439 E2.23754
G1 X122.521 Y30.863 E2.26872
G1 X123.351 Y31.379 E2.30122
G1 X123.811 Y31.694 E2.31977
G1 X124.562 Y32.256 E2.35097
G1 X125.352 Y32.97 E2.38638
G1 X125.707 Y33.323 E2.40303
G1 X126.343 Y34.012 E2.43422
G1 X126.842 Y34.646 E2.46106
G1 X127.07 Y34.959 E2.47394
G1 X128.803 Y37.429 E2.57429
G1 X130.32 Y39.463 E2.65869
G1 X131.877 Y41.433 E2.7422
G1 X133.491 Y43.361 E2.82583
G1 X135.178 Y45.263 E2.91039
G1 X136.886 Y47.083 E2.99341
G1 X138.653 Y48.864 E3.07685
G1 X140.466 Y50.587 E3.16004
G1 X142.367 Y52.297 E3.24508
G1 X144.261 Y53.905 E3.32772
G1 X146.258 Y55.507 E3.41287
G1 X148.234 Y57 E3.49524
G1 X150.312 Y58.481 E3.58011
G1 X152.38 Y59.869 E3.66295
G1 X154.522 Y61.218 E3.74715
G1 X156.698 Y62.506 E3.83125
G1 X158.869 Y63.709 E3.9138
G1 X161.118 Y64.873 E3.99803
G1 X163.39 Y65.969 E4.08193
G1 X165.685 Y66.997 E4.16557
G1 X168.039 Y67.972 E4.25031
G1 X170.352 Y68.854 E4.33265
G1 X172.733 Y69.687 E4.41654
G1 X175.155 Y70.457 E4.50107
G1 X177.528 Y71.138 E4.58319
G1 X179.993 Y71.771 E4.66783
G1 X182.482 Y72.336 E4.75272
G1 X184.916 Y72.816 E4.83524
G1 X187.409 Y73.235 E4.91932
G1 X189.891 Y73.581 E5.00267
G1 X192.411 Y73.859 E5.08699
G1 X194.92 Y74.064 E5.17072
G1 X197.181 Y74.189 E5.24604
G1 X198.454 Y74.243 E5.28841
G1 X199.388 Y74.323 E5.31959
G1 X200.312 Y74.482 E5.35078
G1 X201.22 Y74.719 E5.38199
G1 X202.104 Y75.033 E5.41319
G1 X202.958 Y75.421 E5.44439
G1 X203.775 Y75.88 E5.47556
G1 X204.551 Y76.407 E5.50676
G1 X205.279 Y76.998 E5.53794
G1 X205.639 Y77.332 E5.55428
G1 X206.148 Y77.825 E5.57785
G1 X206.876 Y78.568 E5.61244
G1 X207.5 Y79.268 E5.64363
G1 X208.062 Y80.019 E5.67483
G1 X208.558 Y80.815 E5.70602
G1 X208.984 Y81.651 E5.73723
G1 X209.337 Y82.52 E5.76843
G1 X209.616 Y83.415 E5.79961
G1 X209.833 Y84.43 E5.83413
G1 X210.243 Y86.908 E5.91767
G1 X210.727 Y89.402 E6.00217
G1 X211.267 Y91.822 E6.08464
G1 X211.896 Y94.308 E6.16993
G1 X212.578 Y96.712 E6.25304
G1 X213.332 Y99.113 E6.33674
G1 X214.152 Y101.484 E6.42019
G1 X215.042 Y103.84 E6.50395
G1 X216 Y106.176 E6.58793
G1 X217.027 Y108.489 E6.6721
G1 X218.102 Y110.738 E6.75501
G1 X219.264 Y113.002 E6.83965
G1 X220.455 Y115.17 E6.92192
G1 X221.741 Y117.359 E7.00636
G1 X223.076 Y119.492 E7.09006
G1 X224.481 Y121.605 E7.17445
G1 X225.922 Y123.64 E7.25739
G1 X227.432 Y125.652 E7.34106
G1 X229.017 Y127.644 E7.42573
G1 X230.631 Y129.558 E7.509
G1 X232.29 Y131.415 E7.59182
G1 X234.041 Y133.27 E7.67666
G1 X235.807 Y135.035 E7.75971
G1 X237.63 Y136.757 E7.84311
G1 X239.96 Y138.838 E7.94702
G1 X240.632 Y139.492 E7.97821
G1 X241.246 Y140.201 E8.0094
G1 X241.798 Y140.959 E8.04059
G1 X242.283 Y141.762 E8.07179
G1 X242.698 Y142.603 E8.10298
G1 X243.035 Y143.464 E8.13374
G1 X243.369 Y144.438 E8.16798
G1 X243.95 Y146.223 E8.23042
G1 X244.21 Y147.06 E8.25957
G1 X244.45 Y147.966 E8.29074
G1 X244.611 Y148.89 E8.32194
G1 X244.693 Y149.825 E8.35315
G1 X244.695 Y150.762 E8.38432
G1 X244.617 Y151.697 E8.41553
G1 X244.46 Y152.622 E8.44673
G1 X244.223 Y153.536 E8.47814
G1 X243.889 Y154.622 E8.51593
G1 X243.297 Y156.438 E8.57945
G1 X243.052 Y157.158 E8.60475
G1 X242.712 Y158.032 E8.63594
G1 X242.299 Y158.874 E8.66713
G1 X241.552 Y160.059 E8.71373
G1 X240 Y162.205 E8.80181
G1 X238.575 Y164.298 E8.88603
G1 X237.218 Y166.418 E8.96975
G1 X235.917 Y168.585 E9.05381
G1 X234.689 Y170.764 E9.137
G1 X233.517 Y172.99 E9.22068
G1 X232.407 Y175.252 E9.30448
G1 X231.357 Y177.554 E9.38863
G1 X230.388 Y179.847 E9.47143
G1 X229.457 Y182.239 E9.5568
G1 X228.617 Y184.589 E9.63981
G1 X227.851 Y186.943 E9.72214
G1 X227.128 Y189.395 E9.80717
G1 X226.484 Y191.831 E9.89097
G1 X225.912 Y194.274 E9.97442
G1 X225.405 Y196.754 E10.05862
G1 X224.971 Y199.232 E10.14229
G1 X224.612 Y201.688 E10.22484
G1 X224.312 Y204.247 E10.31054
G1 X224.135 Y206.052 E10.37086
G1 X224.004 Y206.98 E10.40203
G1 X223.794 Y207.894 E10.43322
G1 X223.507 Y208.787 E10.46442
G1 X223.146 Y209.653 E10.49563
G1 X222.712 Y210.484 E10.52681
G1 X222.208 Y211.275 E10.558
G1 X221.639 Y212.021 E10.58921
G1 X221.009 Y212.715 E10.62039
G1 X220.322 Y213.353 E10.65157
G1 X219.582 Y213.931 E10.6828
G1 X218.797 Y214.443 E10.71397
G1 X217.97 Y214.887 E10.74519
G1 X217.109 Y215.258 E10.77637
G1 X216.22 Y215.555 E10.80755
G1 X215.308 Y215.775 E10.83875
G1 X214.381 Y215.916 E10.86994
G1 X213.496 Y215.977 E10.89944
G1 X212.867 Y215.99 E10.92037
G1 X210.364 Y215.99 E11.00362
G1 X207.756 Y216.027 E11.09037
G1 X205.234 Y216.134 E11.17433
G1 X202.739 Y216.311 E11.25752
G1 X200.241 Y216.559 E11.34101
G1 X197.752 Y216.877 E11.42447
G1 X195.243 Y217.271 E11.50894
G1 X192.748 Y217.735 E11.59335
G1 X190.34 Y218.252 E11.67526
G1 X187.879 Y218.856 E11.75955
G1 X185.432 Y219.53 E11.84396
G1 X183.053 Y220.258 E11.92671
G1 X180.65 Y221.069 E12.01107
G1 X178.28 Y221.943 E12.09508
G1 X175.947 Y222.879 E12.17869
G1 X173.655 Y223.876 E12.26182
G1 X171.341 Y224.962 E12.34684
G1 X169.127 Y226.077 E12.42929
G1 X166.895 Y227.281 E12.51364
G1 X164.723 Y228.535 E12.59705
G1 X162.578 Y229.854 E12.68081
G1 X159.84 Y231.662 E12.78994
G1 X159.214 Y232.091 E12.81518
G1 X158.419 Y232.588 E12.84636
G1 X157.584 Y233.015 E12.87755
G1 X156.715 Y233.37 E12.90877
G1 X155.82 Y233.649 E12.93996
G1 X154.904 Y233.851 E12.97115
G1 X153.974 Y233.974 E13.00236
G1 X153.192 Y234.016 E13.0284
G1 X152.438 Y234.028 E13.05348
G1 X147.535 Y234.027 E13.21656
G1 X146.831 Y234.016 E13.23998
G1 X145.895 Y233.961 E13.27116
G1 X144.967 Y233.827 E13.30235
G1 X144.053 Y233.614 E13.33356
G1 X143.161 Y233.324 E13.36476
G1 X142.065 Y232.846 E13.40453
G1 X141.283 Y232.452 E13.43365
G1 X140.276 Y231.926 E13.47144
G1 X137.996 Y230.814 E13.55581
G1 X135.704 Y229.777 E13.63948
G1 X133.405 Y228.813 E13.7224
G1 X131.023 Y227.892 E13.80734
G1 X128.673 Y227.061 E13.89024
G1 X126.281 Y226.29 E13.97383
G1 X123.863 Y225.584 E14.05761
G1 X121.413 Y224.944 E14.14183
G1 X118.967 Y224.379 E14.22533
G1 X116.501 Y223.882 E14.309
G1 X114.026 Y223.455 E14.39253
G1 X111.509 Y223.095 E14.4771
G1 X109.062 Y222.814 E14.55902
G1 X106.523 Y222.596 E14.64378
G1 X103.99 Y222.45 E14.72817
G1 X101.505 Y222.377 E14.81086
G1 X98.981 Y222.375 E14.89481
G1 X96.457 Y222.444 E14.97879
G1 X93.938 Y222.584 E15.0627
G1 X91.462 Y222.792 E15.14534
G1 X88.939 Y223.077 E15.22979
G1 X86.412 Y223.434 E15.31467
G1 X83.97 Y223.844 E15.39703
G1 X83.04 Y223.96 E15.4282
G1 X82.102 Y223.996 E15.45942
G1 X81.166 Y223.952 E15.49059
G1 X80.236 Y223.828 E15.52179
G1 X78.986 Y223.531 E15.56453
G1 X78.513 Y223.389 E15.58095
G1 X77.627 Y223.082 E15.61214
G1 X76.771 Y222.7 E15.64332
G1 X75.779 Y222.14 E15.6812
G1 X74.809 Y221.524 E15.71942
G1 X74.235 Y221.149 E15.74223
G1 X72.77 Y220.235 E15.79966
G1 X71.996 Y219.705 E15.83086
G1 X71.27 Y219.111 E15.86206
G1 X70.598 Y218.458 E15.89322
G1 X69.983 Y217.75 E15.92441
G1 X69.392 Y216.933 E15.95795
G1 X67.77 Y214.46 E16.05632
G1 X67.523 Y214.066 E16.07179
G1 X67.077 Y213.319 E16.10072
G1 X66.614 Y212.457 E16.13327
G1 X66.263 Y211.729 E16.16015
G1 X65.089 Y209.381 E16.24746
G1 X63.876 Y207.117 E16.33289
G1 X62.651 Y204.979 E16.41484
G1 X61.337 Y202.831 E16.49859
G1 X59.965 Y200.719 E16.58236
G1 X58.517 Y198.629 E16.66693
G1 X57.032 Y196.606 E16.75039
G1 X55.465 Y194.594 E16.83521
G1 X53.889 Y192.684 E16.91758
G1 X52.249 Y190.81 E17.0004
G1 X50.521 Y188.941 E17.08506
G1 X48.423 Y186.804 E17.18467
G1 X47.795 Y186.107 E17.21587
G1 X47.229 Y185.359 E17.24707
G1 X46.772 Y184.642 E17.27535
G1 X46.615 Y184.373 E17.28571
G1 X46.177 Y183.543 E17.31692
G1 X45.811 Y182.68 E17.3481
G1 X45.521 Y181.788 E17.3793
G1 X45.286 Y180.759 E17.4144
G1 X45.24 Y180.501 E17.42312
G1 X45.115 Y179.571 E17.45433
G1 X45.07 Y178.747 E17.48178
G1 X45.057 Y177.941 E17.50859
G1 X45.057 Y166.67 E17.88346
G1 X45.068 Y165.963 E17.90698
G1 X45.123 Y165.027 E17.93817
G1 X45.257 Y164.098 E17.96939
G1 X45.415 Y163.388 E17.99358
G1 X46.019 Y161.046 E18.07402
G1 X46.578 Y158.614 E18.15702
G1 X47.087 Y156.07 E18.24331
G1 X47.497 Y153.672 E18.32423
G1 X47.858 Y151.133 E18.40952
G1 X48.136 Y148.673 E18.49186
G1 X48.351 Y146.143 E18.57631
G1 X48.492 Y143.627 E18.66013
G1 X48.563 Y141.102 E18.74414
G1 X48.563 Y138.577 E18.82813
G1 X48.492 Y136.091 E18.91084
G1 X48.348 Y133.573 E18.99473
G1 X48.132 Y131.048 E19.07902
G1 X47.849 Y128.564 E19.16217
G1 X47.494 Y126.071 E19.24592
G1 X47.068 Y123.594 E19.32952
G1 X46.576 Y121.138 E19.41283
G1 X46 Y118.642 E19.49803
G1 X45.378 Y116.258 E19.57998
G1 X44.66 Y113.786 E19.66559
G1 X43.898 Y111.423 E19.74817
G1 X43.061 Y109.052 E19.8318
G1 X42.154 Y106.698 E19.91571
G1 X41.193 Y104.4 E19.99855
G1 X40.141 Y102.075 E20.08343
G1 X39.037 Y99.804 E20.16741
G1 X37.878 Y97.584 E20.25071
G1 X36.597 Y95.293 E20.33801
G1 X34.068 Y90.912 E20.50626
G1 X33.692 Y90.24 E20.53187
G1 X33.346 Y89.566 E20.55707
G1 X33.123 Y89.092 E20.57449
G1 X32.76 Y88.227 E20.60569
G1 X32.475 Y87.344 E20.63655
G1 X32.336 Y86.842 E20.65388
G1 X32.124 Y85.929 E20.68505
G1 X31.985 Y84.932 E20.71853
G1 X31.937 Y84.419 E20.73567
G1 X31.889 Y83.482 E20.76688
G1 X31.92 Y82.568 E20.79729
G1 X31.96 Y82.037 E20.815
G1 X32.07 Y81.105 E20.84622
G1 X32.289 Y80.072 E20.88134
G1 X32.417 Y79.584 E20.89812
G1 X32.693 Y78.688 E20.9293
G1 X33.039 Y77.831 E20.96004
G1 X33.254 Y77.357 E20.97735
G1 X33.665 Y76.543 E21.00768
G1 X34.061 Y75.833 E21.03472
G1 X56.766 Y36.505 E22.54512
G1 X57.084 Y35.973 E22.56573
G0 F6000 X57.428 Y36.178
G1 F1200 X57.804 Y35.593 E22.58886
G1 X58.13 Y35.121 E22.60794
G1 X58.686 Y34.387 E22.63857
G1 X59.335 Y33.671 E22.67071
G1 X59.678 Y33.326 E22.68689
G1 X60.355 Y32.702 E22.71751
G1 X61.006 Y32.195 E22.74495
G1 X61.437 Y31.885 E22.76261
G1 X62.207 Y31.38 E22.79324
G1 X63.075 Y30.917 E22.82596
G1 X63.563 Y30.685 E22.84393
G1 X64.411 Y30.326 E22.87456
G1 X65.325 Y30.032 E22.90649
G1 X65.798 Y29.903 E22.9228
G1 X66.696 Y29.699 E22.95343
G1 X67.53 Y29.582 E22.98144
G1 X68.059 Y29.529 E22.99912
G1 X68.957 Y29.477 E23.02904
G1 X69.759 Y29.465 E23.05572
G1 X114.973 Y29.464 E24.55954
G1 X115.782 Y29.474 E24.58645
G1 X116.513 Y29.509 E24.61079
G1 X117.057 Y29.554 E24.62895
G1 X117.97 Y29.67 E24.65956
G1 X118.856 Y29.861 E24.6897
G1 X119.351 Y29.99 E24.70672
G1 X120.231 Y30.26 E24.73733
G1 X121.061 Y30.596 E24.76711
G1 X121.519 Y30.804 E24.78384
G1 X122.34 Y31.22 E24.81446
G1 X123.125 Y31.709 E24.84522
G1 X123.585 Y32.024 E24.86376
G1 X124.321 Y32.577 E24.89438
G1 X125.07 Y33.254 E24.92796
G1 X125.425 Y33.607 E24.94461
G1 X126.049 Y34.283 E24.97521
G1 X126.519 Y34.882 E25.00053
G1 X126.859 Y35.351 E25.0198
G1 X128.499 Y37.691 E25.11484
G1 X130 Y39.704 E25.19836
G1 X131.572 Y41.692 E25.28265
G1 X133.184 Y43.618 E25.36619
G1 X134.872 Y45.52 E25.45077
G1 X136.593 Y47.355 E25.53444
G1 X138.377 Y49.153 E25.61869
G1 X140.206 Y50.892 E25.70263
G1 X142.084 Y52.581 E25.78664
G1 X144.035 Y54.238 E25.87177
G1 X145.995 Y55.809 E25.95532
G1 X148.023 Y57.342 E26.03987
G1 X150.046 Y58.783 E26.12248
G1 X152.182 Y60.216 E26.20803
G1 X154.31 Y61.558 E26.29171
G1 X156.465 Y62.832 E26.37497
G1 X158.712 Y64.078 E26.46043
G1 X160.926 Y65.223 E26.54333
G1 X163.232 Y66.336 E26.6285
G1 X165.518 Y67.36 E26.71181
G1 X167.892 Y68.343 E26.79727
G1 X170.246 Y69.241 E26.88107
G1 X172.586 Y70.059 E26.96351
G1 X175.038 Y70.839 E27.04909
G1 X177.455 Y71.533 E27.13273
G1 X179.902 Y72.162 E27.21677
G1 X182.388 Y72.725 E27.30154
G1 X184.85 Y73.211 E27.38501
G1 X187.318 Y73.626 E27.46825
G1 X189.86 Y73.98 E27.55361
G1 X192.339 Y74.254 E27.63657
G1 X194.902 Y74.464 E27.7221
G1 X197.222 Y74.591 E27.79938
G1 X198.437 Y74.643 E27.83983
G1 X199.354 Y74.722 E27.87044
G1 X200.261 Y74.88 E27.90106
G1 X201.151 Y75.116 E27.93168
G1 X202.017 Y75.429 E27.96231
G1 X202.852 Y75.816 E27.99292
G1 X203.651 Y76.274 E28.02355
G1 X204.407 Y76.799 E28.05416
G1 X205.361 Y77.619 E28.09601
G1 X205.87 Y78.112 E28.11957
G1 X206.589 Y78.846 E28.15375
G1 X207.201 Y79.534 E28.18437
G1 X207.751 Y80.273 E28.21501
G1 X208.234 Y81.056 E28.24561
G1 X208.648 Y81.879 E28.27625
G1 X208.989 Y82.734 E28.30687
G1 X209.254 Y83.616 E28.3375
G1 X209.439 Y84.495 E28.36738
G1 X209.856 Y87.013 E28.45227
G1 X210.33 Y89.459 E28.53513
G1 X210.882 Y91.935 E28.61951
G1 X211.509 Y94.41 E28.70443
G1 X212.188 Y96.803 E28.78716
G1 X212.959 Y99.258 E28.87275
G1 X213.772 Y101.608 E28.95545
G1 X214.674 Y103.997 E29.04039
G1 X215.635 Y106.341 E29.12465
G1 X216.658 Y108.645 E29.20849
G1 X217.749 Y110.928 E29.29265
G1 X218.893 Y113.155 E29.37592
G1 X220.126 Y115.4 E29.46111
G1 X221.39 Y117.552 E29.54412
G1 X222.747 Y119.721 E29.62922
G1 X224.138 Y121.812 E29.71275
G1 X225.608 Y123.889 E29.79738
G1 X227.115 Y125.896 E29.88086
G1 X228.714 Y127.906 E29.96628
G1 X230.31 Y129.799 E30.04863
G1 X232.002 Y131.692 E30.13308
G1 X233.766 Y133.561 E30.21856
G1 X235.515 Y135.309 E30.3008
G1 X237.389 Y137.08 E30.38656
G1 X239.693 Y139.137 E30.48929
G1 X240.353 Y139.779 E30.51991
G1 X240.954 Y140.476 E30.55053
G1 X241.493 Y141.223 E30.58116
G1 X241.964 Y142.014 E30.61178
G1 X242.366 Y142.842 E30.6424
G1 X242.657 Y143.594 E30.66921
G1 X242.989 Y144.562 E30.70325
G1 X243.57 Y146.347 E30.76569
G1 X243.828 Y147.178 E30.79463
G1 X244.063 Y148.068 E30.82524
G1 X244.219 Y148.976 E30.85589
G1 X244.295 Y149.893 E30.88649
G1 X244.292 Y150.814 E30.91712
G1 X244.209 Y151.731 E30.94775
G1 X244.047 Y152.637 E30.97836
G1 X243.84 Y153.419 E31.00526
G1 X243.508 Y154.499 E31.04284
G1 X242.918 Y156.309 E31.10616
G1 X242.673 Y157.029 E31.13146
G1 X242.339 Y157.887 E31.16208
G1 X241.931 Y158.712 E31.19269
G1 X241.228 Y159.825 E31.23648
G1 X239.661 Y161.992 E31.32542
G1 X238.24 Y164.078 E31.40937
G1 X236.881 Y166.202 E31.49324
G1 X235.584 Y168.362 E31.57704
G1 X234.33 Y170.587 E31.66198
G1 X233.161 Y172.807 E31.74543
G1 X232.041 Y175.089 E31.82998
G1 X231.002 Y177.368 E31.91329
G1 X230.001 Y179.737 E31.99883
G1 X229.087 Y182.084 E32.0826
G1 X228.243 Y184.447 E32.16605
G1 X227.463 Y186.843 E32.24986
G1 X226.743 Y189.285 E32.33454
G1 X226.102 Y191.71 E32.41797
G1 X225.515 Y194.215 E32.50354
