;FLAVOR:Marlin
;TIME:15005
;Filament used: 10.3095m
;Layer height: 0.2
;MINX:27.232
;MINY:77.322
;MINZ:0.2
;MAXX:243.578
;MAXY:260.835
;MAXZ:32.8
;Generated with Cura_SteamEngine 5.2.1
M140 S60
M105
M190 S60
M104 S210
M105
M109 S210
M82 ;absolute extrusion mode
; Ender 3 Max Custom Start G-code
G92 E0 ; Reset Extruder
G28 ; Home all axes
G1 Z2.0 F3000 ; Move Z Axis up little to prevent scratching of Heat Bed
G1 X0.1 Y20 Z0.3 F5000.0 ; Move to start position
G1 X0.1 Y200.0 Z0.3 F1500.0 E15 ; Draw the first line
G1 X0.4 Y200.0 Z0.3 F5000.0 ; Move to side a little
G1 X0.4 Y20 Z0.3 F1500.0 E30 ; Draw the second line
G92 E0 ; Reset Extruder
G1 Z2.0 F3000 ; Move Z Axis up little to prevent scratching of Heat Bed
G1 X5 Y20 Z0.3 F5000.0 ; Move over to prevent blob squish
G92 E0
G92 E0
G1 F1500 E-6.5
;LAYER_COUNT:164
;LAYER:0
M107
G0 F6000 X52.052 Y79.655 Z0.2
;TYPE:SKIRT
G1 F1500 E0
G1 F1200 X52.486 Y79.4 E0.01674
G1 X52.95 Y79.141 E0.03442
G1 X53.787 Y78.719 E0.06559
G1 X54.26 Y78.519 E0.08267
G1 X54.775 Y78.315 E0.1011
G1 X55.972 Y77.919 E0.14303
G1 X56.333 Y77.822 E0.15546
G1 X57.217 Y77.623 E0.1856
G1 X57.673 Y77.54 E0.20102
G1 X58.566 Y77.41 E0.23103
G1 X59.599 Y77.339 E0.26547
G1 X60.19 Y77.327 E0.28513
G1 X88.705 Y77.322 E1.23355
G1 X89.588 Y77.333 E1.26292
G1 X90.455 Y77.379 E1.29179
G1 X90.961 Y77.426 E1.3087
G1 X92.128 Y77.598 E1.34793
G1 X92.434 Y77.66 E1.35831
G1 X93.244 Y77.856 E1.38603
G1 X93.647 Y77.97 E1.39996
G1 X94.357 Y78.197 E1.42475
G1 X94.659 Y78.305 E1.43542
G1 X95.475 Y78.635 E1.4647
G1 X95.81 Y78.786 E1.47692
G1 X96.918 Y79.363 E1.51847
G1 X97.227 Y79.547 E1.53043
G1 X97.85 Y79.947 E1.55505
G1 X98.115 Y80.13 E1.56577
G1 X98.782 Y80.622 E1.59333
G1 X99.451 Y81.19 E1.62252
G1 X99.659 Y81.379 E1.63187
G1 X100.16 Y81.864 E1.65506
G1 X100.477 Y82.191 E1.67021
G1 X101.1 Y82.891 E1.70138
G1 X101.4 Y83.275 E1.71758
G1 X101.698 Y83.675 E1.73417
G1 X102.302 Y84.575 E1.77022
G1 X103.001 Y85.74 E1.81541
G1 X116.942 Y109.895 E2.74302
G1 X117.326 Y110.589 E2.7694
G1 X117.677 Y111.28 E2.79517
G1 X117.954 Y111.889 E2.81743
G1 X118.162 Y112.375 E2.83501
G1 X119.228 Y114.772 E2.92226
G1 X120.32 Y117.05 E3.00628
G1 X121.47 Y119.286 E3.08991
G1 X122.668 Y121.463 E3.17256
G1 X123.963 Y123.662 E3.25744
G1 X125.287 Y125.776 E3.3404
G1 X126.691 Y127.882 E3.42459
G1 X128.142 Y129.928 E3.50801
G1 X129.667 Y131.956 E3.59241
G1 X131.213 Y133.895 E3.67489
G1 X132.865 Y135.851 E3.76004
G1 X134.53 Y137.712 E3.8431
G1 X136.258 Y139.538 E3.92672
G1 X138.049 Y141.327 E4.01091
G1 X139.869 Y143.043 E4.09411
G1 X141.745 Y144.715 E4.17769
G1 X143.668 Y146.334 E4.2613
G1 X145.658 Y147.916 E4.34585
G1 X147.648 Y149.407 E4.42856
G1 X149.724 Y150.873 E4.51309
G1 X151.826 Y152.271 E4.59705
G1 X153.942 Y153.592 E4.68002
G1 X156.114 Y154.865 E4.76375
G1 X158.323 Y156.077 E4.84756
G1 X160.568 Y157.227 E4.93145
G1 X162.857 Y158.319 E5.0158
G1 X165.129 Y159.325 E5.09845
G1 X167.489 Y160.29 E5.18325
G1 X169.827 Y161.171 E5.26635
G1 X172.231 Y162 E5.35093
G1 X174.587 Y162.739 E5.43305
G1 X177.046 Y163.433 E5.51803
G1 X179.459 Y164.042 E5.60081
G1 X181.954 Y164.597 E5.68582
G1 X184.389 Y165.067 E5.7683
G1 X186.904 Y165.478 E5.85306
G1 X189.386 Y165.813 E5.93636
G1 X191.871 Y166.077 E6.01948
G1 X194.385 Y166.272 E6.10334
G1 X196.902 Y166.396 E6.18716
G1 X199.441 Y166.449 E6.27163
G1 X201.702 Y166.436 E6.34683
G1 X202.654 Y166.419 E6.3785
G1 X203.351 Y166.423 E6.40168
G1 X204.072 Y166.458 E6.42569
G1 X204.53 Y166.495 E6.44097
G1 X205.461 Y166.61 E6.47217
G1 X205.927 Y166.698 E6.48795
G1 X206.422 Y166.803 E6.50478
G1 X207.18 Y166.993 E6.53077
G1 X208.135 Y167.29 E6.56403
G1 X208.923 Y167.599 E6.59218
G1 X209.186 Y167.712 E6.60171
G1 X210.142 Y168.179 E6.63709
G1 X211.342 Y168.841 E6.68268
G1 X235.664 Y182.881 E7.61674
G1 X236.27 Y183.244 E7.64023
G1 X236.893 Y183.647 E7.66491
G1 X237.178 Y183.845 E7.67645
G1 X238.075 Y184.54 E7.71419
G1 X238.361 Y184.786 E7.72674
G1 X239.059 Y185.441 E7.75858
G1 X239.346 Y185.735 E7.77224
G1 X239.938 Y186.383 E7.80143
G1 X240.564 Y187.183 E7.83522
G1 X240.842 Y187.57 E7.85107
G1 X241.505 Y188.613 E7.89217
G1 X241.752 Y189.054 E7.90899
G1 X242.175 Y189.891 E7.94018
G1 X242.38 Y190.372 E7.95757
G1 X242.601 Y190.929 E7.9775
G1 X242.909 Y191.815 E8.0087
G1 X243.112 Y192.57 E8.0347
G1 X243.273 Y193.308 E8.05982
G1 X243.359 Y193.778 E8.07572
G1 X243.491 Y194.677 E8.10594
G1 X243.561 Y195.68 E8.13938
G1 X243.575 Y196.342 E8.1614
G1 X243.578 Y224.967 E9.11347
G1 X243.566 Y225.761 E9.13988
G1 X243.521 Y226.604 E9.16796
G1 X243.478 Y227.071 E9.18356
G1 X243.288 Y228.328 E9.22584
G1 X243.212 Y228.689 E9.23811
G1 X243.026 Y229.44 E9.26385
G1 X242.947 Y229.717 E9.27343
G1 X242.725 Y230.408 E9.29757
G1 X242.575 Y230.827 E9.31237
G1 X242.034 Y232.086 E9.35795
G1 X241.827 Y232.495 E9.37319
G1 X241.447 Y233.183 E9.39933
G1 X241.245 Y233.52 E9.4124
G1 X240.452 Y234.671 E9.45889
G1 X240.211 Y234.977 E9.47185
G1 X239.722 Y235.555 E9.49703
G1 X239.501 Y235.799 E9.50798
G1 X238.992 Y236.325 E9.53232
G1 X238.784 Y236.526 E9.54194
G1 X238.172 Y237.081 E9.56942
G1 X237.51 Y237.606 E9.59752
G1 X237.286 Y237.772 E9.6068
G1 X236.786 Y238.122 E9.6271
G1 X236.146 Y238.531 E9.65236
G1 X235.344 Y239.011 E9.68344
G1 X210.99 Y253.071 E10.61876
G1 X210.494 Y253.347 E10.63764
G1 X209.884 Y253.662 E10.66047
G1 X209.507 Y253.842 E10.67437
G1 X208.871 Y254.121 E10.69747
G1 X208.473 Y254.281 E10.71173
G1 X207.589 Y254.594 E10.74292
G1 X207.079 Y254.736 E10.76053
G1 X206.524 Y254.877 E10.77958
G1 X205.606 Y255.069 E10.81077
G1 X205.073 Y255.144 E10.82867
G1 X204.604 Y255.198 E10.84438
G1 X203.779 Y255.266 E10.87191
G1 X202.845 Y255.283 E10.90298
G1 X202.033 Y255.245 E10.93002
G1 X201.64 Y255.214 E10.94313
G1 X200.873 Y255.126 E10.9688
G1 X200.533 Y255.075 E10.98024
G1 X199.613 Y254.897 E11.01141
G1 X199.152 Y254.776 E11.02726
G1 X198.657 Y254.635 E11.04438
G1 X197.886 Y254.389 E11.07129
G1 X197.13 Y254.092 E11.09831
G1 X196.737 Y253.923 E11.11254
G1 X195.88 Y253.51 E11.14418
G1 X195.298 Y253.192 E11.16624
G1 X188.445 Y249.236 E11.42942
G1 X186.187 Y247.975 E11.51544
G1 X183.958 Y246.812 E11.59906
G1 X181.693 Y245.709 E11.68285
G1 X179.431 Y244.686 E11.76542
G1 X177.041 Y243.688 E11.85157
G1 X174.766 Y242.81 E11.93267
G1 X172.357 Y241.959 E12.01765
G1 X169.957 Y241.187 E12.1015
G1 X167.561 Y240.489 E12.18451
G1 X165.116 Y239.852 E12.26854
G1 X162.63 Y239.28 E12.35339
G1 X160.202 Y238.792 E12.43576
G1 X157.708 Y238.364 E12.51992
G1 X155.22 Y238.01 E12.60351
G1 X152.709 Y237.723 E12.68757
G1 X150.217 Y237.51 E12.77075
G1 X147.686 Y237.366 E12.85507
G1 X145.201 Y237.295 E12.93776
G1 X142.678 Y237.295 E13.02167
G1 X140.154 Y237.366 E13.10565
G1 X137.632 Y237.508 E13.18967
G1 X135.109 Y237.721 E13.27388
G1 X132.647 Y238 E13.35629
G1 X130.113 Y238.36 E13.44142
G1 X127.65 Y238.782 E13.52453
G1 X125.194 Y239.274 E13.60784
G1 X122.749 Y239.834 E13.69127
G1 X120.293 Y240.473 E13.77568
G1 X117.89 Y241.171 E13.8589
G1 X115.472 Y241.948 E13.94338
G1 X113.118 Y242.778 E14.0264
G1 X110.775 Y243.68 E14.1099
G1 X108.435 Y244.659 E14.19427
G1 X106.125 Y245.7 E14.27854
G1 X103.879 Y246.792 E14.3616
G1 X101.629 Y247.965 E14.446
G1 X99.355 Y249.234 E14.53261
G1 X84.683 Y257.704 E15.09608
G1 X83.59 Y258.311 E15.13766
G1 X82.977 Y258.626 E15.16059
G1 X82.33 Y258.934 E15.18442
G1 X81.675 Y259.22 E15.20819
G1 X81.108 Y259.446 E15.22849
G1 X80.419 Y259.695 E15.25286
G1 X79.689 Y259.931 E15.27838
G1 X79.008 Y260.127 E15.30195
G1 X78.511 Y260.253 E15.319
G1 X77.809 Y260.407 E15.3429
G1 X77.025 Y260.552 E15.36942
G1 X76.303 Y260.66 E15.3937
G1 X75.722 Y260.728 E15.41316
G1 X75.002 Y260.789 E15.43719
G1 X74.353 Y260.822 E15.4588
G1 X73.64 Y260.835 E15.48252
G1 X72.925 Y260.825 E15.50631
G1 X72.194 Y260.79 E15.53065
G1 X71.562 Y260.739 E15.55174
G1 X70.876 Y260.662 E15.5747
G1 X70.266 Y260.574 E15.59519
G1 X69.542 Y260.445 E15.61965
G1 X68.806 Y260.288 E15.64468
G1 X68.074 Y260.105 E15.66978
G1 X67.529 Y259.949 E15.68863
G1 X66.885 Y259.744 E15.71111
G1 X66.207 Y259.504 E15.73503
G1 X65.522 Y259.235 E15.75951
G1 X64.947 Y258.987 E15.78034
G1 X64.291 Y258.678 E15.80446
G1 X63.367 Y258.198 E15.83909
G1 X62.48 Y257.705 E15.87284
G1 X38.468 Y243.842 E16.79503
G1 X37.26 Y243.12 E16.84184
G1 X36.672 Y242.742 E16.86509
G1 X36.106 Y242.352 E16.88795
G1 X35.525 Y241.923 E16.91197
G1 X34.995 Y241.504 E16.93444
G1 X34.447 Y241.041 E16.9583
G1 X33.975 Y240.615 E16.97945
G1 X33.455 Y240.113 E17.00349
G1 X32.98 Y239.624 E17.02616
G1 X32.493 Y239.089 E17.05022
G1 X32.042 Y238.559 E17.07337
G1 X31.586 Y237.986 E17.09773
G1 X31.226 Y237.501 E17.11782
G1 X30.825 Y236.923 E17.14121
G1 X30.456 Y236.353 E17.1638
G1 X30.082 Y235.732 E17.18791
G1 X29.743 Y235.124 E17.21106
G1 X29.411 Y234.479 E17.23519
G1 X29.155 Y233.939 E17.25507
G1 X28.877 Y233.301 E17.27821
G1 X28.625 Y232.669 E17.30084
G1 X28.377 Y231.981 E17.32517
G1 X28.167 Y231.332 E17.34786
G1 X27.964 Y230.622 E17.37242
G1 X27.815 Y230.028 E17.39278
G1 X27.663 Y229.327 E17.41664
G1 X27.525 Y228.571 E17.4422
G1 X27.421 Y227.882 E17.46538
G1 X27.36 Y227.364 E17.48273
G1 X27.3 Y226.651 E17.50652
G1 X27.252 Y225.59 E17.54185
G1 X27.232 Y224.328 E17.58383
G1 X27.233 Y196.639 E18.50477
G1 X27.253 Y195.424 E18.54519
G1 X27.288 Y194.719 E18.56866
G1 X27.35 Y193.952 E18.59426
G1 X27.431 Y193.241 E18.61806
G1 X27.512 Y192.689 E18.63661
G1 X27.638 Y191.985 E18.6604
G1 X27.795 Y191.251 E18.68537
G1 X27.973 Y190.539 E18.70978
G1 X28.143 Y189.942 E18.73042
G1 X28.355 Y189.278 E18.7536
G1 X28.571 Y188.669 E18.7751
G1 X28.784 Y188.116 E18.79481
G1 X29.885 Y185.473 E18.89004
G1 X30.79 Y183.105 E18.97435
G1 X31.613 Y180.758 E19.05707
G1 X32.38 Y178.354 E19.141
G1 X33.077 Y175.935 E19.22473
G1 X33.708 Y173.486 E19.30884
G1 X34.267 Y171.033 E19.39252
G1 X34.757 Y168.56 E19.47638
G1 X35.173 Y166.095 E19.55952
G1 X35.526 Y163.573 E19.64422
G1 X35.799 Y161.121 E19.72628
G1 X36.008 Y158.583 E19.81098
G1 X36.147 Y156.05 E19.89535
G1 X36.211 Y153.571 E19.97783
G1 X36.204 Y151.04 E20.06201
G1 X36.128 Y148.527 E20.14563
G1 X35.978 Y145.99 E20.23016
G1 X35.763 Y143.526 E20.31243
G1 X35.47 Y141.002 E20.39694
G1 X35.109 Y138.51 E20.48069
G1 X34.676 Y136.016 E20.56488
G1 X34.182 Y133.576 E20.64768
G1 X33.606 Y131.106 E20.73204
G1 X32.976 Y128.707 E20.81454
G1 X32.256 Y126.251 E20.89966
G1 X31.465 Y123.81 E20.985
G1 X31.193 Y123.023 E21.0127
G1 X30.996 Y122.414 E21.03399
G1 X30.77 Y121.628 E21.06119
G1 X30.588 Y120.8 E21.08939
G1 X30.537 Y120.523 E21.09875
G1 X30.428 Y119.794 E21.12327
G1 X30.385 Y119.422 E21.13573
G1 X30.317 Y118.605 E21.16299
G1 X30.302 Y117.786 E21.19024
G1 X30.306 Y117.502 E21.19968
G1 X30.345 Y116.68 E21.22706
G1 X30.434 Y115.876 E21.25396
G1 X30.493 Y115.466 E21.26774
G1 X30.624 Y114.734 E21.29247
G1 X30.699 Y114.383 E21.30441
G1 X30.934 Y113.475 E21.3356
G1 X31.1 Y112.973 E21.35319
G1 X31.22 Y112.638 E21.36502
G1 X31.487 Y111.964 E21.38914
G1 X31.613 Y111.674 E21.39965
G1 X32.059 Y110.765 E21.43333
G1 X32.726 Y109.554 E21.47931
G1 X46.679 Y85.38 E22.40766
G1 X47.091 Y84.688 E22.43445
G1 X47.507 Y84.044 E22.45995
G1 X47.78 Y83.652 E22.47584
G1 X48.58 Y82.637 E22.51882
G1 X48.785 Y82.406 E22.52909
G1 X49.346 Y81.818 E22.55612
G1 X49.699 Y81.475 E22.5725
G1 X50.399 Y80.851 E22.60369
G1 X50.794 Y80.542 E22.62037
G1 X51.276 Y80.183 E22.64035
G1 X52.052 Y79.655 E22.67157
G0 F6000 X52.277 Y79.987
G1 F1200 X52.681 Y79.749 E22.68717
G1 X53.145 Y79.49 E22.70484
G1 X53.967 Y79.077 E22.73544
G1 X54.407 Y78.891 E22.75133
G1 X54.922 Y78.687 E22.76975
G1 X56.075 Y78.305 E22.81015
G1 X56.436 Y78.208 E22.82258
G1 X57.289 Y78.016 E22.85166
G1 X57.745 Y77.933 E22.86708
G1 X58.611 Y77.806 E22.89619
G1 X59.609 Y77.739 E22.92946
G1 X60.19 Y77.727 E22.94879
G1 X88.705 Y77.722 E23.8972
G1 X89.583 Y77.733 E23.9264
G1 X90.418 Y77.777 E23.95422
G1 X90.924 Y77.824 E23.97112
G1 X92.049 Y77.99 E24.00894
G1 X92.355 Y78.052 E24.01932
G1 X93.135 Y78.241 E24.04602
G1 X93.538 Y78.355 E24.05995
G1 X94.222 Y78.574 E24.08384
G1 X94.524 Y78.682 E24.0945
G1 X95.311 Y78.999 E24.12272
G1 X95.646 Y79.15 E24.13494
G1 X96.713 Y79.706 E24.17496
G1 X97.022 Y79.89 E24.18692
G1 X97.622 Y80.276 E24.21065
G1 X97.887 Y80.459 E24.22136
G1 X98.533 Y80.935 E24.24805
G1 X99.182 Y81.486 E24.27637
G1 X99.39 Y81.675 E24.28572
G1 X99.873 Y82.142 E24.30806
G1 X100.19 Y82.469 E24.32321
G1 X101.079 Y83.514 E24.36884
G1 X101.377 Y83.914 E24.38543
G1 X101.959 Y84.781 E24.42016
G1 X102.556 Y85.773 E24.45867
G1 X116.592 Y110.089 E25.39249
G1 X116.976 Y110.783 E25.41887
G1 X117.314 Y111.448 E25.44368
G1 X117.452 Y111.745 E25.45458
G1 X117.799 Y112.545 E25.48358
G1 X118.86 Y114.929 E25.57037
G1 X119.961 Y117.227 E25.65512
G1 X121.107 Y119.455 E25.73845
G1 X122.331 Y121.68 E25.82292
G1 X123.622 Y123.872 E25.90753
G1 X124.948 Y125.989 E25.99061
G1 X126.349 Y128.089 E26.07457
G1 X127.841 Y130.195 E26.16042
G1 X129.337 Y132.183 E26.24317
G1 X130.91 Y134.156 E26.32709
G1 X132.545 Y136.093 E26.4114
G1 X134.241 Y137.988 E26.49599
G1 X135.968 Y139.813 E26.57955
G1 X137.776 Y141.618 E26.66453
G1 X139.592 Y143.332 E26.74758
G1 X141.488 Y145.021 E26.83204
G1 X143.425 Y146.652 E26.91626
G1 X145.415 Y148.234 E27.00081
G1 X147.422 Y149.738 E27.08423
G1 X149.494 Y151.2 E27.16857
G1 X151.598 Y152.6 E27.25263
G1 X153.734 Y153.933 E27.33637
G1 X155.94 Y155.226 E27.42142
G1 X158.127 Y156.426 E27.50439
G1 X160.392 Y157.586 E27.58903
G1 X162.675 Y158.676 E27.67317
G1 X164.978 Y159.695 E27.75693
G1 X167.364 Y160.671 E27.84267
G1 X169.672 Y161.541 E27.92471
G1 X172.086 Y162.373 E28.00963
G1 X174.496 Y163.129 E28.09364
G1 X176.911 Y163.811 E28.17711
G1 X179.412 Y164.442 E28.2629
G1 X181.857 Y164.986 E28.34621
G1 X184.321 Y165.461 E28.42967
G1 X186.828 Y165.871 E28.51416
G1 X189.326 Y166.208 E28.598
G1 X191.865 Y166.478 E28.68292
G1 X194.368 Y166.672 E28.76642
G1 X196.876 Y166.796 E28.84994
G1 X199.434 Y166.849 E28.93504
G1 X201.711 Y166.836 E29.01077
G1 X202.661 Y166.819 E29.04237
G1 X203.345 Y166.823 E29.06512
G1 X204.04 Y166.856 E29.08826
G1 X204.498 Y166.893 E29.10355
G1 X205.844 Y167.09 E29.14879
G1 X206.339 Y167.195 E29.16562
G1 X207.069 Y167.377 E29.19065
G1 X208.003 Y167.668 E29.22318
G1 X208.765 Y167.967 E29.25041
G1 X209.028 Y168.08 E29.25993
G1 X209.949 Y168.529 E29.29401
G1 X210.948 Y169.078 E29.33192
G1 X235.458 Y183.225 E30.27318
G1 X236.064 Y183.588 E30.29667
G1 X236.665 Y183.976 E30.32046
G1 X236.95 Y184.174 E30.33201
G1 X237.814 Y184.843 E30.36835
G1 X238.1 Y185.089 E30.3809
G1 X238.773 Y185.721 E30.4116
G1 X239.06 Y186.015 E30.42527
G1 X239.633 Y186.642 E30.45352
G1 X240.239 Y187.417 E30.48624
G1 X240.517 Y187.804 E30.50209
G1 X241.156 Y188.808 E30.54167
G1 X241.403 Y189.249 E30.55849
G1 X241.818 Y190.071 E30.58911
G1 X242.008 Y190.52 E30.60533
G1 X242.229 Y191.077 E30.62526
G1 X242.647 Y192.367 E30.67036
G1 X242.724 Y192.669 E30.68073
G1 X242.88 Y193.38 E30.70494
G1 X242.966 Y193.85 E30.72083
G1 X243.093 Y194.722 E30.75014
G1 X243.161 Y195.691 E30.78245
G1 X243.175 Y196.343 E30.80414
G1 X243.178 Y224.961 E31.75597
G1 X243.166 Y225.755 E31.78239
G1 X243.122 Y226.567 E31.80943
G1 X243.079 Y227.034 E31.82503
G1 X242.897 Y228.246 E31.86579
G1 X242.821 Y228.607 E31.87806
G1 X242.642 Y229.33 E31.90284
G1 X242.563 Y229.607 E31.91242
G1 X242.349 Y230.273 E31.93569
G1 X242.199 Y230.692 E31.95049
G1 X241.677 Y231.906 E31.99444
G1 X241.47 Y232.315 E32.00969
G1 X241.104 Y232.978 E32.03487
G1 X240.902 Y233.315 E32.04794
G1 X240.137 Y234.424 E32.09275
G1 X239.896 Y234.73 E32.10571
G1 X239.425 Y235.287 E32.12997
G1 X239.204 Y235.531 E32.14092
G1 X238.714 Y236.037 E32.16435
G1 X238.506 Y236.238 E32.17397
