;FLAVOR:Marlin
;TIME:16491
;Filament used: 9.88261m
;Layer height: 0.16
;MINX:114.771
;MINY:110.764
;MINZ:0.2
;MAXX:185.229
;MAXY:199.453
;MAXZ:70
;Generated with Cura_SteamEngine 5.2.1
M140 S60
M105
M190 S60
M104 S215
M105
M109 S215
M82 ;absolute extrusion mode
; Ender 3 Max Custom Start G-code
G92 E0 ; Reset Extruder
G28 ; Home all axes
G1 Z2.0 F3000 ; Move Z Axis up little to prevent scratching of Heat Bed
G1 X0.1 Y20 Z0.3 F5000.0 ; Move to start position
G1 X0.1 Y200.0 Z0.3 F1500.0 E15 ; Draw the first line
G1 X0.4 Y200.0 Z0.3 F5000.0 ; Move to side a little
G1 X0.4 Y20 Z0.3 F1500.0 E30 ; Draw the second line
G92 E0 ; Reset Extruder
G1 Z2.0 F3000 ; Move Z Axis up little to prevent scratching of Heat Bed
G1 X5 Y20 Z0.3 F5000.0 ; Move over to prevent blob squish
G92 E0
G92 E0
G1 F1500 E-6.5
;LAYER_COUNT:480
;LAYER:0
M107
G0 F6000 X118.419 Y124.856 Z0.2
;TYPE:SKIRT
G1 F1500 E0
G1 F1200 X119.142 Y124.26 E0.03116
G1 X119.914 Y123.727 E0.06237
G1 X120.729 Y123.262 E0.09358
G1 X121.58 Y122.868 E0.12477
G1 X122.515 Y122.532 E0.15781
G1 X124.872 Y121.802 E0.23988
G1 X127.233 Y120.984 E0.32299
G1 X127.578 Y120.881 E0.33496
G1 X128.402 Y120.594 E0.36398
G1 X129.3 Y120.324 E0.39517
G1 X130.218 Y120.131 E0.42637
G1 X131.149 Y120.017 E0.45757
G1 X132.086 Y119.983 E0.48875
G1 X133.023 Y120.029 E0.51996
G1 X133.833 Y120.134 E0.54712
G1 X135.112 Y120.348 E0.59025
G1 X137.747 Y120.754 E0.67893
G1 X140.243 Y121.066 E0.76259
G1 X142.709 Y121.304 E0.84499
G1 X145.272 Y121.478 E0.93043
G1 X147.76 Y121.577 E1.01325
G1 X150.278 Y121.605 E1.097
G1 X152.772 Y121.562 E1.17997
G1 X155.34 Y121.446 E1.26547
G1 X157.798 Y121.265 E1.34744
G1 X160.331 Y121.006 E1.43213
G1 X162.795 Y120.684 E1.51478
G1 X166.205 Y120.126 E1.6297
G1 X167.136 Y120.014 E1.66089
G1 X168.073 Y119.982 E1.69207
G1 X169.01 Y120.03 E1.72328
G1 X169.939 Y120.158 E1.75447
G1 X170.854 Y120.364 E1.78567
G1 X171.619 Y120.601 E1.8123
G1 X173.901 Y121.401 E1.89273
G1 X177.534 Y122.545 E2.01941
G1 X178.416 Y122.864 E2.05061
G1 X179.267 Y123.258 E2.0818
G1 X180.082 Y123.723 E2.11301
G1 X180.854 Y124.255 E2.14419
G1 X181.578 Y124.851 E2.17538
G1 X182.248 Y125.507 E2.20657
G1 X182.861 Y126.217 E2.23777
G1 X183.41 Y126.977 E2.26895
G1 X183.893 Y127.781 E2.30015
G1 X184.306 Y128.623 E2.33134
G1 X184.645 Y129.498 E2.36255
G1 X184.909 Y130.398 E2.39374
G1 X185.095 Y131.317 E2.42493
G1 X185.202 Y132.249 E2.45613
G1 X185.229 Y133.186 E2.48731
G1 X185.176 Y134.123 E2.51852
G1 X185.047 Y135.035 E2.54916
G1 X184.888 Y135.888 E2.57802
G1 X181.93 Y150.592 E3.07687
G1 X179.677 Y161.726 E3.4547
G1 X179.499 Y162.551 E3.48277
G1 X179.261 Y163.459 E3.51399
G1 X178.947 Y164.342 E3.54516
G1 X178.558 Y165.196 E3.57637
G1 X178.098 Y166.013 E3.60756
G1 X177.571 Y166.788 E3.63873
G1 X177.207 Y167.25 E3.65829
G1 X176.611 Y167.966 E3.68928
G1 X174.992 Y169.968 E3.77491
G1 X173.458 Y171.979 E3.85904
G1 X171.983 Y174.03 E3.94306
G1 X170.569 Y176.118 E4.02693
G1 X169.225 Y178.228 E4.11014
G1 X167.937 Y180.383 E4.19364
G1 X166.704 Y182.586 E4.27761
G1 X165.529 Y184.832 E4.36192
G1 X164.428 Y187.089 E4.44544
G1 X163.394 Y189.37 E4.52874
G1 X162.516 Y191.446 E4.60371
G1 X162.114 Y192.294 E4.63492
G1 X161.642 Y193.104 E4.6661
G1 X161.102 Y193.871 E4.6973
G1 X160.499 Y194.589 E4.72849
G1 X159.837 Y195.254 E4.7597
G1 X159.12 Y195.859 E4.7909
G1 X158.022 Y196.608 E4.83511
G1 X157.378 Y196.99 E4.86001
G1 X156.234 Y197.641 E4.90379
G1 X155.668 Y197.954 E4.9253
G1 X154.441 Y198.537 E4.97048
G1 X154.107 Y198.671 E4.98245
G1 X153.222 Y198.983 E5.01366
G1 X152.314 Y199.218 E5.04486
G1 X151.39 Y199.375 E5.07603
G1 X150.455 Y199.453 E5.10724
G1 X149.517 Y199.451 E5.13844
G1 X148.583 Y199.369 E5.16962
G1 X147.659 Y199.208 E5.20082
G1 X146.752 Y198.968 E5.23202
G1 X146.178 Y198.772 E5.2522
G1 X145.866 Y198.656 E5.26327
G1 X145.001 Y198.292 E5.29448
G1 X144.416 Y197.994 E5.31632
G1 X143.544 Y197.515 E5.34941
G1 X142.609 Y196.98 E5.38524
G1 X142.016 Y196.629 E5.40816
G1 X141.23 Y196.117 E5.43935
G1 X140.49 Y195.541 E5.47054
G1 X139.803 Y194.903 E5.50173
G1 X139.172 Y194.209 E5.53293
G1 X138.602 Y193.464 E5.56412
G1 X138.098 Y192.673 E5.59532
G1 X137.496 Y191.468 E5.64012
G1 X136.44 Y188.985 E5.72986
G1 X135.39 Y186.696 E5.81363
G1 X134.29 Y184.467 E5.8963
G1 X133.097 Y182.213 E5.98112
G1 X131.862 Y180.032 E6.06448
G1 X130.564 Y177.882 E6.14801
G1 X129.19 Y175.745 E6.23251
G1 X127.777 Y173.679 E6.31576
G1 X126.314 Y171.664 E6.39858
G1 X124.775 Y169.666 E6.48247
G1 X122.759 Y167.21 E6.58815
G1 X122.195 Y166.46 E6.61936
G1 X121.698 Y165.665 E6.65054
G1 X121.269 Y164.831 E6.68174
G1 X120.914 Y163.963 E6.71293
G1 X120.523 Y162.615 E6.75961
G1 X120.277 Y161.499 E6.79762
G1 X118.138 Y150.936 E7.15608
G1 X117.902 Y149.724 E7.19715
G1 X115.072 Y135.674 E7.67384
G1 X114.957 Y135.058 E7.69468
G1 X114.824 Y134.129 E7.72589
G1 X114.771 Y133.193 E7.75707
G1 X114.798 Y132.255 E7.78829
G1 X114.905 Y131.324 E7.81945
G1 X115.09 Y130.404 E7.85067
G1 X115.353 Y129.504 E7.88185
G1 X115.692 Y128.63 E7.91303
G1 X116.105 Y127.787 E7.94425
G1 X116.587 Y126.983 E7.97543
G1 X117.136 Y126.223 E8.00662
G1 X117.748 Y125.512 E8.03782
G1 X118.419 Y124.856 E8.06903
G0 F6000 X118.838 Y125.02
G1 F1200 X119.56 Y124.448 E8.09967
G1 X120.329 Y123.942 E8.13028
G1 X121.139 Y123.504 E8.16091
G1 X121.984 Y123.138 E8.19154
G1 X122.634 Y122.914 E8.2144
G1 X124.995 Y122.183 E8.29661
G1 X127.364 Y121.362 E8.38
G1 X127.709 Y121.259 E8.39198
G1 X128.534 Y120.972 E8.42103
G1 X129.416 Y120.707 E8.45166
G1 X130.317 Y120.52 E8.48226
G1 X131.231 Y120.412 E8.51288
G1 X132.151 Y120.384 E8.54349
G1 X133.071 Y120.435 E8.57414
G1 X133.767 Y120.528 E8.59749
G1 X135.14 Y120.758 E8.64379
G1 X137.673 Y121.148 E8.72903
G1 X140.188 Y121.463 E8.81334
G1 X142.68 Y121.703 E8.8966
G1 X145.23 Y121.876 E8.98161
G1 X147.775 Y121.977 E9.06633
G1 X150.281 Y122.005 E9.14968
G1 X152.796 Y121.962 E9.23334
G1 X155.316 Y121.848 E9.31724
G1 X157.866 Y121.66 E9.40229
G1 X160.391 Y121.402 E9.48671
G1 X162.846 Y121.081 E9.56906
G1 X166.269 Y120.521 E9.68442
G1 X167.183 Y120.412 E9.71503
G1 X168.104 Y120.383 E9.74568
G1 X169.023 Y120.433 E9.77629
G1 X169.934 Y120.564 E9.8069
G1 X170.831 Y120.773 E9.83754
G1 X171.487 Y120.979 E9.86041
G1 X173.747 Y121.771 E9.94006
G1 X177.414 Y122.926 E10.06793
G1 X178.279 Y123.241 E10.09855
G1 X179.114 Y123.629 E10.12917
G1 X179.912 Y124.088 E10.15979
G1 X180.667 Y124.615 E10.19041
G1 X181.373 Y125.205 E10.22102
G1 X182.026 Y125.855 E10.25166
G1 X182.62 Y126.558 E10.28227
G1 X183.15 Y127.311 E10.3129
G1 X183.613 Y128.106 E10.3435
G1 X184.006 Y128.939 E10.37413
G1 X184.325 Y129.803 E10.40476
G1 X184.567 Y130.691 E10.43538
G1 X184.732 Y131.597 E10.46601
G1 X184.817 Y132.514 E10.49664
G1 X184.823 Y133.434 E10.52724
G1 X184.748 Y134.352 E10.55787
G1 X184.654 Y134.963 E10.57843
G1 X184.528 Y135.645 E10.6015
G1 X181.538 Y150.512 E11.10588
G1 X179.285 Y161.646 E11.4837
G1 X179.108 Y162.466 E11.5116
G1 X178.874 Y163.357 E11.54224
G1 X178.563 Y164.223 E11.57285
G1 X178.179 Y165.06 E11.60348
G1 X177.723 Y165.86 E11.6341
G1 X177.199 Y166.617 E11.66473
G1 X176.899 Y166.995 E11.68078
G1 X176.312 Y167.701 E11.71131
G1 X174.665 Y169.737 E11.79841
G1 X173.131 Y171.748 E11.88254
G1 X171.671 Y173.777 E11.96568
G1 X170.244 Y175.885 E12.05034
G1 X168.878 Y178.03 E12.13493
G1 X167.588 Y180.189 E12.21858
G1 X166.35 Y182.399 E12.30283
G1 X165.179 Y184.636 E12.38681
G1 X164.069 Y186.913 E12.47106
G1 X163.018 Y189.23 E12.55568
G1 X162.147 Y191.291 E12.6301
G1 X161.752 Y192.122 E12.66071
G1 X161.287 Y192.916 E12.69131
G1 X160.754 Y193.667 E12.72194
G1 X160.158 Y194.369 E12.75257
G1 X159.503 Y195.016 E12.78319
G1 X158.795 Y195.604 E12.8138
G1 X157.817 Y196.265 E12.85306
G1 X157.363 Y196.536 E12.87065
G1 X156.041 Y197.291 E12.92128
G1 X155.475 Y197.604 E12.94279
G1 X154.292 Y198.166 E12.98635
G1 X153.958 Y198.3 E12.99832
G1 X153.089 Y198.605 E13.02896
G1 X152.198 Y198.834 E13.05955
G1 X151.289 Y198.985 E13.0902
G1 X150.371 Y199.056 E13.12083
G1 X149.451 Y199.047 E13.15143
G1 X148.534 Y198.959 E13.18207
G1 X147.629 Y198.791 E13.21268
G1 X146.317 Y198.398 E13.25823
G1 X146.005 Y198.282 E13.2693
G1 X145.157 Y197.924 E13.29992
G1 X144.608 Y197.644 E13.32042
G1 X143.903 Y197.258 E13.34715
G1 X142.813 Y196.636 E13.38889
G1 X142.22 Y196.285 E13.41181
G1 X141.449 Y195.782 E13.44243
G1 X140.724 Y195.214 E13.47306
G1 X140.051 Y194.585 E13.5037
G1 X139.436 Y193.901 E13.53429
G1 X138.882 Y193.165 E13.56493
G1 X138.394 Y192.384 E13.59556
G1 X137.864 Y191.311 E13.63537
G1 X136.801 Y188.81 E13.72575
G1 X135.762 Y186.545 E13.80863
G1 X134.637 Y184.267 E13.89314
G1 X133.456 Y182.035 E13.97713
G1 X132.21 Y179.834 E14.06125
G1 X130.894 Y177.655 E14.14591
G1 X129.53 Y175.534 E14.22979
G1 X128.115 Y173.463 E14.31321
G1 X126.608 Y171.39 E14.39845
G1 X125.101 Y169.433 E14.48061
G1 X123.068 Y166.956 E14.58719
G1 X122.515 Y166.22 E14.61781
G1 X122.029 Y165.438 E14.64843
G1 X121.612 Y164.617 E14.67906
G1 X121.267 Y163.764 E14.70966
G1 X120.913 Y162.528 E14.75242
G1 X120.71 Y161.614 E14.78356
G1 X118.531 Y150.859 E15.14854
G1 X118.294 Y149.647 E15.18962
G1 X115.465 Y135.6 E15.6662
G1 X115.35 Y134.984 E15.68705
G1 X115.221 Y134.073 E15.71765
G1 X115.171 Y133.153 E15.74829
G1 X115.201 Y132.233 E15.77891
G1 X115.31 Y131.319 E15.80952
G1 X115.499 Y130.418 E15.84014
G1 X115.765 Y129.537 E15.87075
G1 X116.107 Y128.682 E15.90138
G1 X116.521 Y127.86 E15.93199
G1 X117.006 Y127.077 E15.96263
G1 X117.556 Y126.339 E15.99324
G1 X118.168 Y125.651 E16.02386
G1 X118.838 Y125.02 E16.05448
G0 F6000 X119.257 Y125.189
G1 F1200 X119.977 Y124.643 E16.08453
G1 X120.743 Y124.164 E16.11458
G1 X121.547 Y123.754 E16.1446
G1 X122.752 Y123.296 E16.18747
G1 X125.127 Y122.56 E16.27017
G1 X127.495 Y121.74 E16.35352
G1 X127.838 Y121.638 E16.36542
G1 X128.665 Y121.35 E16.39455
G1 X129.53 Y121.091 E16.42458
G1 X130.415 Y120.91 E16.45462
G1 X131.312 Y120.807 E16.48465
G1 X132.215 Y120.785 E16.5147
G1 X133.117 Y120.842 E16.54476
G1 X133.701 Y120.923 E16.56437
G1 X135.003 Y121.141 E16.60827
G1 X137.635 Y121.547 E16.69685
G1 X140.14 Y121.86 E16.78082
G1 X142.683 Y122.105 E16.86579
G1 X145.187 Y122.275 E16.94926
G1 X147.754 Y122.377 E17.03471
G1 X150.283 Y122.405 E17.11883
G1 X152.785 Y122.362 E17.20206
G1 X155.363 Y122.245 E17.28789
G1 X157.903 Y122.059 E17.3726
G1 X160.412 Y121.802 E17.45648
G1 X162.933 Y121.472 E17.54105
G1 X166.334 Y120.916 E17.65567
G1 X167.231 Y120.81 E17.68571
G1 X168.133 Y120.783 E17.71572
G1 X169.035 Y120.837 E17.74578
G1 X169.928 Y120.97 E17.77581
G1 X170.806 Y121.181 E17.80584
G1 X171.355 Y121.356 E17.82501
G1 X173.649 Y122.16 E17.90585
G1 X177.294 Y123.308 E18.03296
G1 X178.142 Y123.617 E18.06298
G1 X178.96 Y124 E18.09302
G1 X179.741 Y124.454 E18.12306
G1 X180.478 Y124.975 E18.15308
G1 X181.167 Y125.559 E18.18312
G1 X181.801 Y126.202 E18.21316
G1 X182.376 Y126.899 E18.24321
G1 X182.887 Y127.643 E18.27323
G1 X183.33 Y128.43 E18.30327
G1 X183.702 Y129.253 E18.33331
G1 X184 Y130.106 E18.36336
G1 X184.221 Y130.982 E18.39341
G1 X184.363 Y131.873 E18.42342
G1 X184.427 Y132.774 E18.45346
G1 X184.41 Y133.677 E18.4835
G1 X184.26 Y134.89 E18.52415
G1 X184.104 Y135.73 E18.55257
G1 X181.146 Y150.433 E19.05139
G1 X178.893 Y161.567 E19.42921
G1 X178.717 Y162.382 E19.45695
G1 X178.487 Y163.255 E19.48697
G1 X178.18 Y164.104 E19.517
G1 X177.799 Y164.923 E19.54704
G1 X177.347 Y165.705 E19.57709
G1 X176.592 Y166.739 E19.61967
G1 X175.977 Y167.478 E19.65165
G1 X174.352 Y169.488 E19.73761
G1 X172.816 Y171.5 E19.82181
G1 X171.336 Y173.558 E19.90612
G1 X169.902 Y175.675 E19.99116
G1 X168.546 Y177.805 E20.07514
G1 X167.247 Y179.979 E20.15938
G1 X165.99 Y182.224 E20.24495
G1 X164.816 Y184.468 E20.32918
G1 X163.717 Y186.722 E20.41259
G1 X162.651 Y189.072 E20.49842
G1 X161.779 Y191.135 E20.57291
G1 X161.391 Y191.95 E20.60293
G1 X160.932 Y192.728 E20.63298
G1 X160.406 Y193.462 E20.66301
G1 X159.818 Y194.147 E20.69304
G1 X159.171 Y194.778 E20.7231
G1 X158.471 Y195.348 E20.75312
G1 X157.612 Y195.921 E20.78746
G1 X156.982 Y196.295 E20.81183
G1 X155.847 Y196.941 E20.85527
G1 X155.281 Y197.254 E20.87678
G1 X154.143 Y197.795 E20.91869
G1 X153.809 Y197.929 E20.93066
G1 X152.957 Y198.227 E20.96068
G1 X152.081 Y198.45 E20.99075
G1 X151.19 Y198.594 E21.02076
G1 X150.289 Y198.658 E21.05081
G1 X149.386 Y198.643 E21.08085
G1 X148.488 Y198.548 E21.11088
G1 X147.602 Y198.373 E21.14092
G1 X146.456 Y198.023 E21.18077
G1 X146.144 Y197.907 E21.19184
G1 X145.313 Y197.555 E21.22186
G1 X144.8 Y197.293 E21.24102
G1 X144.095 Y196.907 E21.26775
G1 X143.016 Y196.292 E21.30906
G1 X142.423 Y195.941 E21.33198
G1 X141.667 Y195.447 E21.36202
G1 X140.958 Y194.888 E21.39204
G1 X140.301 Y194.268 E21.42209
G1 X139.701 Y193.593 E21.45213
G1 X139.163 Y192.868 E21.48216
G1 X138.692 Y192.097 E21.51221
G1 X138.232 Y191.155 E21.54707
G1 X137.174 Y188.667 E21.637
G1 X136.106 Y186.338 E21.72221
G1 X134.992 Y184.082 E21.8059
G1 X133.815 Y181.857 E21.88962
G1 X132.551 Y179.625 E21.97493
G1 X131.236 Y177.447 E22.05955
G1 X129.874 Y175.33 E22.14328
G1 X128.425 Y173.209 E22.22871
G1 X126.933 Y171.156 E22.31312
G1 X125.415 Y169.185 E22.39587
G1 X123.377 Y166.702 E22.50271
G1 X122.836 Y165.979 E22.53274
G1 X122.36 Y165.212 E22.56277
G1 X121.955 Y164.405 E22.5928
G1 X121.622 Y163.565 E22.62285
G1 X121.304 Y162.442 E22.66167
G1 X121.061 Y161.34 E22.69921
G1 X118.924 Y150.782 E23.05749
G1 X118.687 Y149.57 E23.09856
G1 X115.858 Y135.527 E23.57502
G1 X115.743 Y134.911 E23.59586
G1 X115.617 Y134.017 E23.62589
G1 X115.57 Y133.115 E23.65593
G1 X115.604 Y132.212 E23.68598
G1 X115.717 Y131.316 E23.71602
G1 X115.908 Y130.434 E23.74604
G1 X116.177 Y129.572 E23.77607
G1 X116.522 Y128.737 E23.80612
G1 X116.939 Y127.936 E23.83616
G1 X117.425 Y127.174 E23.86622
G1 X117.976 Y126.459 E23.89624
G1 X118.589 Y125.796 E23.92627
G1 X119.257 Y125.189 E23.95629
G1 F1500 E17.45629
;MESH:totodile_starter_2gen_flowalistik_2.STL
G0 F6000 X126.277 Y132.373
G0 X126.264 Y133.45
G0 X132.19 Y159
G0 X137.368 Y158.902
;TYPE:WALL-INNER
G1 F1500 E23.95629
G1 F1200 X138.471 Y146.768 E24.36153
G1 X138.359 Y146.139 E24.38278
G1 X136.643 Y133.332 E24.81255
G1 X134.792 Y133.934 E24.87729
G1 X134.537 Y133.981 E24.88592
G1 X134.334 Y133.972 E24.89268
G1 X134.009 Y133.88 E24.90391
G1 X133.787 Y133.768 E24.91218
G1 X132.092 Y132.34 E24.9859
G1 X130.824 Y133.807 E25.05039
G1 X130.544 Y133.999 E25.06168
G1 X130.116 Y134.088 E25.07622
G1 X126.985 Y134.048 E25.18037
G1 X129.76 Y147.826 E25.64783
G1 X129.84 Y148.256 E25.66237
G1 X132.052 Y159.178 E26.03302
G1 X137.368 Y158.902 E26.21007
G0 F6000 X137.735 Y159.283
G1 F1200 X138.875 Y146.751 E26.6286
G1 X138.756 Y146.086 E26.65107
G1 X136.976 Y132.804 E27.09678
G1 X134.668 Y133.553 E27.17749
G1 X134.393 Y133.576 E27.18667
G1 X134.078 Y133.484 E27.19758
G1 X132.047 Y131.779 E27.28578
G1 X130.546 Y133.52 E27.36224
G1 X130.227 Y133.689 E27.37424
G1 X126.495 Y133.642 E27.49838
G1 X129.367 Y147.898 E27.98206
G1 X129.448 Y148.335 E27.99684
G1 X131.728 Y159.595 E28.37895
G1 X137.735 Y159.283 E28.57902
G0 F6000 X138.102 Y159.665
;TYPE:WALL-OUTER
G1 F1200 X139.278 Y146.733 E29.01091
G1 X139.152 Y146.033 E29.03457
G1 X137.308 Y132.275 E29.49625
G1 X134.489 Y133.191 E29.59484
G1 X134.266 Y133.123 E29.60259
G1 X132.002 Y131.218 E29.701
G1 X130.249 Y133.249 E29.79024
G1 X130.163 Y133.288 E29.79338
G1 X126.005 Y133.236 E29.93169
G1 X128.973 Y147.97 E30.43158
G1 X129.056 Y148.415 E30.44664
G1 X131.404 Y160.013 E30.84022
G1 X138.102 Y159.665 E31.06329
G0 F6000 X137.483 Y159.022
G0 X137.295 Y158.581
G0 X137.037 Y158.557
;TYPE:SKIN
G1 F1200 X138.108 Y146.787 E31.45638
G1 X138.011 Y146.241 E31.47483
