;FLAVOR:Marlin
;TIME:17182
;Filament used: 11.973m
;Layer height: 0.2
;MINX:90.43
;MINY:90.43
;MINZ:0.2
;MAXX:209.57
;MAXY:209.57
;MAXZ:68.6
;Generated with Cura_SteamEngine 5.2.1
M140 S60
M105
M190 S60
M104 S215
M105
M109 S215
M82 ;absolute extrusion mode
; Ender 3 Max Custom Start G-code
G92 E0 ; Reset Extruder
G28 ; Home all axes
G1 Z2.0 F3000 ; Move Z Axis up little to prevent scratching of Heat Bed
G1 X0.1 Y20 Z0.3 F5000.0 ; Move to start position
G1 X0.1 Y200.0 Z0.3 F1500.0 E15 ; Draw the first line
G1 X0.4 Y200.0 Z0.3 F5000.0 ; Move to side a little
G1 X0.4 Y20 Z0.3 F1500.0 E30 ; Draw the second line
G92 E0 ; Reset Extruder
G1 Z2.0 F3000 ; Move Z Axis up little to prevent scratching of Heat Bed
G1 X5 Y20 Z0.3 F5000.0 ; Move over to prevent blob squish
G92 E0
G92 E0
G1 F1500 E-6.5
;LAYER_COUNT:352
;LAYER:0
M107
G0 F6000 X107.613 Y108.143 Z0.2
;TYPE:SKIRT
G1 F1500 E0
G1 F1200 X108.283 Y107.487 E0.03119
G1 X108.783 Y107.064 E0.05297
G1 X109.633 Y106.389 E0.08907
G1 X118.459 Y99.616 E0.4591
G1 X119.127 Y99.118 E0.48681
G1 X119.903 Y98.591 E0.51801
G1 X120.721 Y98.132 E0.54921
G1 X121.302 Y97.859 E0.57056
G1 X122.343 Y97.408 E0.60829
G1 X132.728 Y93.108 E0.98214
G1 X133.34 Y92.865 E1.00404
G1 X134.225 Y92.557 E1.03521
G1 X135.134 Y92.325 E1.06641
G1 X135.756 Y92.212 E1.08743
G1 X136.683 Y92.072 E1.11862
G1 X148.016 Y90.579 E1.49881
G1 X148.701 Y90.499 E1.52175
G1 X149.636 Y90.43 E1.55293
G1 X150.574 Y90.441 E1.58413
G1 X151.225 Y90.496 E1.60586
G1 X152.305 Y90.621 E1.64202
G1 X163.308 Y92.069 E2.01114
G1 X164.127 Y92.187 E2.03866
G1 X165.049 Y92.361 E2.06987
G1 X165.952 Y92.613 E2.10105
G1 X166.587 Y92.841 E2.12349
G1 X167.579 Y93.234 E2.15898
G1 X177.978 Y97.542 E2.53335
G1 X178.603 Y97.81 E2.55597
G1 X179.448 Y98.216 E2.58715
G1 X180.256 Y98.693 E2.61836
G1 X180.816 Y99.082 E2.64104
G1 X181.679 Y99.722 E2.67677
G1 X190.509 Y106.498 E3.04697
G1 X191.147 Y107.001 E3.07399
G1 X191.857 Y107.613 E3.10517
G1 X192.513 Y108.283 E3.13635
G1 X192.936 Y108.783 E3.15814
G1 X193.611 Y109.633 E3.19424
G1 X200.384 Y118.459 E3.56427
G1 X200.881 Y119.125 E3.59191
G1 X201.408 Y119.901 E3.62311
G1 X201.867 Y120.719 E3.6543
G1 X202.144 Y121.308 E3.67595
G1 X202.592 Y122.342 E3.71343
G1 X206.822 Y132.554 E4.08107
G1 X207.135 Y133.341 E4.10924
G1 X207.444 Y134.227 E4.14045
G1 X207.676 Y135.136 E4.17165
G1 X207.788 Y135.756 E4.19261
G1 X207.928 Y136.683 E4.22379
G1 X209.421 Y148.014 E4.60392
G1 X209.501 Y148.698 E4.62682
G1 X209.57 Y149.633 E4.658
G1 X209.559 Y150.571 E4.6892
G1 X209.504 Y151.223 E4.71097
G1 X209.379 Y152.305 E4.74719
G1 X207.911 Y163.453 E5.12118
G1 X207.813 Y164.128 E5.14386
G1 X207.639 Y165.05 E5.17507
G1 X207.387 Y165.953 E5.20625
G1 X207.16 Y166.582 E5.22849
G1 X206.762 Y167.589 E5.26451
G1 X202.458 Y177.978 E5.63853
G1 X202.19 Y178.603 E5.66114
G1 X201.784 Y179.448 E5.69233
G1 X201.307 Y180.256 E5.72353
G1 X200.918 Y180.816 E5.74621
G1 X200.278 Y181.679 E5.78195
G1 X193.502 Y190.509 E6.15214
G1 X192.999 Y191.147 E6.17916
G1 X192.387 Y191.857 E6.21034
G1 X191.717 Y192.513 E6.24153
G1 X191.217 Y192.936 E6.26331
G1 X190.367 Y193.611 E6.29941
G1 X181.541 Y200.384 E6.66944
G1 X180.873 Y200.882 E6.69715
G1 X180.097 Y201.409 E6.72835
G1 X179.279 Y201.868 E6.75955
G1 X178.698 Y202.141 E6.7809
G1 X177.658 Y202.592 E6.8186
G1 X167.446 Y206.822 E7.18624
G1 X166.659 Y207.135 E7.21441
G1 X165.773 Y207.444 E7.24562
G1 X164.864 Y207.676 E7.27682
G1 X164.244 Y207.788 E7.29778
G1 X163.317 Y207.928 E7.32896
G1 X151.984 Y209.421 E7.70915
G1 X151.299 Y209.501 E7.73209
G1 X150.364 Y209.57 E7.76327
G1 X149.426 Y209.559 E7.79447
G1 X148.775 Y209.504 E7.8162
G1 X147.695 Y209.379 E7.85236
G1 X136.692 Y207.931 E8.22148
G1 X135.873 Y207.813 E8.249
G1 X134.951 Y207.639 E8.28021
G1 X134.048 Y207.387 E8.31139
G1 X133.412 Y207.159 E8.33386
G1 X132.581 Y206.831 E8.36358
G1 X122.022 Y202.458 E8.7437
G1 X121.397 Y202.19 E8.76632
G1 X120.552 Y201.784 E8.7975
G1 X119.744 Y201.307 E8.8287
G1 X119.184 Y200.918 E8.85138
G1 X118.321 Y200.278 E8.88712
G1 X109.491 Y193.502 E9.25731
G1 X108.85 Y192.997 E9.28445
G1 X108.14 Y192.384 E9.31565
G1 X107.484 Y191.714 E9.34684
G1 X107.061 Y191.214 E9.36862
G1 X106.389 Y190.367 E9.40458
G1 X99.616 Y181.541 E9.77461
G1 X99.119 Y180.875 E9.80225
G1 X98.592 Y180.099 E9.83345
G1 X98.133 Y179.281 E9.86465
G1 X97.856 Y178.692 E9.88629
G1 X97.408 Y177.658 E9.92378
G1 X93.178 Y167.446 E10.29141
G1 X92.865 Y166.659 E10.31958
G1 X92.556 Y165.773 E10.35079
G1 X92.324 Y164.864 E10.38199
G1 X92.212 Y164.244 E10.40295
G1 X92.072 Y163.317 E10.43413
G1 X90.579 Y151.984 E10.81433
G1 X90.499 Y151.299 E10.83726
G1 X90.43 Y150.364 E10.86845
G1 X90.441 Y149.426 E10.89965
G1 X90.496 Y148.775 E10.92138
G1 X90.621 Y147.695 E10.95754
G1 X92.089 Y136.547 E11.33152
G1 X92.187 Y135.872 E11.35421
G1 X92.361 Y134.95 E11.38541
G1 X92.613 Y134.047 E11.4166
G1 X92.84 Y133.418 E11.43884
G1 X93.238 Y132.411 E11.47485
G1 X97.542 Y122.022 E11.84887
G1 X97.81 Y121.397 E11.87149
G1 X98.216 Y120.552 E11.90267
G1 X98.693 Y119.744 E11.93388
G1 X99.082 Y119.184 E11.95656
G1 X99.722 Y118.321 E11.99229
G1 X106.498 Y109.491 E12.36248
G1 X107.001 Y108.853 E12.38951
G1 X107.613 Y108.143 E12.42068
G0 F6000 X107.916 Y108.404
G1 F1200 X108.576 Y107.762 E12.45131
G1 X109.033 Y107.377 E12.47118
G1 X109.877 Y106.707 E12.50702
G1 X118.832 Y99.836 E12.88244
G1 X119.366 Y99.439 E12.90457
G1 X120.128 Y98.923 E12.93518
G1 X120.932 Y98.474 E12.96581
G1 X121.461 Y98.226 E12.98524
G1 X122.323 Y97.851 E13.01651
G1 X132.875 Y93.48 E13.39639
G1 X133.487 Y93.237 E13.41829
G1 X134.357 Y92.935 E13.44892
G1 X135.249 Y92.709 E13.47952
G1 X135.816 Y92.608 E13.49868
G1 X136.942 Y92.44 E13.53654
G1 X147.908 Y90.996 E13.90442
G1 X148.747 Y90.897 E13.93252
G1 X149.666 Y90.83 E13.96317
G1 X150.586 Y90.843 E13.99377
G1 X151.18 Y90.893 E14.0136
G1 X152.073 Y90.995 E14.04349
G1 X163.394 Y92.485 E14.42328
G1 X164.07 Y92.583 E14.446
G1 X164.974 Y92.754 E14.4766
G1 X165.861 Y93.004 E14.50725
G1 X166.44 Y93.213 E14.52772
G1 X167.261 Y93.537 E14.55708
G1 X177.82 Y97.91 E14.9372
G1 X178.445 Y98.178 E14.95982
G1 X179.275 Y98.577 E14.99045
G1 X180.067 Y99.047 E15.02108
G1 X180.578 Y99.403 E15.04179
G1 X181.435 Y100.04 E15.07731
G1 X190.381 Y106.906 E15.45238
G1 X190.899 Y107.315 E15.47434
G1 X191.596 Y107.916 E15.50495
G1 X192.238 Y108.576 E15.53557
G1 X192.623 Y109.033 E15.55545
G1 X193.293 Y109.877 E15.59129
G1 X200.162 Y118.829 E15.96658
G1 X200.56 Y119.364 E15.98876
G1 X201.077 Y120.126 E16.01939
G1 X201.526 Y120.93 E16.05002
G1 X201.777 Y121.468 E16.06976
G1 X202.222 Y122.496 E16.10702
G1 X206.512 Y132.854 E16.47991
G1 X206.764 Y133.489 E16.50263
G1 X207.066 Y134.359 E16.53326
G1 X207.291 Y135.251 E16.56386
G1 X207.392 Y135.816 E16.58295
G1 X207.56 Y136.942 E16.62081
G1 X209.004 Y147.908 E16.98869
G1 X209.103 Y148.745 E17.01673
G1 X209.17 Y149.663 E17.04734
G1 X209.158 Y150.583 E17.07794
G1 X209.107 Y151.178 E17.0978
G1 X209.005 Y152.072 E17.12773
G1 X207.515 Y163.396 E17.50762
G1 X207.417 Y164.071 E17.5303
G1 X207.245 Y164.975 E17.56091
G1 X206.996 Y165.862 E17.59155
G1 X206.788 Y166.436 E17.61186
G1 X206.392 Y167.436 E17.64763
G1 X202.09 Y177.82 E18.02147
G1 X201.822 Y178.445 E18.04409
G1 X201.423 Y179.275 E18.07472
G1 X200.953 Y180.067 E18.10535
G1 X200.597 Y180.578 E18.12606
G1 X199.96 Y181.435 E18.16158
G1 X193.094 Y190.381 E18.53666
G1 X192.685 Y190.899 E18.55861
G1 X192.084 Y191.596 E18.58922
G1 X191.424 Y192.238 E18.61984
G1 X190.967 Y192.623 E18.63972
G1 X190.123 Y193.293 E18.67556
G1 X181.168 Y200.164 E19.05097
G1 X180.634 Y200.561 E19.07311
G1 X179.872 Y201.077 E19.10371
G1 X179.068 Y201.526 E19.13434
G1 X178.539 Y201.774 E19.15377
G1 X177.677 Y202.149 E19.18504
G1 X167.146 Y206.512 E19.56417
G1 X166.511 Y206.764 E19.5869
G1 X165.641 Y207.066 E19.61753
G1 X164.749 Y207.291 E19.64812
G1 X164.184 Y207.392 E19.66721
G1 X163.058 Y207.56 E19.70508
G1 X152.092 Y209.004 E20.07296
G1 X151.253 Y209.103 E20.10106
G1 X150.334 Y209.17 E20.1317
G1 X149.414 Y209.157 E20.16231
G1 X148.82 Y209.107 E20.18213
G1 X147.927 Y209.005 E20.21203
G1 X136.606 Y207.515 E20.59181
G1 X135.93 Y207.417 E20.61453
G1 X135.026 Y207.246 E20.64513
G1 X134.139 Y206.996 E20.67578
G1 X133.559 Y206.787 E20.69629
G1 X132.728 Y206.459 E20.726
G1 X122.18 Y202.09 E21.10573
G1 X121.555 Y201.822 E21.12835
G1 X120.725 Y201.423 E21.15898
G1 X119.933 Y200.953 E21.18961
G1 X119.422 Y200.597 E21.21033
G1 X118.565 Y199.96 E21.24584
G1 X109.617 Y193.093 E21.62099
G1 X109.098 Y192.683 E21.64299
G1 X108.401 Y192.081 E21.67362
G1 X107.759 Y191.421 E21.70425
G1 X107.374 Y190.965 E21.7241
G1 X106.821 Y190.27 E21.75364
G1 X99.838 Y181.171 E22.13512
G1 X99.44 Y180.636 E22.1573
G1 X98.923 Y179.874 E22.18793
G1 X98.474 Y179.07 E22.21856
G1 X98.223 Y178.532 E22.2383
G1 X97.778 Y177.504 E22.27556
G1 X93.488 Y167.146 E22.64845
G1 X93.236 Y166.511 E22.67117
G1 X92.934 Y165.641 E22.7018
G1 X92.709 Y164.749 E22.7324
G1 X92.608 Y164.184 E22.75149
G1 X92.44 Y163.058 E22.78935
G1 X90.996 Y152.092 E23.15723
G1 X90.897 Y151.253 E23.18533
G1 X90.83 Y150.334 E23.21598
G1 X90.843 Y149.414 E23.24658
G1 X90.893 Y148.82 E23.26641
G1 X90.995 Y147.927 E23.2963
G1 X92.485 Y136.604 E23.67615
G1 X92.583 Y135.929 E23.69884
G1 X92.755 Y135.025 E23.72944
G1 X93.004 Y134.138 E23.76009
G1 X93.212 Y133.564 E23.78039
G1 X93.608 Y132.564 E23.81616
G1 X97.91 Y122.18 E24.19
G1 X98.178 Y121.555 E24.21262
G1 X98.577 Y120.725 E24.24325
G1 X99.047 Y119.933 E24.27388
G1 X99.403 Y119.422 E24.2946
G1 X100.04 Y118.565 E24.33011
G1 X106.906 Y109.619 E24.70519
G1 X107.315 Y109.101 E24.72714
G1 X107.916 Y108.404 E24.75775
G0 F6000 X108.219 Y108.666
G1 F1200 X108.868 Y108.037 E24.78781
G1 X109.282 Y107.69 E24.80578
G1 X110.12 Y107.024 E24.84138
G1 X119.07 Y100.157 E25.21659
G1 X119.604 Y99.76 E25.23872
G1 X120.352 Y99.254 E25.26875
G1 X121.142 Y98.816 E25.2988
G1 X121.621 Y98.593 E25.31637
G1 X122.649 Y98.147 E25.35364
G1 X132.884 Y93.908 E25.7221
G1 X133.635 Y93.609 E25.74899
G1 X134.488 Y93.313 E25.77902
G1 X135.364 Y93.094 E25.80905
G1 X135.876 Y93.003 E25.82634
G1 X136.994 Y92.836 E25.86394
G1 X147.96 Y91.392 E26.23182
G1 X148.794 Y91.294 E26.25975
G1 X149.695 Y91.229 E26.2898
G1 X150.598 Y91.244 E26.31983
G1 X151.135 Y91.291 E26.33776
G1 X152.201 Y91.414 E26.37345
G1 X163.204 Y92.862 E26.74257
G1 X164.012 Y92.979 E26.76973
G1 X164.9 Y93.148 E26.79979
G1 X165.768 Y93.394 E26.8298
G1 X166.293 Y93.585 E26.84838
G1 X167.273 Y93.973 E26.88344
G1 X177.663 Y98.277 E27.25748
G1 X178.288 Y98.545 E27.2801
G1 X179.101 Y98.938 E27.31014
G1 X179.877 Y99.401 E27.34019
G1 X180.34 Y99.724 E27.35897
G1 X181.192 Y100.357 E27.39427
G1 X190.022 Y107.133 E27.76447
G1 X190.651 Y107.629 E27.79111
G1 X191.334 Y108.219 E27.82113
G1 X191.963 Y108.868 E27.85119
G1 X192.31 Y109.282 E27.86915
G1 X192.976 Y110.12 E27.90476
G1 X199.749 Y118.946 E28.27478
G1 X200.239 Y119.603 E28.30204
G1 X200.745 Y120.351 E28.33208
G1 X201.184 Y121.14 E28.36211
G1 X201.41 Y121.627 E28.37997
G1 X201.853 Y122.649 E28.41702
G1 X206.083 Y132.861 E28.78465
G1 X206.392 Y133.637 E28.81243
G1 X206.687 Y134.49 E28.84245
G1 X206.906 Y135.366 E28.87249
G1 X206.997 Y135.876 E28.88972
G1 X207.164 Y136.994 E28.92731
G1 X208.608 Y147.96 E29.29519
G1 X208.706 Y148.791 E29.32302
G1 X208.771 Y149.692 E29.35307
G1 X208.756 Y150.595 E29.38311
G1 X208.709 Y151.132 E29.40104
G1 X208.586 Y152.201 E29.43683
G1 X207.138 Y163.204 E29.80594
G1 X207.021 Y164.014 E29.83316
G1 X206.852 Y164.901 E29.8632
G1 X206.605 Y165.769 E29.89321
G1 X206.416 Y166.289 E29.91161
G1 X206.023 Y167.283 E29.94717
G1 X201.723 Y177.663 E30.32086
G1 X201.455 Y178.288 E30.34347
G1 X201.062 Y179.101 E30.37351
G1 X200.599 Y179.877 E30.40356
G1 X200.276 Y180.34 E30.42234
G1 X199.643 Y181.192 E30.45764
G1 X192.867 Y190.022 E30.82784
G1 X192.371 Y190.651 E30.85448
G1 X191.781 Y191.334 E30.8845
G1 X191.132 Y191.963 E30.91456
G1 X190.718 Y192.31 E30.93253
G1 X189.88 Y192.976 E30.96813
G1 X180.93 Y199.843 E31.34333
G1 X180.396 Y200.24 E31.36546
G1 X179.648 Y200.746 E31.3955
G1 X178.858 Y201.184 E31.42554
G1 X178.379 Y201.407 E31.44312
G1 X177.351 Y201.853 E31.48039
G1 X167.139 Y206.083 E31.84802
G1 X166.363 Y206.392 E31.87581
G1 X165.51 Y206.687 E31.90583
G1 X164.634 Y206.906 E31.93586
G1 X164.124 Y206.997 E31.95309
G1 X163.006 Y207.164 E31.99069
G1 X152.04 Y208.608 E32.35856
G1 X151.206 Y208.706 E32.38649
G1 X150.305 Y208.771 E32.41654
G1 X149.402 Y208.756 E32.44658
G1 X148.865 Y208.709 E32.46451
G1 X147.799 Y208.586 E32.5002
G1 X136.796 Y207.138 E32.86931
G1 X135.988 Y207.021 E32.89647
G1 X135.1 Y206.852 E32.92653
G1 X134.232 Y206.606 E32.95654
G1 X133.706 Y206.415 E32.97515
G1 X132.717 Y206.023 E33.01054
G1 X122.337 Y201.723 E33.38423
G1 X121.712 Y201.455 E33.40685
G1 X120.899 Y201.062 E33.43688
G1 X120.123 Y200.599 E33.46694
G1 X119.66 Y200.276 E33.48571
G1 X118.808 Y199.643 E33.52101
G1 X109.978 Y192.867 E33.89121
G1 X109.346 Y192.369 E33.91797
G1 X108.663 Y191.778 E33.94801
G1 X108.035 Y191.129 E33.97805
G1 X107.687 Y190.716 E33.99601
G1 X107.134 Y190.021 E34.02555
G1 X100.251 Y181.054 E34.40153
G1 X99.761 Y180.397 E34.42879
G1 X99.255 Y179.649 E34.45882
G1 X98.816 Y178.86 E34.48886
G1 X98.59 Y178.373 E34.50671
G1 X98.147 Y177.351 E34.54376
G1 X93.917 Y167.139 E34.9114
G1 X93.608 Y166.363 E34.93918
G1 X93.313 Y165.51 E34.9692
G1 X93.094 Y164.634 E34.99923
G1 X93.003 Y164.124 E35.01646
G1 X92.836 Y163.006 E35.05406
G1 X91.392 Y152.04 E35.42194
G1 X91.294 Y151.206 E35.44987
G1 X91.229 Y150.305 E35.47991
G1 X91.244 Y149.402 E35.50995
G1 X91.291 Y148.865 E35.52788
G1 X91.414 Y147.799 E35.56357
G1 X92.862 Y136.796 E35.93269
G1 X92.979 Y135.986 E35.95991
G1 X93.148 Y135.099 E35.98994
G1 X93.395 Y134.231 E36.01996
G1 X93.584 Y133.711 E36.03836
G1 X93.977 Y132.717 E36.07391
G1 X98.277 Y122.337 E36.4476
G1 X98.545 Y121.712 E36.47022
G1 X98.938 Y120.899 E36.50025
G1 X99.401 Y120.123 E36.53031
G1 X99.724 Y119.66 E36.54908
G1 X100.357 Y118.808 E36.58439
G1 X107.133 Y109.978 E36.95458
G1 X107.629 Y109.349 E36.98122
G1 X108.219 Y108.666 E37.01124
G1 F1500 E30.51124
;MESH:MayTheForce-Yoda.stl
G0 F6000 X115.082 Y115.283
G0 X149.999 Y197.982
;TYPE:WALL-INNER
G1 F1500 E37.01124
G1 F1200 X162.421 Y196.346 E37.42797
G1 X173.988 Y191.555 E37.84438
G1 X183.931 Y183.927 E38.2612
G1 X191.555 Y173.988 E38.67782
G1 X196.346 Y162.421 E39.09424
G1 X197.164 Y156.21 E39.3026
G1 X197.982 Y149.999 E39.51096
G1 X196.346 Y137.577 E39.92769
G1 X191.555 Y126.012 E40.34404
G1 X183.93 Y116.073 E40.76069
G1 X173.988 Y108.445 E41.17748
G1 X162.421 Y103.654 E41.59389
G1 X149.999 Y102.018 E42.01062
G1 X137.579 Y103.654 E42.42728
G1 X126.012 Y108.445 E42.84369
G1 X116.069 Y116.073 E43.26051
G1 X108.445 Y126.012 E43.67714
G1 X103.654 Y137.577 E44.09349
G1 X102.018 Y150.003 E44.51035
G1 X103.654 Y162.421 E44.92694
G1 X108.445 Y173.988 E45.34336
G1 X116.069 Y183.927 E45.75998
G1 X126.012 Y191.555 E46.1768
G1 X137.579 Y196.346 E46.59321
G1 X149.999 Y197.982 E47.00987
G0 F6000 X149.999 Y198.386
;TYPE:WALL-OUTER
G1 F1200 X162.525 Y196.736 E47.43009
G1 X174.19 Y191.905 E47.85002
G1 X184.216 Y184.212 E48.27034
G1 X191.905 Y174.19 E48.69048
G1 X196.736 Y162.525 E49.11041
G1 X197.56 Y156.262 E49.32052
G1 X198.386 Y149.999 E49.53063
G1 X196.736 Y137.473 E49.95084
G1 X191.905 Y125.81 E50.37072
G1 X184.216 Y115.788 E50.79085
G1 X174.19 Y108.095 E51.21117
G1 X162.525 Y103.264 E51.63111
G1 X149.999 Y101.614 E52.05132
G1 X137.475 Y103.264 E52.47147
G1 X125.81 Y108.095 E52.89141
G1 X115.784 Y115.788 E53.31173
G1 X108.095 Y125.81 E53.73186
G1 X103.264 Y137.473 E54.15174
G1 X101.614 Y150.003 E54.57208
