;FLAVOR:Marlin
;TIME:2378
;Filament used: 0.879212m
;Layer height: 0.2
;MINX:100.304
;MINY:134.97
;MINZ:0.2
;MAXX:193.379
;MAXY:164.867
;MAXZ:25
;Generated with Cura_SteamEngine 5.2.1
M140 S60
M105
M190 S60
M104 S210
M105
M109 S210
M82 ;absolute extrusion mode
; Ender 3 Max Custom Start G-code
G92 E0 ; Reset Extruder
G28 ; Home all axes
G1 Z2.0 F3000 ; Move Z Axis up little to prevent scratching of Heat Bed
G1 X0.1 Y20 Z0.3 F5000.0 ; Move to start position
G1 X0.1 Y200.0 Z0.3 F1500.0 E15 ; Draw the first line
G1 X0.4 Y200.0 Z0.3 F5000.0 ; Move to side a little
G1 X0.4 Y20 Z0.3 F1500.0 E30 ; Draw the second line
G92 E0 ; Reset Extruder
G1 Z2.0 F3000 ; Move Z Axis up little to prevent scratching of Heat Bed
G1 X5 Y20 Z0.3 F5000.0 ; Move over to prevent blob squish
G92 E0
G92 E0
G1 F1500 E-6.5
;LAYER_COUNT:126
;LAYER:0
M107
G0 F6000 X104.837 Y137.335 Z0.2
;TYPE:SKIRT
G1 F1500 E0
G1 F1200 X105.611 Y136.805 E0.0312
G1 X106.427 Y136.343 E0.06239
G1 X107.279 Y135.951 E0.09358
G1 X108.162 Y135.634 E0.12479
G1 X109.068 Y135.393 E0.15597
G1 X109.992 Y135.23 E0.18717
G1 X110.809 Y135.153 E0.21447
G1 X113.225 Y135.015 E0.29496
G1 X114.096 Y134.974 E0.32396
G1 X115.034 Y134.97 E0.35516
G1 X115.968 Y135.046 E0.38632
G1 X116.562 Y135.136 E0.40631
G1 X117.409 Y135.289 E0.43493
G1 X120.006 Y135.722 E0.5225
G1 X122.483 Y136.063 E0.60566
G1 X124.997 Y136.338 E0.68978
G1 X127.471 Y136.538 E0.77233
G1 X131.248 Y136.712 E0.89809
G1 X132.836 Y136.755 E0.95093
G1 X133.26 Y136.776 E0.96505
G1 X135.806 Y136.865 E1.04978
G1 X138.37 Y136.882 E1.13506
G1 X141.371 Y136.826 E1.23489
G1 X141.802 Y136.826 E1.24922
G1 X145.758 Y136.907 E1.38083
G1 X147.127 Y136.908 E1.42636
G1 X149.527 Y136.943 E1.5062
G1 X152.071 Y136.908 E1.59082
G1 X153.703 Y136.846 E1.64514
G1 X154.23 Y136.839 E1.66267
G1 X158.013 Y136.877 E1.7885
G1 X159.413 Y136.852 E1.83507
G1 X159.615 Y136.857 E1.84179
G1 X161.917 Y136.813 E1.91837
G1 X163.041 Y136.809 E1.95575
G1 X164.226 Y136.827 E1.99517
G1 X165.008 Y136.859 E2.0212
G1 X166.068 Y136.917 E2.05651
G1 X168.618 Y136.986 E2.14135
G1 X170.284 Y136.992 E2.19676
G1 X171.79 Y136.984 E2.24686
G1 X173.913 Y136.991 E2.31747
G1 X175.584 Y136.963 E2.37305
G1 X176.463 Y136.964 E2.40229
G1 X178.283 Y136.988 E2.46283
G1 X179.095 Y137.009 E2.48984
G1 X180.964 Y137.024 E2.55201
G1 X181.901 Y137.072 E2.58321
G1 X182.83 Y137.199 E2.6144
G1 X183.745 Y137.405 E2.64559
G1 X184.639 Y137.689 E2.67679
G1 X185.506 Y138.047 E2.70799
G1 X186.339 Y138.478 E2.73919
G1 X187.176 Y139.009 E2.77215
G1 X187.874 Y139.497 E2.80048
G1 X188.569 Y140.009 E2.82919
G1 X189.296 Y140.602 E2.8604
G1 X189.969 Y141.255 E2.89159
G1 X190.585 Y141.962 E2.92277
G1 X191.138 Y142.72 E2.95398
G1 X191.625 Y143.521 E2.98516
G1 X192.041 Y144.362 E3.01637
G1 X192.387 Y145.241 E3.04779
G1 X192.72 Y146.223 E3.08227
G1 X192.892 Y146.776 E3.10154
G1 X193.132 Y147.683 E3.13274
G1 X193.294 Y148.606 E3.16391
G1 X193.377 Y149.541 E3.19513
G1 X193.379 Y150.478 E3.2263
G1 X193.302 Y151.413 E3.2575
G1 X193.146 Y152.338 E3.2887
G1 X192.903 Y153.274 E3.32086
G1 X192.675 Y154.016 E3.34668
G1 X192.409 Y154.813 E3.37463
G1 X192.07 Y155.687 E3.40581
G1 X191.658 Y156.529 E3.43698
G1 X191.175 Y157.334 E3.46821
G1 X190.626 Y158.094 E3.49939
G1 X190.014 Y158.804 E3.53057
G1 X189.344 Y159.46 E3.56175
G1 X188.923 Y159.82 E3.58018
G1 X188.446 Y160.199 E3.60044
G1 X187.941 Y160.58 E3.62148
G1 X187.349 Y161.012 E3.64586
G1 X186.569 Y161.532 E3.67704
G1 X185.747 Y161.983 E3.70822
G1 X184.889 Y162.363 E3.73943
G1 X184.003 Y162.669 E3.77061
G1 X183.093 Y162.898 E3.80182
G1 X182.167 Y163.049 E3.83302
G1 X181.232 Y163.12 E3.86421
G1 X180.652 Y163.124 E3.8835
G1 X180.013 Y163.112 E3.90476
G1 X177.433 Y163.097 E3.99057
G1 X176.084 Y163.134 E4.03546
G1 X175.916 Y163.131 E4.04105
G1 X174.276 Y163.163 E4.0956
G1 X172.152 Y163.146 E4.16625
G1 X171.266 Y163.125 E4.19573
G1 X168.11 Y163.085 E4.3007
G1 X167.328 Y163.059 E4.32673
G1 X166.151 Y163.003 E4.36592
G1 X163.63 Y162.953 E4.44979
G1 X160.856 Y162.979 E4.54205
G1 X159.013 Y162.958 E4.60336
G1 X156.412 Y162.962 E4.68986
G1 X153.914 Y163.032 E4.77298
G1 X151.323 Y163.139 E4.85923
G1 X149.493 Y163.175 E4.92011
G1 X146.804 Y163.207 E5.00955
G1 X145.931 Y163.204 E5.03859
G1 X144.632 Y163.185 E5.0818
G1 X144.426 Y163.173 E5.08866
G1 X142.513 Y163.132 E5.1523
G1 X140.974 Y163.076 E5.20352
G1 X138.393 Y163.055 E5.28937
G1 X137.193 Y163.07 E5.32929
G1 X135.412 Y163.106 E5.38853
G1 X132.254 Y163.119 E5.49357
G1 X129.73 Y163.195 E5.57756
G1 X127.235 Y163.342 E5.66069
G1 X124.71 Y163.561 E5.74498
G1 X122.187 Y163.853 E5.82946
G1 X119.733 Y164.207 E5.91192
G1 X116.846 Y164.705 E6.00936
G1 X115.916 Y164.825 E6.04055
G1 X115 Y164.865 E6.07105
G1 X114.133 Y164.867 E6.09988
G1 X112.961 Y164.853 E6.13887
G1 X111.562 Y164.867 E6.1854
G1 X110.625 Y164.837 E6.21658
G1 X109.694 Y164.726 E6.24777
G1 X108.775 Y164.537 E6.27897
G1 X107.876 Y164.27 E6.31016
G1 X107.003 Y163.927 E6.34136
G1 X106.162 Y163.511 E6.37257
G1 X105.36 Y163.025 E6.40376
G1 X104.552 Y162.434 E6.43705
G1 X103.84 Y161.823 E6.46826
G1 X103.183 Y161.154 E6.49945
G1 X102.585 Y160.431 E6.53065
G1 X102.051 Y159.66 E6.56185
G1 X101.585 Y158.847 E6.59301
G1 X101.189 Y157.996 E6.62423
G1 X100.868 Y157.115 E6.65542
G1 X100.622 Y156.21 E6.68661
G1 X100.443 Y155.196 E6.72086
G1 X100.4 Y154.863 E6.73203
G1 X100.319 Y153.928 E6.76324
G1 X100.312 Y153.216 E6.78692
G1 X100.361 Y150.945 E6.86247
G1 X100.345 Y148.409 E6.94682
G1 X100.304 Y146.753 E7.00192
G1 X100.326 Y145.815 E7.03313
G1 X100.438 Y144.809 E7.06679
G1 X100.49 Y144.482 E7.07781
G1 X100.677 Y143.563 E7.109
G1 X100.941 Y142.663 E7.14019
G1 X101.281 Y141.789 E7.17138
G1 X101.695 Y140.947 E7.20259
G1 X102.178 Y140.144 E7.23376
G1 X102.728 Y139.384 E7.26496
G1 X103.341 Y138.674 E7.29616
G1 X104.028 Y138.005 E7.32805
G1 X104.837 Y137.335 E7.36299
G0 F6000 X105.091 Y137.645
G1 F1200 X105.852 Y137.127 E7.39361
G1 X106.654 Y136.676 E7.42421
G1 X107.493 Y136.296 E7.45485
G1 X108.362 Y135.991 E7.48548
G1 X109.254 Y135.763 E7.5161
G1 X110.162 Y135.612 E7.54671
G1 X110.832 Y135.552 E7.56909
G1 X113.136 Y135.42 E7.64584
G1 X114.115 Y135.374 E7.67844
G1 X115.035 Y135.37 E7.70904
G1 X115.953 Y135.447 E7.73968
G1 X116.491 Y135.53 E7.75779
G1 X117.351 Y135.685 E7.78685
G1 X119.922 Y136.114 E7.87355
G1 X122.452 Y136.463 E7.95849
G1 X124.958 Y136.736 E8.04233
G1 X127.421 Y136.936 E8.12452
G1 X131.219 Y137.11 E8.25098
G1 X132.569 Y137.145 E8.29589
G1 X135.825 Y137.265 E8.40426
G1 X138.375 Y137.282 E8.48908
G1 X141.379 Y137.226 E8.58901
G1 X141.794 Y137.226 E8.60281
G1 X145.75 Y137.307 E8.73442
G1 X147.122 Y137.308 E8.78005
G1 X149.528 Y137.343 E8.86008
G1 X152.091 Y137.308 E8.94534
G1 X153.718 Y137.246 E8.99949
G1 X154.226 Y137.239 E9.01639
G1 X158.016 Y137.277 E9.14245
G1 X159.42 Y137.252 E9.18915
G1 X159.62 Y137.257 E9.19581
G1 X162.104 Y137.211 E9.27844
G1 X163.041 Y137.209 E9.30961
G1 X164.209 Y137.227 E9.34846
G1 X165.144 Y137.266 E9.37958
G1 X166.07 Y137.317 E9.41043
G1 X168.607 Y137.386 E9.49484
G1 X170.284 Y137.392 E9.55062
G1 X171.788 Y137.384 E9.60064
G1 X173.919 Y137.391 E9.67152
G1 X175.584 Y137.363 E9.72691
G1 X176.458 Y137.364 E9.75598
G1 X178.278 Y137.388 E9.81651
G1 X179.082 Y137.408 E9.84326
G1 X180.961 Y137.424 E9.90576
G1 X181.88 Y137.472 E9.93637
G1 X182.792 Y137.599 E9.96699
G1 X183.689 Y137.805 E9.99761
G1 X184.565 Y138.088 E10.02822
G1 X185.414 Y138.446 E10.05887
G1 X186.228 Y138.876 E10.08949
G1 X186.947 Y139.337 E10.1179
G1 X187.645 Y139.825 E10.14622
G1 X188.33 Y140.33 E10.17453
G1 X189.043 Y140.912 E10.20514
G1 X189.702 Y141.554 E10.23574
G1 X190.304 Y142.251 E10.26637
G1 X190.843 Y142.998 E10.29701
G1 X191.315 Y143.788 E10.32762
G1 X191.716 Y144.617 E10.35825
G1 X192.009 Y145.371 E10.38515
G1 X192.239 Y146.039 E10.40865
G1 X192.51 Y146.895 E10.43851
G1 X192.745 Y147.785 E10.46913
G1 X192.902 Y148.692 E10.49975
G1 X192.979 Y149.61 E10.53039
G1 X192.977 Y150.53 E10.56099
G1 X192.895 Y151.447 E10.59161
G1 X192.733 Y152.354 E10.62225
G1 X192.52 Y153.156 E10.64985
G1 X192.198 Y154.192 E10.68593
G1 X192.031 Y154.684 E10.70321
G1 X191.697 Y155.542 E10.73384
G1 X191.29 Y156.368 E10.76446
G1 X190.814 Y157.156 E10.79508
G1 X190.27 Y157.899 E10.82571
G1 X189.664 Y158.592 E10.85633
G1 X188.671 Y159.509 E10.90129
G1 X188.205 Y159.88 E10.9211
G1 X187.705 Y160.257 E10.94193
G1 X187.113 Y160.689 E10.9663
G1 X186.347 Y161.198 E10.99689
G1 X185.539 Y161.64 E11.02752
G1 X184.696 Y162.01 E11.05814
G1 X183.824 Y162.305 E11.08876
G1 X182.929 Y162.523 E11.1194
G1 X182.019 Y162.663 E11.15002
G1 X180.659 Y162.724 E11.1953
G1 X180.022 Y162.712 E11.21649
G1 X177.424 Y162.697 E11.3029
G1 X176.073 Y162.734 E11.34785
G1 X175.914 Y162.731 E11.35314
G1 X174.269 Y162.763 E11.40787
G1 X171.994 Y162.744 E11.48354
G1 X171.199 Y162.724 E11.50999
G1 X168.124 Y162.685 E11.61227
G1 X167.186 Y162.653 E11.64348
G1 X166.143 Y162.603 E11.67821
G1 X163.634 Y162.553 E11.76168
G1 X160.852 Y162.579 E11.85421
G1 X159.017 Y162.558 E11.91525
G1 X156.4 Y162.562 E12.00229
G1 X153.961 Y162.631 E12.08345
G1 X151.546 Y162.732 E12.16384
G1 X149.488 Y162.775 E12.2323
G1 X146.805 Y162.807 E12.32155
G1 X145.937 Y162.804 E12.35042
G1 X144.638 Y162.785 E12.39363
G1 X144.437 Y162.773 E12.40032
G1 X142.695 Y162.737 E12.45828
G1 X140.992 Y162.676 E12.51495
G1 X138.391 Y162.655 E12.60147
G1 X137.185 Y162.67 E12.64158
G1 X135.231 Y162.708 E12.70658
G1 X132.24 Y162.72 E12.80607
G1 X129.731 Y162.795 E12.88955
G1 X127.175 Y162.945 E12.97471
G1 X124.67 Y163.163 E13.05834
G1 X122.151 Y163.453 E13.14268
G1 X119.644 Y163.815 E13.22693
G1 X116.778 Y164.31 E13.32366
G1 X115.865 Y164.428 E13.35428
G1 X114.999 Y164.465 E13.38311
G1 X114.132 Y164.467 E13.41195
G1 X112.962 Y164.453 E13.45086
G1 X111.558 Y164.467 E13.49756
G1 X110.638 Y164.436 E13.52818
G1 X109.724 Y164.326 E13.5588
G1 X108.823 Y164.136 E13.58943
G1 X107.942 Y163.869 E13.62004
G1 X107.088 Y163.527 E13.65064
G1 X106.266 Y163.111 E13.68128
G1 X105.484 Y162.626 E13.71189
G1 X104.8 Y162.119 E13.74021
G1 X104.101 Y161.519 E13.77085
G1 X103.458 Y160.861 E13.80145
G1 X102.874 Y160.149 E13.83207
G1 X102.354 Y159.389 E13.8627
G1 X101.901 Y158.588 E13.89331
G1 X101.52 Y157.749 E13.92396
G1 X101.214 Y156.881 E13.95457
G1 X100.983 Y155.99 E13.98518
G1 X100.839 Y155.144 E14.01373
G1 X100.796 Y154.811 E14.02489
G1 X100.718 Y153.894 E14.0555
G1 X100.711 Y153.225 E14.07776
G1 X100.761 Y150.916 E14.15457
G1 X100.745 Y148.393 E14.23849
G1 X100.704 Y146.745 E14.29332
G1 X100.726 Y145.824 E14.32396
G1 X100.834 Y144.872 E14.35583
G1 X100.886 Y144.545 E14.36684
G1 X101.069 Y143.643 E14.39745
G1 X101.331 Y142.76 E14.42808
G1 X101.668 Y141.904 E14.45868
G1 X102.078 Y141.08 E14.48929
G1 X102.558 Y140.294 E14.51993
G1 X103.105 Y139.553 E14.55056
G1 X103.714 Y138.862 E14.58119
G1 X104.378 Y138.228 E14.61173
G1 X105.091 Y137.645 E14.64236
G0 F6000 X105.344 Y137.955
G1 F1200 X106.092 Y137.448 E14.67242
G1 X106.881 Y137.01 E14.70243
G1 X107.706 Y136.642 E14.73248
G1 X108.56 Y136.349 E14.76251
G1 X109.437 Y136.133 E14.79255
G1 X110.33 Y135.995 E14.8226
G1 X110.855 Y135.952 E14.84012
G1 X113.262 Y135.814 E14.92031
G1 X114.133 Y135.773 E14.94931
G1 X115.036 Y135.771 E14.97935
G1 X115.936 Y135.848 E15.00939
G1 X116.421 Y135.923 E15.02571
G1 X117.306 Y136.082 E15.05562
G1 X119.868 Y136.51 E15.14201
G1 X122.395 Y136.858 E15.22685
G1 X124.918 Y137.134 E15.31127
G1 X127.426 Y137.337 E15.39496
G1 X131.191 Y137.51 E15.52031
G1 X132.559 Y137.545 E15.56583
G1 X135.808 Y137.665 E15.67397
G1 X138.379 Y137.682 E15.75948
G1 X141.386 Y137.626 E15.85951
G1 X141.786 Y137.626 E15.87281
G1 X145.742 Y137.707 E16.00442
G1 X147.116 Y137.708 E16.05012
G1 X149.527 Y137.743 E16.13032
G1 X152.072 Y137.708 E16.21497
G1 X153.734 Y137.645 E16.27029
G1 X154.222 Y137.639 E16.28652
G1 X158.019 Y137.677 E16.41282
G1 X159.427 Y137.652 E16.45965
G1 X159.625 Y137.657 E16.46624
G1 X162.105 Y137.611 E16.54874
G1 X163.042 Y137.609 E16.57991
G1 X163.905 Y137.619 E16.60861
G1 X165.122 Y137.666 E16.64912
G1 X166.038 Y137.717 E16.67963
G1 X168.594 Y137.786 E16.76468
G1 X170.286 Y137.792 E16.82095
G1 X171.787 Y137.784 E16.87088
G1 X173.925 Y137.791 E16.94199
G1 X175.584 Y137.763 E16.99717
G1 X176.452 Y137.764 E17.02604
G1 X178.272 Y137.788 E17.08658
G1 X179.067 Y137.808 E17.11303
G1 X180.957 Y137.824 E17.1759
G1 X181.859 Y137.872 E17.20594
G1 X182.753 Y137.999 E17.23597
G1 X183.633 Y138.204 E17.26603
G1 X184.49 Y138.487 E17.29604
G1 X185.32 Y138.844 E17.32609
G1 X186.114 Y139.274 E17.35613
G1 X186.717 Y139.664 E17.38001
G1 X187.415 Y140.152 E17.40834
G1 X188.09 Y140.65 E17.43624
G1 X188.789 Y141.222 E17.46628
G1 X189.435 Y141.854 E17.49634
G1 X190.022 Y142.54 E17.52637
G1 X190.546 Y143.275 E17.55639
G1 X191.003 Y144.054 E17.58643
G1 X191.389 Y144.87 E17.61645
G1 X191.63 Y145.501 E17.63892
G1 X191.956 Y146.461 E17.67264
G1 X192.128 Y147.014 E17.6919
G1 X192.358 Y147.887 E17.72193
G1 X192.509 Y148.777 E17.75195
G1 X192.581 Y149.678 E17.78202
G1 X192.574 Y150.581 E17.81205
G1 X192.486 Y151.479 E17.84206
G1 X192.32 Y152.367 E17.87211
G1 X192.138 Y153.039 E17.89526
G1 X191.91 Y153.781 E17.92108
G1 X191.652 Y154.555 E17.94822
G1 X191.324 Y155.397 E17.97827
G1 X190.923 Y156.206 E18.0083
G1 X190.452 Y156.977 E18.03835
G1 X189.915 Y157.703 E18.06839
G1 X189.315 Y158.378 E18.09843
G1 X188.419 Y159.198 E18.13882
G1 X187.963 Y159.561 E18.15821
G1 X187.47 Y159.933 E18.17875
G1 X186.878 Y160.365 E18.20313
G1 X186.125 Y160.865 E18.23319
G1 X185.332 Y161.296 E18.26321
G1 X184.503 Y161.655 E18.29325
G1 X183.646 Y161.94 E18.32329
G1 X182.767 Y162.147 E18.35333
G1 X181.873 Y162.276 E18.38337
G1 X180.667 Y162.324 E18.42352
G1 X180.033 Y162.312 E18.44461
G1 X177.416 Y162.297 E18.53165
G1 X176.063 Y162.334 E18.57667
G1 X175.906 Y162.331 E18.58189
G1 X174.261 Y162.363 E18.63661
G1 X172.004 Y162.344 E18.71168
G1 X171.214 Y162.324 E18.73797
G1 X169.26 Y162.295 E18.80297
G1 X168.43 Y162.291 E18.83057
G1 X167.206 Y162.253 E18.8713
G1 X166.171 Y162.203 E18.90577
G1 X163.638 Y162.153 E18.99003
G1 X160.848 Y162.179 E19.08283
G1 X159.022 Y162.158 E19.14357
G1 X156.389 Y162.162 E19.23114
G1 X153.931 Y162.231 E19.31293
G1 X151.307 Y162.339 E19.40027
G1 X149.483 Y162.375 E19.46095
G1 X146.807 Y162.407 E19.54996
G1 X145.943 Y162.404 E19.5787
G1 X144.644 Y162.385 E19.62191
G1 X144.442 Y162.373 E19.62864
G1 X142.703 Y162.337 E19.68649
G1 X141.009 Y162.276 E19.74287
G1 X138.389 Y162.255 E19.83002
G1 X137.174 Y162.27 E19.87043
G1 X135.229 Y162.308 E19.93513
G1 X132.227 Y162.32 E20.03498
G1 X129.696 Y162.396 E20.1192
G1 X127.186 Y162.543 E20.20283
G1 X124.625 Y162.766 E20.28833
G1 X122.085 Y163.059 E20.37337
G1 X119.591 Y163.419 E20.45718
G1 X116.71 Y163.916 E20.55442
G1 X115.814 Y164.03 E20.58446
G1 X114.999 Y164.065 E20.61159
G1 X114.132 Y164.067 E20.64043
G1 X113.009 Y164.054 E20.67778
G1 X111.555 Y164.068 E20.72614
G1 X110.652 Y164.036 E20.7562
G1 X109.756 Y163.925 E20.78622
G1 X108.873 Y163.736 E20.81626
G1 X108.01 Y163.469 E20.8463
G1 X107.174 Y163.126 E20.87636
G1 X106.372 Y162.711 E20.90639
G1 X105.61 Y162.227 E20.93642
G1 X105.047 Y161.805 E20.95982
G1 X104.362 Y161.216 E20.98987
G1 X103.733 Y160.568 E21.0199
G1 X103.163 Y159.868 E21.04993
G1 X102.657 Y159.119 E21.07999
G1 X102.219 Y158.329 E21.11004
G1 X101.853 Y157.504 E21.14005
G1 X101.562 Y156.649 E21.17009
G1 X101.347 Y155.772 E21.20013
G1 X101.236 Y155.093 E21.22301
G1 X101.193 Y154.76 E21.23418
G1 X101.117 Y153.86 E21.26422
G1 X101.111 Y153.233 E21.28507
G1 X101.161 Y150.921 E21.36199
G1 X101.145 Y148.377 E21.4466
G1 X101.123 Y147.706 E21.46893
G1 X101.104 Y146.737 E21.50117
