;FLAVOR:Marlin
;TIME:2671
;Filament used: 1.11317m
;Layer height: 0.2
;MINX:124.238
;MINY:126.04
;MINZ:0.2
;MAXX:177.171
;MAXY:178.479
;MAXZ:13.8
;Generated with Cura_SteamEngine 5.2.1
M140 S60
M105
M190 S60
M104 S215
M105
M109 S215
M82 ;absolute extrusion mode
; Ender 3 Max Custom Start G-code
G92 E0 ; Reset Extruder
G28 ; Home all axes
G1 Z2.0 F3000 ; Move Z Axis up little to prevent scratching of Heat Bed
G1 X0.1 Y20 Z0.3 F5000.0 ; Move to start position
G1 X0.1 Y200.0 Z0.3 F1500.0 E15 ; Draw the first line
G1 X0.4 Y200.0 Z0.3 F5000.0 ; Move to side a little
G1 X0.4 Y20 Z0.3 F1500.0 E30 ; Draw the second line
G92 E0 ; Reset Extruder
G1 Z2.0 F3000 ; Move Z Axis up little to prevent scratching of Heat Bed
G1 X5 Y20 Z0.3 F5000.0 ; Move over to prevent blob squish
G92 E0
G92 E0
G1 F1500 E-6.5
;LAYER_COUNT:69
;LAYER:0
M107
G0 F6000 X131.262 Y129.304 Z0.2
;TYPE:SKIRT
G1 F1500 E0
G1 F1200 X131.95 Y128.666 E0.03121
G1 X132.69 Y128.09 E0.0624
G1 X133.477 Y127.579 E0.09361
G1 X134.304 Y127.137 E0.1248
G1 X135.165 Y126.767 E0.15596
G1 X136.055 Y126.471 E0.18716
G1 X136.967 Y126.252 E0.21836
G1 X137.895 Y126.112 E0.24957
G1 X138.765 Y126.053 E0.27857
G1 X139.394 Y126.04 E0.2995
G1 X160.386 Y126.041 E0.99769
G1 X161.088 Y126.051 E1.02105
G1 X162.024 Y126.104 E1.05223
G1 X162.952 Y126.237 E1.08341
G1 X163.866 Y126.449 E1.11461
G1 X164.759 Y126.737 E1.14582
G1 X165.623 Y127.101 E1.17701
G1 X166.454 Y127.537 E1.20822
G1 X167.244 Y128.042 E1.2394
G1 X167.988 Y128.612 E1.27058
G1 X168.681 Y129.244 E1.30177
G1 X169.318 Y129.933 E1.33298
G1 X170.044 Y130.89 E1.37293
G1 X170.641 Y131.774 E1.40841
G1 X171.042 Y132.386 E1.43275
G1 X172.461 Y134.421 E1.51526
G1 X174.05 Y136.571 E1.60418
G1 X174.57 Y137.257 E1.63281
G1 X175.104 Y138.028 E1.66401
G1 X175.571 Y138.841 E1.69519
G1 X175.966 Y139.692 E1.7264
G1 X176.207 Y140.328 E1.74902
G1 X176.536 Y141.299 E1.78312
G1 X176.687 Y141.786 E1.80007
G1 X176.926 Y142.693 E1.83127
G1 X177.087 Y143.617 E1.86247
G1 X177.169 Y144.551 E1.89365
G1 X177.171 Y145.489 E1.92485
G1 X177.093 Y146.424 E1.95605
G1 X176.936 Y147.348 E1.98723
G1 X176.698 Y148.263 E2.01867
G1 X176.377 Y149.296 E2.05465
G1 X176.129 Y150.011 E2.07982
G1 X175.636 Y151.341 E2.127
G1 X174.887 Y153.408 E2.20012
G1 X174.09 Y155.823 E2.28471
G1 X173.367 Y158.238 E2.36855
G1 X172.712 Y160.678 E2.45258
G1 X172.135 Y163.096 E2.53526
G1 X171.991 Y163.799 E2.55913
G1 X171.938 Y164.013 E2.56646
G1 X171.665 Y165.276 E2.60944
G1 X171.429 Y166.183 E2.64061
G1 X171.115 Y167.067 E2.67181
G1 X170.728 Y167.922 E2.70303
G1 X170.269 Y168.74 E2.73422
G1 X169.742 Y169.516 E2.76542
G1 X169.151 Y170.244 E2.79661
G1 X168.528 Y170.893 E2.82653
G1 X167.801 Y171.59 E2.86003
G1 X165.952 Y173.414 E2.94642
G1 X165.461 Y173.924 E2.96996
G1 X164.847 Y174.543 E2.99896
G1 X164.158 Y175.18 E3.03017
G1 X163.668 Y175.571 E3.05102
G1 X162.915 Y176.133 E3.08227
G1 X162.567 Y176.379 E3.09645
G1 X161.778 Y176.888 E3.12768
G1 X160.95 Y177.327 E3.15885
G1 X160.087 Y177.694 E3.19004
G1 X159.195 Y177.986 E3.22125
G1 X158.283 Y178.201 E3.25242
G1 X157.355 Y178.338 E3.28362
G1 X156.527 Y178.393 E3.31122
G1 X155.713 Y178.414 E3.3383
G1 X153.747 Y178.432 E3.40369
G1 X152.497 Y178.46 E3.44528
G1 X152.339 Y178.457 E3.45054
G1 X151.015 Y178.479 E3.49458
G1 X149.176 Y178.478 E3.55574
G1 X146.46 Y178.411 E3.64611
G1 X145.524 Y178.348 E3.67731
G1 X144.597 Y178.205 E3.7085
G1 X143.686 Y177.984 E3.73968
G1 X142.796 Y177.686 E3.7709
G1 X141.936 Y177.314 E3.80207
G1 X140.892 Y176.736 E3.84176
G1 X139.9 Y176.115 E3.88068
G1 X137.65 Y174.748 E3.96825
G1 X134.727 Y173.102 E4.07982
G1 X133.843 Y172.623 E4.11326
G1 X133.039 Y172.141 E4.14444
G1 X132.278 Y171.593 E4.17563
G1 X131.566 Y170.981 E4.20686
G1 X130.91 Y170.312 E4.23802
G1 X130.313 Y169.589 E4.26921
G1 X129.779 Y168.817 E4.30043
G1 X129.313 Y168.003 E4.33162
G1 X128.919 Y167.152 E4.36281
G1 X128.575 Y166.197 E4.39658
G1 X127.879 Y163.942 E4.47507
G1 X127.068 Y161.545 E4.55923
G1 X126.19 Y159.173 E4.64336
G1 X125.299 Y156.95 E4.72301
G1 X125.102 Y156.42 E4.74182
G1 X124.913 Y155.868 E4.76122
G1 X124.721 Y155.264 E4.7823
G1 X124.482 Y154.357 E4.8135
G1 X124.321 Y153.433 E4.8447
G1 X124.24 Y152.498 E4.87591
G1 X124.238 Y151.56 E4.90711
G1 X124.317 Y150.626 E4.93828
G1 X124.474 Y149.701 E4.96949
G1 X124.712 Y148.786 E5.00094
G1 X124.957 Y147.987 E5.02873
G1 X125.628 Y145.916 E5.10114
G1 X126.333 Y143.513 E5.18443
G1 X126.977 Y141.066 E5.26859
G1 X127.55 Y138.607 E5.35257
G1 X128.109 Y135.838 E5.44652
G1 X128.259 Y135.035 E5.47369
G1 X128.47 Y134.121 E5.50489
G1 X128.758 Y133.228 E5.5361
G1 X129.121 Y132.363 E5.5673
G1 X129.556 Y131.533 E5.59847
G1 X130.061 Y130.742 E5.62968
G1 X130.631 Y129.997 E5.66088
G1 X131.262 Y129.304 E5.69205
G0 F6000 X131.63 Y129.502
G1 F1200 X132.313 Y128.884 E5.72269
G1 X133.047 Y128.329 E5.7533
G1 X133.826 Y127.839 E5.7839
G1 X134.645 Y127.418 E5.81453
G1 X135.498 Y127.07 E5.84517
G1 X136.377 Y126.798 E5.87578
G1 X137.277 Y126.602 E5.90641
G1 X138.19 Y126.486 E5.93702
G1 X138.776 Y126.453 E5.95655
G1 X139.394 Y126.44 E5.9771
G1 X160.229 Y126.44 E6.67008
G1 X161.082 Y126.451 E6.69845
G1 X162.001 Y126.504 E6.72907
G1 X162.912 Y126.637 E6.75969
G1 X163.808 Y126.848 E6.79031
G1 X164.683 Y127.136 E6.82095
G1 X165.529 Y127.499 E6.85156
G1 X166.34 Y127.934 E6.88217
G1 X167.111 Y128.438 E6.91281
G1 X167.835 Y129.006 E6.94342
G1 X168.507 Y129.636 E6.97405
G1 X169.121 Y130.321 E7.00465
G1 X169.713 Y131.114 E7.03756
G1 X170.224 Y131.87 E7.06791
G1 X170.696 Y132.589 E7.09652
G1 X172.144 Y134.666 E7.18073
G1 X173.7 Y136.771 E7.2678
G1 X174.251 Y137.498 E7.29814
G1 X174.775 Y138.255 E7.32876
G1 X175.231 Y139.055 E7.35938
G1 X175.616 Y139.892 E7.39003
G1 X175.829 Y140.458 E7.41014
G1 X176.054 Y141.113 E7.43318
G1 X176.304 Y141.905 E7.4608
G1 X176.539 Y142.795 E7.49142
G1 X176.695 Y143.702 E7.52203
G1 X176.772 Y144.62 E7.55267
G1 X176.768 Y145.541 E7.5833
G1 X176.685 Y146.457 E7.61389
G1 X176.523 Y147.364 E7.64453
G1 X176.316 Y148.146 E7.67144
G1 X175.998 Y149.167 E7.70701
G1 X175.754 Y149.872 E7.73182
G1 X175.261 Y151.202 E7.779
G1 X174.507 Y153.283 E7.85261
G1 X173.699 Y155.731 E7.93836
G1 X172.982 Y158.125 E8.02148
G1 X172.332 Y160.545 E8.10482
G1 X171.742 Y163.02 E8.18944
G1 X171.599 Y163.719 E8.21317
G1 X171.549 Y163.92 E8.22006
G1 X171.274 Y165.192 E8.26335
G1 X171.041 Y166.082 E8.29395
G1 X170.732 Y166.949 E8.32456
G1 X170.348 Y167.786 E8.35519
G1 X169.893 Y168.587 E8.38583
G1 X169.371 Y169.345 E8.41644
G1 X168.784 Y170.054 E8.44705
G1 X168.251 Y170.605 E8.47255
G1 X167.524 Y171.302 E8.50605
G1 X165.627 Y173.173 E8.59467
G1 X165.051 Y173.77 E8.62226
G1 X164.563 Y174.261 E8.64528
G1 X163.887 Y174.886 E8.67591
G1 X163.428 Y175.252 E8.69543
G1 X162.948 Y175.614 E8.71543
G1 X162.336 Y176.053 E8.74048
G1 X161.562 Y176.551 E8.77109
G1 X160.747 Y176.98 E8.80172
G1 X159.898 Y177.337 E8.83235
G1 X159.022 Y177.619 E8.86296
G1 X158.124 Y177.824 E8.8936
G1 X157.212 Y177.95 E8.92422
G1 X156.516 Y177.993 E8.94741
G1 X155.71 Y178.014 E8.97423
G1 X153.734 Y178.032 E9.03996
G1 X152.488 Y178.06 E9.08141
G1 X151.015 Y178.079 E9.1304
G1 X149.186 Y178.078 E9.19124
G1 X146.47 Y178.011 E9.2816
G1 X145.551 Y177.948 E9.31224
G1 X144.641 Y177.806 E9.34287
G1 X143.748 Y177.585 E9.37347
G1 X142.876 Y177.288 E9.40411
G1 X142.034 Y176.917 E9.43471
G1 X141.104 Y176.397 E9.47015
G1 X140.079 Y175.755 E9.51037
G1 X137.862 Y174.409 E9.59664
G1 X134.889 Y172.735 E9.71012
G1 X134.034 Y172.271 E9.74247
G1 X133.244 Y171.798 E9.7731
G1 X132.499 Y171.258 E9.8037
G1 X131.803 Y170.655 E9.83433
G1 X131.162 Y169.994 E9.86496
G1 X130.581 Y169.28 E9.89557
G1 X130.064 Y168.518 E9.9262
G1 X129.615 Y167.714 E9.95683
G1 X129.237 Y166.874 E9.98746
G1 X128.957 Y166.079 E10.0155
G1 X128.257 Y163.811 E10.09444
G1 X127.45 Y161.426 E10.17819
G1 X126.56 Y159.022 E10.26345
G1 X125.67 Y156.801 E10.34303
G1 X125.481 Y156.291 E10.36112
G1 X125.292 Y155.739 E10.38052
G1 X125.103 Y155.145 E10.40126
G1 X124.869 Y154.255 E10.43187
G1 X124.714 Y153.347 E10.4625
G1 X124.637 Y152.43 E10.49311
G1 X124.641 Y151.509 E10.52374
G1 X124.724 Y150.592 E10.55437
G1 X124.887 Y149.686 E10.58498
G1 X125.095 Y148.903 E10.61193
G1 X125.391 Y147.941 E10.64541
G1 X126.009 Y146.037 E10.71199
G1 X126.724 Y143.598 E10.79652
G1 X127.368 Y141.153 E10.88062
G1 X127.938 Y138.705 E10.96421
G1 X128.5 Y135.924 E11.05858
G1 X128.652 Y135.108 E11.08619
G1 X128.86 Y134.211 E11.11681
G1 X129.145 Y133.335 E11.14745
G1 X129.504 Y132.488 E11.17805
G1 X129.936 Y131.675 E11.20867
G1 X130.437 Y130.902 E11.23931
G1 X131.003 Y130.176 E11.26993
G1 X131.63 Y129.502 E11.30054
G0 F6000 X131.997 Y129.702
G1 F1200 X132.675 Y129.105 E11.33059
G1 X133.402 Y128.571 E11.36059
G1 X134.174 Y128.102 E11.39064
G1 X134.985 Y127.704 E11.42068
G1 X135.828 Y127.379 E11.45073
G1 X136.696 Y127.13 E11.48077
G1 X137.582 Y126.958 E11.51079
G1 X138.787 Y126.853 E11.55102
G1 X139.394 Y126.84 E11.57121
G1 X160.229 Y126.84 E12.26419
G1 X161.076 Y126.851 E12.29236
G1 X161.978 Y126.904 E12.32241
G1 X162.871 Y127.036 E12.35244
G1 X163.749 Y127.247 E12.38247
G1 X164.605 Y127.535 E12.41251
G1 X165.433 Y127.897 E12.44256
G1 X166.225 Y128.331 E12.4726
G1 X166.975 Y128.834 E12.50264
G1 X167.678 Y129.4 E12.53266
G1 X168.328 Y130.027 E12.56269
G1 X168.92 Y130.709 E12.59273
G1 X169.382 Y131.338 E12.61869
G1 X169.893 Y132.094 E12.64904
G1 X170.377 Y132.831 E12.67836
G1 X171.826 Y134.91 E12.76265
G1 X173.379 Y137.01 E12.84952
G1 X173.932 Y137.74 E12.87998
G1 X174.446 Y138.483 E12.91003
G1 X174.891 Y139.269 E12.94007
G1 X175.265 Y140.091 E12.97011
G1 X175.451 Y140.588 E12.98776
G1 X175.676 Y141.243 E13.01079
G1 X175.922 Y142.023 E13.038
G1 X176.151 Y142.897 E13.06805
G1 X176.302 Y143.787 E13.09807
G1 X176.374 Y144.688 E13.12813
G1 X176.365 Y145.591 E13.15817
G1 X176.277 Y146.489 E13.18818
G1 X176.11 Y147.377 E13.21823
G1 X175.933 Y148.029 E13.2407
G1 X175.619 Y149.038 E13.27585
G1 X175.379 Y149.733 E13.30031
G1 X174.886 Y151.063 E13.34748
G1 X174.123 Y153.169 E13.42198
G1 X173.322 Y155.596 E13.50699
G1 X172.602 Y158.003 E13.59055
G1 X171.941 Y160.463 E13.67527
G1 X171.351 Y162.937 E13.75987
G1 X171.207 Y163.639 E13.7837
G1 X171.156 Y163.841 E13.79063
G1 X170.883 Y165.107 E13.83371
G1 X170.654 Y165.981 E13.86376
G1 X170.348 Y166.83 E13.89377
G1 X169.968 Y167.65 E13.92383
G1 X169.518 Y168.432 E13.95384
G1 X168.999 Y169.172 E13.9839
G1 X168.418 Y169.863 E14.01393
G1 X167.974 Y170.316 E14.03503
G1 X167.248 Y171.012 E14.06848
G1 X165.36 Y172.874 E14.15667
G1 X164.768 Y173.488 E14.18504
G1 X164.28 Y173.979 E14.20807
G1 X163.615 Y174.591 E14.23813
G1 X163.187 Y174.933 E14.25635
G1 X162.707 Y175.295 E14.27634
G1 X162.105 Y175.726 E14.30097
G1 X161.345 Y176.214 E14.33101
G1 X160.545 Y176.633 E14.36105
G1 X159.711 Y176.98 E14.39109
G1 X158.85 Y177.251 E14.42111
G1 X157.968 Y177.446 E14.45116
G1 X157.072 Y177.561 E14.4812
G1 X156.504 Y177.593 E14.50012
G1 X155.706 Y177.614 E14.52667
G1 X153.722 Y177.632 E14.59266
G1 X152.479 Y177.66 E14.63402
G1 X151.014 Y177.679 E14.68275
G1 X149.195 Y177.678 E14.74325
G1 X146.479 Y177.611 E14.83361
G1 X145.578 Y177.549 E14.86365
G1 X144.687 Y177.407 E14.89366
G1 X143.811 Y177.187 E14.9237
G1 X142.958 Y176.89 E14.95374
G1 X142.134 Y176.519 E14.9838
G1 X141.317 Y176.058 E15.015
G1 X140.297 Y175.419 E15.05503
G1 X138.065 Y174.064 E15.14187
G1 X135.097 Y172.392 E15.25518
G1 X134.224 Y171.919 E15.2882
G1 X133.45 Y171.454 E15.31823
G1 X132.72 Y170.923 E15.34826
G1 X132.04 Y170.328 E15.37831
G1 X131.415 Y169.676 E15.40835
G1 X130.851 Y168.972 E15.43835
G1 X130.351 Y168.22 E15.46839
G1 X129.919 Y167.426 E15.49845
G1 X129.559 Y166.598 E15.52848
G1 X129.339 Y165.961 E15.5509
G1 X128.635 Y163.68 E15.63029
G1 X127.828 Y161.296 E15.71401
G1 X126.935 Y158.882 E15.79961
G1 X126.041 Y156.652 E15.87952
G1 X125.859 Y156.161 E15.89694
G1 X125.67 Y155.609 E15.91634
G1 X125.485 Y155.027 E15.93666
G1 X125.257 Y154.153 E15.9667
G1 X125.106 Y153.263 E15.99672
G1 X125.035 Y152.362 E16.02678
G1 X125.044 Y151.459 E16.05682
G1 X125.133 Y150.561 E16.08683
G1 X125.3 Y149.673 E16.11689
G1 X125.477 Y149.021 E16.13936
G1 X125.722 Y148.222 E16.16715
G1 X126.384 Y146.177 E16.23864
G1 X127.112 Y143.698 E16.32458
G1 X127.75 Y141.273 E16.40798
G1 X128.332 Y138.777 E16.49322
G1 X128.903 Y135.947 E16.58925
G1 X129.046 Y135.181 E16.61516
G1 X129.25 Y134.301 E16.64521
G1 X129.532 Y133.443 E16.67525
G1 X129.888 Y132.613 E16.70528
G1 X130.316 Y131.818 E16.73532
G1 X130.813 Y131.064 E16.76535
G1 X131.375 Y130.357 E16.79539
G1 X131.997 Y129.702 E16.82543
G1 F1500 E10.32543
G0 F6000 X161.589 Y136.387
G0 X164.171 Y145.055
G1 F1500 E16.82543
G1 F1200 X164.255 Y144.993 E16.82891
G1 X164.301 Y145.055 E16.83147
G1 X164.217 Y145.117 E16.83495
G1 X164.171 Y145.055 E16.83751
G0 F6000 X163.75 Y145.055
G1 F1200 X163.842 Y144.771 E16.84744
G1 X164.087 Y144.593 E16.85752
G1 X164.385 Y144.593 E16.86743
G1 X164.63 Y144.771 E16.8775
G1 X164.722 Y145.055 E16.88743
G1 X164.63 Y145.339 E16.89736
G1 X164.385 Y145.517 E16.90743
G1 X164.087 Y145.517 E16.91734
G1 X163.842 Y145.339 E16.92741
G1 X163.75 Y145.055 E16.93734
G0 F6000 X163.33 Y145.055
G1 F1200 X163.503 Y144.523 E16.95595
G1 X163.956 Y144.193 E16.97459
G1 X164.516 Y144.193 E16.99322
G1 X164.969 Y144.523 E17.01186
G1 X165.142 Y145.055 E17.03046
G1 X164.969 Y145.587 E17.04907
G1 X164.516 Y145.917 E17.06771
G1 X163.956 Y145.917 E17.08634
G1 X163.503 Y145.587 E17.10498
G1 X163.33 Y145.055 E17.12358
G0 F6000 X162.91 Y145.055
G1 F1200 X163.163 Y144.276 E17.15082
G1 X163.826 Y143.793 E17.17811
G1 X164.646 Y143.793 E17.20538
G1 X165.309 Y144.276 E17.23266
G1 X165.562 Y145.055 E17.25991
G1 X165.309 Y145.834 E17.28715
G1 X164.646 Y146.317 E17.31443
G1 X163.826 Y146.317 E17.3417
G1 X163.163 Y145.834 E17.36899
G1 X162.91 Y145.055 E17.39623
G0 F6000 X162.488 Y145.055
G1 F1200 X162.822 Y144.03 E17.43208
G1 X163.697 Y143.393 E17.46808
G1 X164.775 Y143.393 E17.50394
G1 X165.65 Y144.03 E17.53993
G1 X165.984 Y145.055 E17.57579
G1 X165.65 Y146.08 E17.61165
G1 X164.775 Y146.717 E17.64764
G1 X163.697 Y146.717 E17.6835
G1 X162.822 Y146.08 E17.71949
G1 X162.488 Y145.055 E17.75535
G1 F1500 E11.25535
G0 F6000 X157.327 Y146.031
G1 F1500 E17.75535
G1 F1200 X156.228 Y146.36 E17.79351
G1 X155.741 Y146.079 E17.81221
G1 X155.446 Y145.423 E17.83613
G1 X155.888 Y145.101 E17.85432
G1 X156.588 Y145.101 E17.8776
G1 X157.159 Y145.516 E17.90108
G1 X157.327 Y146.031 E17.9191
G0 F6000 X156.819 Y145.765
G1 F1200 X156.279 Y145.927 E17.93785
G1 X156.053 Y145.796 E17.94654
G1 X155.944 Y145.554 E17.95536
G1 X156.017 Y145.501 E17.95836
G1 X156.459 Y145.501 E17.97306
G1 X156.819 Y145.765 E17.98791
G1 F1500 E11.48791
G0 F6000 X151.099 Y145.553
G1 F1500 E17.98791
G1 F1200 X150.839 Y146.05 E18.00657
G1 X149.669 Y146.362 E18.04684
G1 X149.223 Y146.104 E18.06398
G1 X149.214 Y145.307 E18.09049
G1 X149.754 Y144.914 E18.1127
G1 X150.439 Y144.914 E18.13549
G1 X151.099 Y145.553 E18.16604
G0 F6000 X150.606 Y145.632
G1 F1200 X150.566 Y145.708 E18.1689
G1 X149.726 Y145.932 E18.19781
G1 X149.62 Y145.871 E18.20188
G1 X149.616 Y145.508 E18.21395
G1 X149.883 Y145.314 E18.22493
G1 X150.277 Y145.314 E18.23804
G1 X150.606 Y145.632 E18.25325
G1 F1500 E11.75325
G0 F6000 X144.362 Y145.924
G1 F1500 E18.25325
G1 F1200 X144.283 Y146.051 E18.25823
G1 X143.876 Y146.18 E18.27243
G1 X144.11 Y145.924 E18.28397
G1 X144.362 Y145.924 E18.29235
G1 F1500 E11.79235
G0 F6000 X143.136 Y152.332
G1 F1500 E18.29235
G1 F1200 X144.024 Y152.562 E18.32286
G1 X143.494 Y153.153 E18.34926
G1 X142.818 Y153.153 E18.37174
G1 X142.488 Y152.913 E18.38532
G1 X143.136 Y152.332 E18.41426
G1 F1500 E11.91426
