;FLAVOR:Marlin
;TIME:14503
;Filament used: 10.3842m
;Layer height: 0.2
;MINX:106.997
;MINY:111.076
;MINZ:0.2
;MAXX:193.004
;MAXY:188.883
;MAXZ:64.2
;Generated with Cura_SteamEngine 5.2.1
M140 S60
M105
M190 S60
M104 S200
M105
M109 S200
M82 ;absolute extrusion mode
; Ender 3 Max Custom Start G-code
G92 E0 ; Reset Extruder
G28 ; Home all axes
G1 Z2.0 F3000 ; Move Z Axis up little to prevent scratching of Heat Bed
G1 X0.1 Y20 Z0.3 F5000.0 ; Move to start position
G1 X0.1 Y200.0 Z0.3 F1500.0 E15 ; Draw the first line
G1 X0.4 Y200.0 Z0.3 F5000.0 ; Move to side a little
G1 X0.4 Y20 Z0.3 F1500.0 E30 ; Draw the second line
G92 E0 ; Reset Extruder
G1 Z2.0 F3000 ; Move Z Axis up little to prevent scratching of Heat Bed
G1 X5 Y20 Z0.3 F5000.0 ; Move over to prevent blob squish
G92 E0
G92 E0
G1 F1500 E-6.5
;LAYER_COUNT:322
;LAYER:0
M107
G0 F6000 X116.48 Y130.368 Z0.2
;TYPE:SKIRT
G1 F1500 E0
G1 F1200 X117.304 Y129.657 E0.0362
G1 X119.13 Y128.038 E0.11737
G1 X119.799 Y127.429 E0.14746
G1 X120.375 Y126.94 E0.17259
G1 X122.247 Y125.458 E0.252
G1 X124.213 Y123.814 E0.33724
G1 X126.089 Y122.155 E0.42053
G1 X127.929 Y120.432 E0.50437
G1 X129.689 Y118.686 E0.58683
G1 X131.993 Y116.254 E0.69825
G1 X132.666 Y115.601 E0.72944
G1 X133.303 Y115.076 E0.7569
G1 X133.574 Y114.869 E0.76824
G1 X134.343 Y114.332 E0.79944
G1 X135.155 Y113.863 E0.83062
G1 X136.004 Y113.464 E0.86183
G1 X136.954 Y113.117 E0.89546
G1 X137.964 Y112.801 E0.93066
G1 X138.603 Y112.613 E0.95282
G1 X140.797 Y111.941 E1.02914
G1 X142.256 Y111.514 E1.0797
G1 X143.167 Y111.289 E1.11091
G1 X144.093 Y111.144 E1.14208
G1 X145.029 Y111.077 E1.17329
G1 X145.615 Y111.076 E1.19278
G1 X146.171 Y111.09 E1.21128
G1 X147.95 Y111.158 E1.2705
G1 X150.442 Y111.183 E1.35338
G1 X153.028 Y111.137 E1.43941
G1 X154.261 Y111.091 E1.48045
G1 X155.199 Y111.096 E1.51164
G1 X156.133 Y111.181 E1.54284
G1 X157.511 Y111.457 E1.58958
G1 X158.21 Y111.648 E1.61368
G1 X162.243 Y112.85 E1.75365
G1 X163.151 Y113.147 E1.78543
G1 X164.028 Y113.48 E1.81663
G1 X164.872 Y113.888 E1.84781
G1 X166.033 Y114.606 E1.89321
G1 X166.365 Y114.841 E1.90674
G1 X167.107 Y115.415 E1.93794
G1 X168.004 Y116.263 E1.979
G1 X170.081 Y118.461 E2.07958
G1 X171.89 Y120.263 E2.1645
G1 X173.693 Y121.961 E2.24688
G1 X175.599 Y123.656 E2.33171
G1 X177.505 Y125.259 E2.41455
G1 X179.62 Y126.936 E2.50432
G1 X180.209 Y127.438 E2.53006
G1 X180.597 Y127.793 E2.54755
G1 X182.558 Y129.538 E2.63486
G1 X183.177 Y130.063 E2.66186
G1 X183.582 Y130.418 E2.67977
G1 X184.26 Y131.066 E2.71096
G1 X184.963 Y131.872 E2.74653
G1 X186.464 Y133.773 E2.82709
G1 X188.11 Y135.746 E2.91255
G1 X190.072 Y137.958 E3.0109
G1 X190.664 Y138.686 E3.04211
G1 X191.192 Y139.461 E3.0733
G1 X191.651 Y140.278 E3.10446
G1 X192.04 Y141.132 E3.13568
G1 X192.243 Y141.674 E3.15493
G1 X192.378 Y142.066 E3.16872
G1 X192.645 Y142.965 E3.19991
G1 X192.835 Y143.884 E3.23112
G1 X192.945 Y144.815 E3.2623
G1 X192.975 Y145.431 E3.28281
G1 X193.004 Y146.901 E3.33171
G1 X192.982 Y147.839 E3.36292
G1 X192.93 Y148.407 E3.38189
G1 X192.877 Y148.856 E3.39693
G1 X192.728 Y149.782 E3.42812
G1 X192.459 Y150.826 E3.46398
G1 X192.325 Y151.258 E3.47903
G1 X192.009 Y152.141 E3.51022
G1 X191.62 Y152.994 E3.5414
G1 X191.158 Y153.811 E3.57262
G1 X190.629 Y154.585 E3.6038
G1 X190.036 Y155.312 E3.635
G1 X189.384 Y155.985 E3.66617
G1 X188.676 Y156.6 E3.69736
G1 X187.523 Y157.404 E3.74411
G1 X186.761 Y157.866 E3.77375
G1 X184.531 Y159.263 E3.86127
G1 X182.449 Y160.65 E3.94448
G1 X180.354 Y162.133 E4.02985
G1 X178.381 Y163.614 E4.1119
G1 X176.411 Y165.183 E4.19567
G1 X174.473 Y166.818 E4.28
G1 X172.596 Y168.496 E4.36374
G1 X170.767 Y170.224 E4.44743
G1 X168.996 Y171.998 E4.5308
G1 X167.259 Y173.836 E4.61492
G1 X165.589 Y175.707 E4.69833
G1 X163.958 Y177.642 E4.7825
G1 X162.417 Y179.58 E4.86485
G1 X160.892 Y181.613 E4.94938
G1 X159.06 Y184.216 E5.05525
G1 X158.488 Y184.959 E5.08643
G1 X157.855 Y185.651 E5.11763
G1 X157.165 Y186.286 E5.14882
G1 X156.423 Y186.86 E5.18002
G1 X155.636 Y187.369 E5.21119
G1 X154.808 Y187.81 E5.24239
G1 X153.945 Y188.178 E5.2736
G1 X153.054 Y188.471 E5.30479
G1 X152.141 Y188.687 E5.336
G1 X151.214 Y188.825 E5.36717
G1 X150.278 Y188.883 E5.39836
G1 X149.599 Y188.876 E5.42095
G1 X148.663 Y188.808 E5.45216
G1 X147.737 Y188.66 E5.48335
G1 X146.827 Y188.434 E5.51453
G1 X145.939 Y188.131 E5.54574
G1 X145.081 Y187.754 E5.57691
G1 X144.258 Y187.304 E5.60811
G1 X143.475 Y186.787 E5.63932
G1 X142.74 Y186.204 E5.67052
G1 X142.057 Y185.562 E5.7017
G1 X141.432 Y184.863 E5.73288
G1 X140.918 Y184.185 E5.76118
G1 X139.389 Y181.999 E5.84991
G1 X137.89 Y179.98 E5.93355
G1 X136.323 Y177.99 E6.01779
G1 X134.712 Y176.058 E6.10146
G1 X133.04 Y174.166 E6.18544
G1 X131.327 Y172.332 E6.26891
G1 X129.567 Y170.552 E6.35216
G1 X127.739 Y168.807 E6.43622
G1 X125.867 Y167.117 E6.5201
G1 X123.962 Y165.493 E6.60336
G1 X121.988 Y163.904 E6.68764
G1 X119.981 Y162.382 E6.77142
G1 X117.952 Y160.929 E6.85442
G1 X115.831 Y159.501 E6.93947
G1 X113.682 Y158.14 E7.02407
G1 X112.501 Y157.426 E7.06997
G1 X111.719 Y156.907 E7.10119
G1 X110.985 Y156.324 E7.13237
G1 X110.303 Y155.68 E7.16356
G1 X109.679 Y154.98 E7.19475
G1 X109.116 Y154.23 E7.22594
G1 X108.619 Y153.434 E7.25716
G1 X108.192 Y152.599 E7.28835
G1 X107.811 Y151.655 E7.32221
G1 X107.692 Y151.316 E7.33416
G1 X107.419 Y150.419 E7.36534
G1 X107.172 Y149.162 E7.40795
G1 X107.097 Y148.613 E7.42638
G1 X107.01 Y147.679 E7.45758
G1 X106.997 Y147.005 E7.48
G1 X107.011 Y145.862 E7.51802
G1 X107.029 Y145.282 E7.53732
G1 X107.098 Y144.346 E7.56854
G1 X107.247 Y143.42 E7.59973
G1 X107.474 Y142.51 E7.63093
G1 X107.678 Y141.887 E7.65273
G1 X107.808 Y141.527 E7.66546
G1 X108.164 Y140.659 E7.69666
G1 X108.592 Y139.825 E7.72784
G1 X109.09 Y139.03 E7.75904
G1 X109.916 Y137.974 E7.80363
G1 X110.985 Y136.776 E7.85704
G1 X112.632 Y134.866 E7.94092
G1 X114.743 Y132.251 E8.0527
G1 X114.985 Y131.94 E8.06581
G1 X115.592 Y131.226 E8.09697
G1 X116.48 Y130.368 E8.13804
G0 F6000 X116.741 Y130.671
G1 F1200 X117.546 Y129.976 E8.17342
G1 X119.422 Y128.313 E8.2568
G1 X120.068 Y127.725 E8.28585
G1 X120.623 Y127.253 E8.31008
G1 X122.529 Y125.744 E8.39094
G1 X124.472 Y124.12 E8.47517
G1 X126.342 Y122.466 E8.5582
G1 X128.219 Y120.708 E8.64374
G1 X129.979 Y118.963 E8.72617
G1 X132.284 Y116.529 E8.83766
G1 X132.945 Y115.889 E8.86827
G1 X133.546 Y115.394 E8.89416
G1 X133.817 Y115.187 E8.90551
G1 X134.572 Y114.661 E8.93611
G1 X135.37 Y114.202 E8.96673
G1 X136.205 Y113.814 E8.99735
G1 X137.074 Y113.498 E9.02811
G1 X137.892 Y113.241 E9.05663
G1 X138.665 Y113.012 E9.08344
G1 X140.914 Y112.323 E9.16167
G1 X142.368 Y111.898 E9.21206
G1 X143.262 Y111.678 E9.24268
G1 X144.172 Y111.537 E9.27331
G1 X145.09 Y111.476 E9.30391
G1 X145.605 Y111.476 E9.32104
G1 X146.161 Y111.49 E9.33953
G1 X147.93 Y111.558 E9.39842
G1 X150.445 Y111.583 E9.48207
G1 X152.998 Y111.537 E9.567
G1 X154.276 Y111.49 E9.60953
G1 X155.196 Y111.496 E9.64013
G1 X156.113 Y111.582 E9.67076
G1 X157.407 Y111.843 E9.71467
G1 X158.096 Y112.032 E9.73843
G1 X162.129 Y113.234 E9.8784
G1 X163.025 Y113.526 E9.90974
G1 X163.885 Y113.855 E9.94037
G1 X164.713 Y114.256 E9.97097
G1 X165.802 Y114.932 E10.0136
G1 X166.134 Y115.167 E10.02713
G1 X166.862 Y115.731 E10.05776
G1 X167.714 Y116.538 E10.09679
G1 X169.824 Y118.771 E10.19897
G1 X171.58 Y120.52 E10.2814
G1 X173.436 Y122.268 E10.3662
G1 X175.321 Y123.945 E10.45012
G1 X177.262 Y125.576 E10.53444
G1 X179.371 Y127.249 E10.62398
G1 X179.939 Y127.733 E10.6488
G1 X180.344 Y128.104 E10.66707
G1 X182.294 Y129.839 E10.75388
G1 X182.913 Y130.364 E10.78088
G1 X183.318 Y130.719 E10.79879
G1 X183.983 Y131.355 E10.82939
G1 X184.649 Y132.12 E10.86313
G1 X186.177 Y134.055 E10.94513
G1 X187.768 Y135.962 E11.02774
G1 X189.773 Y138.223 E11.12825
G1 X190.353 Y138.938 E11.15887
G1 X190.87 Y139.7 E11.18949
G1 X191.318 Y140.505 E11.22014
G1 X191.694 Y141.345 E11.25075
G1 X191.864 Y141.804 E11.26703
G1 X191.999 Y142.196 E11.28082
G1 X192.261 Y143.079 E11.31145
G1 X192.445 Y143.981 E11.34207
G1 X192.55 Y144.896 E11.3727
G1 X192.575 Y145.439 E11.39078
G1 X192.604 Y146.909 E11.43968
G1 X192.582 Y147.829 E11.47029
G1 X192.533 Y148.361 E11.48806
G1 X192.48 Y148.81 E11.5031
G1 X192.332 Y149.718 E11.5337
G1 X192.077 Y150.707 E11.56767
G1 X191.943 Y151.139 E11.58271
G1 X191.632 Y152.006 E11.61334
G1 X191.248 Y152.842 E11.64394
G1 X190.792 Y153.642 E11.67457
G1 X190.268 Y154.4 E11.70522
G1 X189.681 Y155.109 E11.73583
G1 X189.035 Y155.764 E11.76643
G1 X188.334 Y156.361 E11.79706
G1 X187.316 Y157.062 E11.83817
G1 X186.547 Y157.528 E11.86807
G1 X184.302 Y158.934 E11.95618
G1 X182.218 Y160.323 E12.03948
G1 X180.151 Y161.785 E12.12368
G1 X178.138 Y163.298 E12.20744
G1 X176.129 Y164.898 E12.29286
G1 X174.212 Y166.515 E12.37627
G1 X172.338 Y168.189 E12.45985
G1 X170.493 Y169.933 E12.54429
G1 X168.705 Y171.724 E12.62846
G1 X166.953 Y173.578 E12.71331
G1 X165.303 Y175.426 E12.79571
G1 X163.638 Y177.402 E12.88165
G1 X162.099 Y179.336 E12.96385
G1 X160.561 Y181.387 E13.04912
G1 X158.733 Y183.985 E13.15478
G1 X158.171 Y184.714 E13.18539
G1 X157.547 Y185.392 E13.21604
G1 X156.868 Y186.013 E13.24664
G1 X156.137 Y186.573 E13.27727
G1 X155.36 Y187.067 E13.30789
G1 X154.543 Y187.492 E13.33852
G1 X153.693 Y187.844 E13.36912
G1 X152.815 Y188.122 E13.39976
G1 X151.916 Y188.322 E13.43039
G1 X151.004 Y188.443 E13.46099
G1 X149.687 Y188.482 E13.50481
G1 X148.693 Y188.408 E13.53796
G1 X147.784 Y188.261 E13.56859
G1 X146.891 Y188.036 E13.59922
G1 X146.022 Y187.733 E13.62983
G1 X145.182 Y187.357 E13.66044
G1 X144.377 Y186.909 E13.69108
G1 X143.615 Y186.393 E13.72169
G1 X142.9 Y185.813 E13.75231
G1 X142.238 Y185.173 E13.78293
G1 X141.635 Y184.477 E13.81356
G1 X141.246 Y183.956 E13.83519
G1 X139.722 Y181.777 E13.92363
G1 X138.193 Y179.718 E14.00893
G1 X136.629 Y177.732 E14.09301
G1 X135.021 Y175.803 E14.17653
G1 X133.349 Y173.912 E14.26049
G1 X131.62 Y172.06 E14.34476
G1 X129.844 Y170.264 E14.42877
G1 X128 Y168.503 E14.51357
G1 X126.148 Y166.832 E14.59654
G1 X124.188 Y165.161 E14.6822
G1 X122.235 Y163.589 E14.76559
G1 X120.234 Y162.07 E14.84915
G1 X118.163 Y160.588 E14.93385
G1 X116.063 Y159.174 E15.01805
G1 X113.925 Y157.82 E15.10222
G1 X112.707 Y157.084 E15.14956
G1 X111.941 Y156.574 E15.18016
G1 X111.222 Y155.999 E15.21078
G1 X110.555 Y155.365 E15.24139
G1 X109.945 Y154.674 E15.27205
G1 X109.398 Y153.934 E15.30265
G1 X108.918 Y153.149 E15.33326
G1 X108.507 Y152.325 E15.36388
G1 X108.188 Y151.523 E15.39259
G1 X108.069 Y151.184 E15.40454
G1 X107.802 Y150.303 E15.43516
G1 X107.569 Y149.108 E15.47565
G1 X107.494 Y148.559 E15.49408
G1 X107.409 Y147.642 E15.52471
G1 X107.397 Y147.009 E15.54577
G1 X107.411 Y145.874 E15.58352
G1 X107.429 Y145.294 E15.60282
G1 X107.498 Y144.376 E15.63344
G1 X107.645 Y143.467 E15.66407
G1 X107.872 Y142.575 E15.69468
G1 X108.054 Y142.023 E15.71401
G1 X108.184 Y141.663 E15.72675
G1 X108.534 Y140.811 E15.75738
G1 X108.957 Y139.993 E15.78801
G1 X109.449 Y139.215 E15.81863
G1 X110.216 Y138.239 E15.85991
G1 X111.284 Y137.041 E15.91329
G1 X112.934 Y135.128 E15.99732
G1 X115.057 Y132.498 E16.10973
G1 X115.3 Y132.186 E16.12289
G1 X115.897 Y131.485 E16.15351
G1 X116.741 Y130.671 E16.19251
G0 F6000 X117.002 Y130.974
G1 F1200 X117.794 Y130.291 E16.2273
G1 X119.723 Y128.58 E16.31306
G1 X120.338 Y128.02 E16.34072
G1 X120.872 Y127.567 E16.36401
G1 X122.752 Y126.078 E16.44378
G1 X124.727 Y124.428 E16.52938
G1 X126.634 Y122.741 E16.61406
G1 X128.474 Y121.018 E16.6979
G1 X130.268 Y119.239 E16.78193
G1 X132.574 Y116.804 E16.89347
G1 X133.223 Y116.177 E16.92349
G1 X133.788 Y115.712 E16.94783
G1 X134.059 Y115.505 E16.95917
G1 X134.801 Y114.989 E16.98923
G1 X135.585 Y114.541 E17.01926
G1 X136.405 Y114.164 E17.04928
G1 X137.194 Y113.88 E17.07717
G1 X138.012 Y113.623 E17.10569
G1 X138.72 Y113.413 E17.13025
G1 X141.031 Y112.705 E17.21064
G1 X142.48 Y112.282 E17.26085
G1 X143.357 Y112.067 E17.29088
G1 X144.25 Y111.931 E17.32092
G1 X145.595 Y111.876 E17.36569
G1 X146.151 Y111.89 E17.38419
G1 X147.911 Y111.957 E17.44277
G1 X150.448 Y111.983 E17.52716
G1 X153.019 Y111.937 E17.61268
G1 X154.29 Y111.89 E17.65499
G1 X155.194 Y111.897 E17.68506
G1 X156.093 Y111.983 E17.71509
G1 X157.304 Y112.229 E17.75619
G1 X157.981 Y112.415 E17.77954
G1 X162.014 Y113.617 E17.91951
G1 X162.898 Y113.906 E17.95045
G1 X163.742 Y114.229 E17.9805
G1 X164.554 Y114.625 E18.01055
G1 X165.571 Y115.259 E18.05041
G1 X165.903 Y115.494 E18.06394
G1 X166.616 Y116.047 E18.09395
G1 X167.423 Y116.813 E18.13096
G1 X169.517 Y119.029 E18.23236
G1 X171.306 Y120.812 E18.31637
G1 X173.178 Y122.575 E18.4019
G1 X175.061 Y124.249 E18.4857
G1 X177.006 Y125.884 E18.57021
G1 X179.123 Y127.563 E18.66008
G1 X179.669 Y128.028 E18.68393
G1 X180.092 Y128.415 E18.703
G1 X182.011 Y130.122 E18.78842
G1 X182.512 Y130.546 E18.81025
G1 X183.054 Y131.02 E18.8342
G1 X183.707 Y131.644 E18.86424
G1 X184.335 Y132.368 E18.89612
G1 X185.857 Y134.295 E18.97779
G1 X187.479 Y136.239 E19.062
G1 X189.474 Y138.489 E19.16202
G1 X190.042 Y139.19 E19.19203
G1 X190.547 Y139.939 E19.22207
G1 X190.983 Y140.73 E19.25211
G1 X191.486 Y141.935 E19.29554
G1 X191.621 Y142.327 E19.30933
G1 X191.877 Y143.193 E19.33937
G1 X192.055 Y144.078 E19.36939
G1 X192.155 Y144.976 E19.39944
G1 X192.175 Y145.447 E19.41512
G1 X192.204 Y146.917 E19.46402
G1 X192.182 Y147.82 E19.49407
G1 X192.136 Y148.314 E19.51057
G1 X192.083 Y148.763 E19.52561
G1 X191.937 Y149.654 E19.55564
G1 X191.695 Y150.589 E19.58776
G1 X191.561 Y151.021 E19.6028
G1 X191.256 Y151.871 E19.63284
G1 X190.876 Y152.69 E19.66287
G1 X190.426 Y153.473 E19.69291
G1 X189.908 Y154.213 E19.72295
G1 X189.326 Y154.904 E19.753
G1 X188.686 Y155.541 E19.78303
G1 X187.992 Y156.119 E19.81307
G1 X187.109 Y156.72 E19.8486
G1 X186.302 Y157.209 E19.87998
G1 X184.106 Y158.584 E19.96616
G1 X181.995 Y159.991 E20.05053
G1 X179.902 Y161.472 E20.13581
G1 X177.876 Y162.994 E20.22009
G1 X175.884 Y164.58 E20.30478
G1 X173.953 Y166.209 E20.38881
G1 X172.06 Y167.901 E20.47326
G1 X170.218 Y169.642 E20.55756
G1 X168.413 Y171.45 E20.64253
G1 X166.68 Y173.284 E20.72645
G1 X164.983 Y175.186 E20.81123
G1 X163.335 Y177.141 E20.89628
G1 X161.782 Y179.093 E20.97924
G1 X160.242 Y181.146 E21.0646
G1 X158.406 Y183.755 E21.17071
G1 X157.854 Y184.47 E21.20075
G1 X157.241 Y185.133 E21.23078
G1 X156.571 Y185.74 E21.26085
G1 X155.851 Y186.284 E21.29087
G1 X155.086 Y186.763 E21.32089
G1 X154.281 Y187.173 E21.35094
G1 X153.442 Y187.509 E21.381
G1 X152.578 Y187.77 E21.41101
G1 X151.694 Y187.954 E21.44105
G1 X150.797 Y188.059 E21.47109
G1 X149.693 Y188.081 E21.50781
G1 X148.722 Y188.009 E21.5402
G1 X147.831 Y187.862 E21.57023
G1 X146.957 Y187.637 E21.60025
G1 X146.105 Y187.336 E21.6303
G1 X145.284 Y186.96 E21.66034
G1 X144.499 Y186.514 E21.69037
G1 X143.757 Y185.999 E21.72041
G1 X143.063 Y185.421 E21.75045
G1 X142.423 Y184.784 E21.78048
G1 X141.842 Y184.093 E21.81051
G1 X141.573 Y183.727 E21.82561
G1 X140.026 Y181.515 E21.91539
G1 X138.513 Y179.477 E21.99981
G1 X136.949 Y177.491 E22.08389
G1 X135.312 Y175.528 E22.16891
G1 X133.641 Y173.637 E22.25284
G1 X131.915 Y171.789 E22.33694
G1 X130.122 Y169.976 E22.42175
G1 X128.28 Y168.218 E22.50644
G1 X126.393 Y166.514 E22.591
G1 X124.453 Y164.86 E22.6758
G1 X122.504 Y163.291 E22.75902
G1 X120.463 Y161.742 E22.84424
G1 X118.39 Y160.259 E22.92901
G1 X116.279 Y158.837 E23.01367
G1 X114.147 Y157.487 E23.0976
G1 X112.914 Y156.742 E23.14551
G1 X112.163 Y156.241 E23.17554
G1 X111.459 Y155.675 E23.20558
G1 X110.807 Y155.05 E23.23562
G1 X110.214 Y154.369 E23.26566
G1 X109.682 Y153.639 E23.2957
G1 X109.218 Y152.864 E23.32574
G1 X108.824 Y152.052 E23.35576
G1 X108.566 Y151.39 E23.37939
