;FLAVOR:Marlin
;TIME:14470
;Filament used: 10.8207m
;Layer height: 0.2
;MINX:105.542
;MINY:95.699
;MINZ:0.2
;MAXX:194.459
;MAXY:204.3
;MAXZ:50
;Generated with Cura_SteamEngine 5.2.1
M140 S60
M105
M190 S60
M104 S215
M105
M109 S215
M82 ;absolute extrusion mode
; Ender 3 Max Custom Start G-code
G92 E0 ; Reset Extruder
G28 ; Home all axes
G1 Z2.0 F3000 ; Move Z Axis up little to prevent scratching of Heat Bed
G1 X0.1 Y20 Z0.3 F5000.0 ; Move to start position
G1 X0.1 Y200.0 Z0.3 F1500.0 E15 ; Draw the first line
G1 X0.4 Y200.0 Z0.3 F5000.0 ; Move to side a little
G1 X0.4 Y20 Z0.3 F1500.0 E30 ; Draw the second line
G92 E0 ; Reset Extruder
G1 Z2.0 F3000 ; Move Z Axis up little to prevent scratching of Heat Bed
G1 X5 Y20 Z0.3 F5000.0 ; Move over to prevent blob squish
G92 E0
G92 E0
G1 F1500 E-6.5
;LAYER_COUNT:250
;LAYER:0
M107
G0 F6000 X110.461 Y99.613 Z0.2
;TYPE:SKIRT
G1 F1500 E0
G1 F1200 X111.096 Y98.924 E0.03116
G1 X111.788 Y98.291 E0.06236
G1 X112.531 Y97.719 E0.09354
G1 X113.321 Y97.212 E0.12477
G1 X114.15 Y96.775 E0.15593
G1 X115.014 Y96.41 E0.18713
G1 X115.906 Y96.119 E0.21834
G1 X116.819 Y95.906 E0.24952
G1 X117.747 Y95.772 E0.2807
G1 X118.662 Y95.717 E0.31119
G1 X119.744 Y95.699 E0.34719
G1 X180.986 Y95.7 E2.3841
G1 X181.687 Y95.71 E2.40742
G1 X182.623 Y95.763 E2.4386
G1 X183.552 Y95.896 E2.46982
G1 X184.465 Y96.108 E2.50099
G1 X185.358 Y96.396 E2.5322
G1 X186.222 Y96.76 E2.56338
G1 X187.053 Y97.196 E2.59459
G1 X187.843 Y97.701 E2.62578
G1 X188.587 Y98.271 E2.65695
G1 X189.28 Y98.903 E2.68815
G1 X189.917 Y99.592 E2.71936
G1 X190.493 Y100.332 E2.75054
G1 X190.977 Y101.075 E2.78004
G1 X191.416 Y101.812 E2.80857
G1 X192.721 Y104.072 E2.89537
G1 X193.056 Y104.67 E2.91817
G1 X193.479 Y105.507 E2.94936
G1 X193.829 Y106.377 E2.98055
G1 X194.104 Y107.274 E3.01175
G1 X194.301 Y108.19 E3.04292
G1 X194.42 Y109.121 E3.07413
G1 X194.459 Y110.058 E3.10533
G1 X194.418 Y110.995 E3.13652
G1 X194.297 Y111.925 E3.16771
G1 X194.085 Y112.888 E3.20051
G1 X191.899 Y121.056 E3.48174
G1 X191.718 Y121.694 E3.5038
G1 X191.424 Y122.585 E3.535
G1 X191.125 Y123.298 E3.56072
G1 X189.936 Y125.877 E3.65517
G1 X188.954 Y128.182 E3.73851
G1 X188.021 Y130.554 E3.82328
G1 X187.168 Y132.917 E3.90684
G1 X186.387 Y135.288 E3.98987
G1 X185.663 Y137.715 E4.07411
G1 X185.027 Y140.089 E4.15585
G1 X184.432 Y142.588 E4.24129
G1 X183.918 Y145.071 E4.32563
G1 X183.476 Y147.54 E4.40905
G1 X183.109 Y149.993 E4.49155
G1 X182.801 Y152.546 E4.57707
G1 X182.575 Y154.998 E4.65897
G1 X182.412 Y157.55 E4.74403
G1 X182.325 Y160.017 E4.82613
G1 X182.318 Y163.606 E4.9455
G1 X182.355 Y165.8 E5.01848
G1 X182.358 Y166.657 E5.04699
G1 X182.436 Y169.189 E5.13124
G1 X182.585 Y171.705 E5.21507
G1 X182.806 Y174.219 E5.29901
G1 X183.094 Y176.698 E5.38202
G1 X183.456 Y179.193 E5.46587
G1 X183.89 Y181.688 E5.5501
G1 X184.384 Y184.12 E5.63264
G1 X184.953 Y186.557 E5.71588
G1 X185.997 Y190.417 E5.84887
G1 X186.203 Y191.332 E5.88007
G1 X186.331 Y192.261 E5.91126
G1 X186.379 Y193.198 E5.94246
G1 X186.346 Y194.135 E5.97365
G1 X186.235 Y195.066 E6.00483
G1 X186.044 Y195.985 E6.03605
G1 X185.776 Y196.883 E6.06722
G1 X185.432 Y197.756 E6.09843
G1 X185.015 Y198.596 E6.12962
G1 X184.528 Y199.397 E6.1608
G1 X183.974 Y200.155 E6.19203
G1 X183.358 Y200.862 E6.22322
G1 X182.684 Y201.514 E6.25441
G1 X181.957 Y202.106 E6.28559
G1 X181.182 Y202.635 E6.3168
G1 X180.365 Y203.095 E6.34798
G1 X179.512 Y203.484 E6.37916
G1 X178.628 Y203.799 E6.41038
G1 X177.721 Y204.038 E6.44157
G1 X176.797 Y204.198 E6.47276
G1 X175.544 Y204.289 E6.51455
G1 X174.811 Y204.3 E6.53893
G1 X162.087 Y204.3 E6.96213
G1 X161.384 Y204.29 E6.98552
G1 X160.447 Y204.237 E7.01673
G1 X159.519 Y204.104 E7.04791
G1 X158.605 Y203.892 E7.07912
G1 X157.713 Y203.604 E7.11029
G1 X156.848 Y203.24 E7.14151
G1 X156.018 Y202.804 E7.17269
G1 X155.227 Y202.299 E7.2039
G1 X154.515 Y201.756 E7.23369
G1 X153.792 Y201.156 E7.26494
G1 X153.124 Y200.586 E7.29414
G1 X151.144 Y198.987 E7.37879
G1 X149.173 Y197.486 E7.46119
G1 X147.099 Y195.997 E7.54611
G1 X145.032 Y194.601 E7.62907
G1 X142.905 Y193.249 E7.7129
G1 X140.742 Y191.959 E7.79666
G1 X138.421 Y190.663 E7.88508
G1 X137.946 Y190.407 E7.90302
G1 X136.845 Y189.727 E7.94606
G1 X135.945 Y189.094 E7.98266
G1 X134.805 Y188.264 E8.02956
G1 X134.126 Y187.754 E8.05781
G1 X133.401 Y187.159 E8.089
G1 X132.729 Y186.505 E8.12019
G1 X132.116 Y185.795 E8.15139
G1 X131.565 Y185.036 E8.18258
G1 X130.949 Y183.983 E8.22316
G1 X130.156 Y182.417 E8.28154
G1 X128.962 Y180.171 E8.36614
G1 X127.711 Y177.971 E8.45032
G1 X126.416 Y175.836 E8.53337
G1 X124.865 Y173.442 E8.62825
G1 X124.389 Y172.634 E8.65944
G1 X123.983 Y171.788 E8.69065
G1 X123.69 Y171.026 E8.7178
G1 X123.365 Y170.074 E8.75126
G1 X122.883 Y168.588 E8.80322
G1 X122.67 Y167.901 E8.82714
G1 X122.431 Y166.994 E8.85834
G1 X122.27 Y166.07 E8.88953
G1 X122.208 Y165.466 E8.90973
G1 X122.161 Y164.835 E8.93077
G1 X121.93 Y162.236 E9.01756
G1 X121.634 Y159.714 E9.10201
G1 X121.274 Y157.249 E9.18487
G1 X120.835 Y154.753 E9.26916
G1 X120.346 Y152.351 E9.35069
G1 X119.752 Y149.818 E9.43722
G1 X119.123 Y147.437 E9.51913
G1 X118.402 Y144.989 E9.60401
G1 X117.623 Y142.598 E9.68765
G1 X116.783 Y140.249 E9.77063
G1 X115.871 Y137.904 E9.85431
G1 X114.88 Y135.558 E9.93902
G1 X113.841 Y133.282 E10.02223
G1 X112.742 Y131.044 E10.10516
G1 X111.542 Y128.764 E10.19085
G1 X110.451 Y126.818 E10.26505
G1 X107.339 Y121.428 E10.47206
G1 X106.944 Y120.724 E10.49891
G1 X106.521 Y119.887 E10.5301
G1 X106.171 Y119.017 E10.56129
G1 X105.896 Y118.12 E10.5925
G1 X105.699 Y117.203 E10.62369
G1 X105.581 Y116.273 E10.65487
G1 X105.542 Y115.336 E10.68606
G1 X105.583 Y114.399 E10.71726
G1 X105.704 Y113.469 E10.74845
G1 X105.915 Y112.51 E10.78111
G1 X108.084 Y104.4 E11.06033
G1 X108.275 Y103.724 E11.0837
G1 X108.569 Y102.833 E11.1149
G1 X108.937 Y101.971 E11.14608
G1 X109.377 Y101.142 E11.17729
G1 X109.886 Y100.355 E11.20846
G1 X110.461 Y99.613 E11.23969
G0 F6000 X110.821 Y99.807
G1 F1200 X111.451 Y99.136 E11.2703
G1 X112.136 Y98.521 E11.30092
G1 X112.872 Y97.969 E11.33152
G1 X113.654 Y97.482 E11.36216
G1 X114.475 Y97.065 E11.39278
G1 X115.329 Y96.721 E11.42341
G1 X116.209 Y96.452 E11.45401
G1 X117.11 Y96.261 E11.48465
G1 X118.024 Y96.148 E11.51528
G1 X118.669 Y96.117 E11.53675
G1 X119.744 Y96.099 E11.57251
G1 X180.98 Y96.1 E13.60923
G1 X181.681 Y96.11 E13.63255
G1 X182.6 Y96.163 E13.66317
G1 X183.511 Y96.296 E13.69379
G1 X184.407 Y96.507 E13.7244
G1 X185.282 Y96.795 E13.75504
G1 X186.128 Y97.158 E13.78566
G1 X186.939 Y97.593 E13.81627
G1 X187.71 Y98.097 E13.84691
G1 X188.434 Y98.666 E13.87753
G1 X189.106 Y99.295 E13.90815
G1 X189.721 Y99.98 E13.93877
G1 X190.274 Y100.716 E13.96939
G1 X190.634 Y101.28 E13.99164
G1 X191.07 Y102.012 E14.01998
G1 X192.372 Y104.267 E14.10658
G1 X192.707 Y104.865 E14.12938
G1 X193.121 Y105.687 E14.15999
G1 X193.463 Y106.542 E14.19062
G1 X193.729 Y107.424 E14.22126
G1 X193.918 Y108.325 E14.25188
G1 X194.028 Y109.239 E14.2825
G1 X194.058 Y110.159 E14.31312
G1 X194.009 Y111.078 E14.34372
G1 X193.879 Y111.99 E14.37436
G1 X193.699 Y112.785 E14.40148
G1 X191.515 Y120.947 E14.6825
G1 X191.334 Y121.585 E14.70455
G1 X191.044 Y122.459 E14.73518
G1 X190.762 Y123.131 E14.75942
G1 X189.563 Y125.731 E14.85465
G1 X188.577 Y128.045 E14.93831
G1 X187.656 Y130.389 E15.02207
G1 X186.787 Y132.793 E15.10709
G1 X186.01 Y135.154 E15.18976
G1 X185.277 Y137.612 E15.27507
G1 X184.633 Y140.016 E15.35785
G1 X184.038 Y142.52 E15.44345
G1 X183.526 Y144.991 E15.52738
G1 X183.086 Y147.448 E15.61041
G1 X182.711 Y149.958 E15.69481
G1 X182.405 Y152.494 E15.77977
G1 X182.176 Y154.972 E15.86254
G1 X182.012 Y157.547 E15.94836
G1 X181.925 Y160.003 E16.0301
G1 X181.918 Y163.612 E16.15014
G1 X181.955 Y165.801 E16.22295
G1 X181.958 Y166.67 E16.25186
G1 X182.036 Y169.191 E16.33575
G1 X182.188 Y171.763 E16.42144
G1 X182.404 Y174.229 E16.50377
G1 X182.699 Y176.765 E16.58869
G1 X183.06 Y179.253 E16.67231
G1 X183.496 Y181.758 E16.75688
G1 X183.991 Y184.192 E16.83949
G1 X184.567 Y186.662 E16.92385
G1 X185.611 Y190.521 E17.05681
G1 X185.813 Y191.42 E17.08746
G1 X185.936 Y192.332 E17.11807
G1 X185.979 Y193.252 E17.1487
G1 X185.942 Y194.172 E17.17932
G1 X185.826 Y195.085 E17.20993
G1 X185.631 Y195.985 E17.24056
G1 X185.358 Y196.864 E17.27117
G1 X185.01 Y197.717 E17.30182
G1 X184.59 Y198.536 E17.33243
G1 X184.1 Y199.315 E17.36304
G1 X183.544 Y200.049 E17.39366
G1 X182.927 Y200.732 E17.42428
G1 X182.253 Y201.359 E17.45489
G1 X181.527 Y201.925 E17.48551
G1 X180.754 Y202.426 E17.51615
G1 X179.941 Y202.858 E17.54677
G1 X179.094 Y203.218 E17.57738
G1 X178.218 Y203.503 E17.60802
G1 X177.321 Y203.71 E17.63864
G1 X176.41 Y203.84 E17.66925
G1 X175.538 Y203.889 E17.69829
G1 X174.805 Y203.9 E17.72268
G1 X162.092 Y203.9 E18.14551
G1 X161.389 Y203.89 E18.1689
G1 X160.47 Y203.837 E18.19951
G1 X159.559 Y203.704 E18.23014
G1 X158.663 Y203.493 E18.26075
G1 X157.789 Y203.205 E18.29136
G1 X156.942 Y202.842 E18.32201
G1 X156.131 Y202.407 E18.35262
G1 X155.36 Y201.903 E18.38325
G1 X154.771 Y201.448 E18.40801
G1 X153.928 Y200.747 E18.44447
G1 X153.39 Y200.287 E18.46802
G1 X151.391 Y198.673 E18.55347
G1 X149.386 Y197.146 E18.6373
G1 X147.327 Y195.667 E18.72161
G1 X145.265 Y194.275 E18.80436
G1 X143.103 Y192.901 E18.88956
G1 X140.962 Y191.624 E18.97248
G1 X138.601 Y190.305 E19.06243
G1 X138.136 Y190.055 E19.07999
G1 X137.075 Y189.4 E19.12146
G1 X136.33 Y188.877 E19.15173
G1 X134.91 Y187.844 E19.21014
G1 X134.366 Y187.435 E19.23278
G1 X133.655 Y186.85 E19.2634
G1 X132.997 Y186.206 E19.29402
G1 X132.398 Y185.507 E19.32464
G1 X131.861 Y184.759 E19.35527
G1 X131.305 Y183.801 E19.39211
G1 X130.79 Y182.795 E19.4297
G1 X130.495 Y182.201 E19.45175
G1 X129.321 Y179.991 E19.53499
G1 X128.058 Y177.772 E19.61991
G1 X126.766 Y175.64 E19.70282
G1 X125.2 Y173.224 E19.79858
G1 X124.734 Y172.431 E19.82918
G1 X124.338 Y171.6 E19.85979
G1 X124.068 Y170.896 E19.88487
G1 X123.799 Y170.111 E19.91247
G1 X123.265 Y168.469 E19.9699
G1 X123.052 Y167.782 E19.99382
G1 X122.818 Y166.892 E20.02443
G1 X122.662 Y165.984 E20.05507
G1 X122.607 Y165.436 E20.07339
G1 X122.564 Y164.86 E20.0926
G1 X122.327 Y162.191 E20.18172
G1 X122.032 Y159.677 E20.26591
G1 X121.664 Y157.159 E20.35055
G1 X121.235 Y154.718 E20.43298
G1 X120.723 Y152.205 E20.51828
G1 X120.153 Y149.771 E20.60143
G1 X119.498 Y147.294 E20.68665
G1 X118.789 Y144.889 E20.77004
G1 X118.003 Y142.476 E20.85445
G1 X117.145 Y140.074 E20.93928
G1 X116.253 Y137.781 E21.02111
G1 X115.253 Y135.415 E21.10655
G1 X114.192 Y133.09 E21.19155
G1 X113.097 Y130.861 E21.27415
G1 X111.902 Y128.589 E21.35953
G1 X110.788 Y126.603 E21.43527
G1 X107.685 Y121.228 E21.64169
G1 X107.293 Y120.529 E21.66835
G1 X106.878 Y119.707 E21.69897
G1 X106.537 Y118.852 E21.72959
G1 X106.271 Y117.97 E21.76023
G1 X106.082 Y117.069 E21.79085
G1 X105.973 Y116.155 E21.82147
G1 X105.943 Y115.235 E21.85208
G1 X105.993 Y114.316 E21.88269
G1 X106.122 Y113.404 E21.91333
G1 X106.302 Y112.613 E21.94031
G1 X108.469 Y104.509 E22.21932
G1 X108.66 Y103.833 E22.24268
G1 X108.949 Y102.959 E22.2733
G1 X109.312 Y102.113 E22.30392
G1 X109.748 Y101.301 E22.33457
G1 X110.252 Y100.531 E22.36518
G1 X110.821 Y99.807 E22.39581
G0 F6000 X111.181 Y100.003
G1 F1200 X111.804 Y99.35 E22.42583
G1 X112.483 Y98.755 E22.45585
G1 X113.213 Y98.222 E22.48592
G1 X113.986 Y97.755 E22.51596
G1 X114.798 Y97.359 E22.546
G1 X115.641 Y97.037 E22.57602
G1 X116.51 Y96.79 E22.60606
G1 X117.397 Y96.621 E22.6361
G1 X118.676 Y96.517 E22.67878
G1 X119.744 Y96.499 E22.7143
G1 X180.974 Y96.5 E24.75082
G1 X181.675 Y96.51 E24.77414
G1 X182.577 Y96.563 E24.80419
G1 X183.47 Y96.695 E24.83422
G1 X184.349 Y96.906 E24.86428
G1 X185.205 Y97.194 E24.89432
G1 X186.032 Y97.556 E24.92435
G1 X186.824 Y97.99 E24.95439
G1 X187.574 Y98.493 E24.98442
G1 X188.277 Y99.06 E25.01446
G1 X188.927 Y99.686 E25.04448
G1 X189.52 Y100.368 E25.07453
G1 X190.049 Y101.1 E25.10457
G1 X190.29 Y101.485 E25.11968
G1 X190.724 Y102.213 E25.14787
G1 X192.023 Y104.463 E25.23428
G1 X192.358 Y105.061 E25.25708
G1 X192.764 Y105.868 E25.28713
G1 X193.097 Y106.707 E25.31715
G1 X193.355 Y107.573 E25.3472
G1 X193.535 Y108.458 E25.37724
G1 X193.636 Y109.355 E25.40726
G1 X193.657 Y110.258 E25.43731
G1 X193.598 Y111.159 E25.46734
G1 X193.46 Y112.052 E25.49739
G1 X193.313 Y112.682 E25.51891
G1 X191.171 Y120.69 E25.79462
G1 X190.949 Y121.476 E25.82178
G1 X190.664 Y122.333 E25.85182
G1 X190.399 Y122.963 E25.87455
G1 X189.196 Y125.572 E25.97011
G1 X188.213 Y127.878 E26.05349
G1 X187.266 Y130.287 E26.13958
G1 X186.417 Y132.637 E26.22268
G1 X185.619 Y135.062 E26.30759
G1 X184.909 Y137.442 E26.3902
G1 X184.233 Y139.967 E26.47714
G1 X183.658 Y142.385 E26.55981
G1 X183.127 Y144.945 E26.64676
G1 X182.69 Y147.385 E26.72921
G1 X182.311 Y149.922 E26.81453
G1 X182.011 Y152.41 E26.89788
G1 X181.774 Y154.981 E26.98375
G1 X181.615 Y157.471 E27.06674
G1 X181.525 Y160.018 E27.15151
G1 X181.518 Y163.565 E27.26948
G1 X181.554 Y165.658 E27.3391
G1 X181.558 Y166.685 E27.37326
G1 X181.637 Y169.227 E27.45785
G1 X181.786 Y171.751 E27.54194
G1 X182.007 Y174.274 E27.62618
G1 X182.305 Y176.837 E27.712
G1 X182.664 Y179.308 E27.79505
G1 X183.104 Y181.835 E27.88036
G1 X183.602 Y184.291 E27.96371
G1 X184.176 Y186.747 E28.0476
G1 X185.225 Y190.626 E28.18125
G1 X185.422 Y191.507 E28.21128
G1 X185.54 Y192.403 E28.24134
G1 X185.579 Y193.305 E28.27136
G1 X185.538 Y194.207 E28.3014
G1 X185.417 Y195.102 E28.33143
G1 X185.217 Y195.983 E28.36148
G1 X184.94 Y196.842 E28.3915
G1 X184.589 Y197.674 E28.42154
G1 X184.165 Y198.472 E28.45159
G1 X183.672 Y199.229 E28.48164
G1 X183.114 Y199.939 E28.51167
G1 X182.496 Y200.597 E28.5417
G1 X181.822 Y201.198 E28.57173
G1 X181.097 Y201.737 E28.60178
G1 X180.327 Y202.209 E28.63182
G1 X179.519 Y202.612 E28.66185
G1 X178.678 Y202.942 E28.6919
G1 X177.812 Y203.196 E28.72191
G1 X176.926 Y203.372 E28.75196
G1 X176.028 Y203.469 E28.782
G1 X175.532 Y203.489 E28.79851
G1 X174.799 Y203.5 E28.82289
G1 X162.098 Y203.5 E29.24533
G1 X161.395 Y203.49 E29.26871
G1 X160.493 Y203.437 E29.29877
G1 X159.6 Y203.305 E29.32879
G1 X158.722 Y203.094 E29.35882
G1 X157.866 Y202.806 E29.38886
G1 X157.039 Y202.444 E29.41889
G1 X156.247 Y202.01 E29.44893
G1 X155.496 Y201.508 E29.47897
G1 X155.026 Y201.14 E29.49883
G1 X154.303 Y200.54 E29.53007
G1 X153.618 Y199.955 E29.56004
G1 X151.678 Y198.39 E29.64294
G1 X149.615 Y196.819 E29.72918
G1 X147.578 Y195.355 E29.81262
G1 X145.465 Y193.928 E29.89742
G1 X143.317 Y192.563 E29.98207
G1 X141.13 Y191.259 E30.06676
G1 X138.859 Y189.991 E30.15327
G1 X138.325 Y189.703 E30.17345
G1 X137.304 Y189.072 E30.21337
G1 X136.416 Y188.447 E30.24949
G1 X135.15 Y187.524 E30.3016
G1 X134.606 Y187.115 E30.32423
G1 X133.909 Y186.541 E30.35426
G1 X133.266 Y185.907 E30.3843
G1 X132.681 Y185.219 E30.41433
G1 X132.159 Y184.482 E30.44437
G1 X131.661 Y183.618 E30.47754
G1 X130.856 Y182.03 E30.53676
G1 X129.67 Y179.797 E30.62085
G1 X128.398 Y177.561 E30.70641
G1 X127.101 Y175.422 E30.78961
G1 X125.536 Y173.007 E30.88533
G1 X125.079 Y172.228 E30.91537
G1 X124.693 Y171.412 E30.94539
G1 X124.447 Y170.767 E30.96835
G1 X124.126 Y169.827 E31.00139
G1 X123.689 Y168.482 E31.04843
G1 X123.435 Y167.664 E31.07691
G1 X123.206 Y166.79 E31.10696
G1 X123.055 Y165.9 E31.13699
G1 X123.006 Y165.406 E31.1535
G1 X122.959 Y164.783 E31.17428
G1 X122.725 Y162.141 E31.2625
G1 X122.431 Y159.644 E31.34612
G1 X122.06 Y157.104 E31.4315
G1 X121.628 Y154.64 E31.5147
G1 X121.118 Y152.139 E31.5996
G1 X120.535 Y149.65 E31.68462
G1 X119.883 Y147.184 E31.76946
G1 X119.168 Y144.758 E31.85358
G1 X118.385 Y142.354 E31.93767
G1 X117.523 Y139.942 E32.02286
G1 X116.618 Y137.617 E32.10585
