;FLAVOR:Marlin
;TIME:20548
;Filament used: 14.2103m
;Layer height: 0.2
;MINX:38.739
;MINY:57.238
;MINZ:0.32
;MAXX:256.93
;MAXY:243.141
;MAXZ:9.72
;Generated with Cura_SteamEngine 5.2.1
M140 S60
M105
M190 S60
M104 S200
M105
M109 S200
M82 ;absolute extrusion mode
; Ender 3 Max Custom Start G-code
G92 E0 ; Reset Extruder
G28 ; Home all axes
G1 Z2.0 F3000 ; Move Z Axis up little to prevent scratching of Heat Bed
G1 X0.1 Y20 Z0.3 F5000.0 ; Move to start position
G1 X0.1 Y200.0 Z0.3 F1500.0 E15 ; Draw the first line
G1 X0.4 Y200.0 Z0.3 F5000.0 ; Move to side a little
G1 X0.4 Y20 Z0.3 F1500.0 E30 ; Draw the second line
G92 E0 ; Reset Extruder
G1 Z2.0 F3000 ; Move Z Axis up little to prevent scratching of Heat Bed
G1 X5 Y20 Z0.3 F5000.0 ; Move over to prevent blob squish
G92 E0
G92 E0
G1 F1500 E-6.5
;LAYER_COUNT:48
;LAYER:0
M107
G0 F6000 X45.825 Y61.48 Z0.32
;TYPE:SKIRT
G1 F1500 E0
G1 F900 X46.598 Y60.931 E0.0555
G1 X47.888 Y60.042 E0.14721
G1 X48.577 Y59.581 E0.19574
G1 X49.366 Y59.102 E0.24977
G1 X50.194 Y58.693 E0.30383
G1 X51.054 Y58.357 E0.35788
G1 X51.713 Y58.156 E0.39821
G1 X53.461 Y57.683 E0.50421
G1 X54.361 Y57.481 E0.55821
G1 X55.276 Y57.357 E0.61226
G1 X56.058 Y57.315 E0.6581
G1 X60.212 Y57.238 E0.90131
G1 X61.871 Y57.242 E0.99842
G1 X62.841 Y57.258 E1.05521
G1 X65.24 Y57.254 E1.19565
G1 X66.773 Y57.264 E1.28539
G1 X73.777 Y57.255 E1.69539
G1 X79.082 Y57.273 E2.00593
G1 X83.374 Y57.254 E2.25718
G1 X84.297 Y57.264 E2.31121
G1 X85.82 Y57.255 E2.40037
G1 X86.046 Y57.264 E2.41361
G1 X89.125 Y57.257 E2.59384
G1 X91.374 Y57.266 E2.7255
G1 X94.354 Y57.256 E2.89994
G1 X95.055 Y57.263 E2.94098
G1 X97.308 Y57.264 E3.07286
G1 X98.699 Y57.249 E3.15429
G1 X103.14 Y57.249 E3.41426
G1 X103.332 Y57.257 E3.42551
G1 X107.258 Y57.265 E3.65533
G1 X109.816 Y57.246 E3.80507
G1 X114.597 Y57.253 E4.08494
G1 X116.142 Y57.24 E4.17539
G1 X121.209 Y57.292 E4.47201
G1 X123.528 Y57.347 E4.6078
G1 X124.449 Y57.409 E4.66184
G1 X125.776 Y57.641 E4.7407
G1 X127.558 Y58.071 E4.848
G1 X128.456 Y58.33 E4.90271
G1 X129.943 Y58.83 E4.99455
G1 X132.34 Y59.59 E5.14175
G1 X134.795 Y60.292 E5.29122
G1 X137.244 Y60.918 E5.43919
G1 X139.76 Y61.486 E5.59017
G1 X142.187 Y61.962 E5.73495
G1 X144.659 Y62.375 E5.88166
G1 X147.186 Y62.724 E6.03099
G1 X149.718 Y63.002 E6.1801
G1 X152.219 Y63.204 E6.32698
G1 X154.703 Y63.334 E6.47259
G1 X158.258 Y63.402 E6.68073
G1 X169.31 Y63.41 E7.32769
G1 X170.404 Y63.402 E7.39173
G1 X190.58 Y63.403 E8.57279
G1 X191.298 Y63.414 E8.61482
G1 X192.484 Y63.499 E8.68443
G1 X192.97 Y63.561 E8.71311
G1 X194.665 Y63.803 E8.81334
G1 X197.225 Y64.096 E8.96417
G1 X199.729 Y64.31 E9.11128
G1 X202.211 Y64.452 E9.25681
G1 X204.787 Y64.527 E9.40767
G1 X207.309 Y64.529 E9.5553
G1 X209.832 Y64.471 E9.70303
G1 X224.454 Y64.479 E10.55897
G1 X225.55 Y64.471 E10.62313
G1 X245.716 Y64.472 E11.80361
G1 X246.414 Y64.482 E11.84447
G1 X247.335 Y64.535 E11.89847
G1 X248.249 Y64.668 E11.95254
G1 X249.148 Y64.879 E12.0066
G1 X250.025 Y65.168 E12.06065
G1 X250.874 Y65.531 E12.1147
G1 X251.688 Y65.966 E12.16873
G1 X252.462 Y66.47 E12.22279
G1 X253.189 Y67.039 E12.27684
G1 X253.864 Y67.669 E12.33089
G1 X254.482 Y68.355 E12.38493
G1 X255.038 Y69.091 E12.43893
G1 X255.529 Y69.874 E12.49303
G1 X255.95 Y70.695 E12.54704
G1 X256.298 Y71.55 E12.60108
G1 X256.571 Y72.432 E12.65513
G1 X256.767 Y73.334 E12.70916
G1 X256.884 Y74.25 E12.76321
G1 X256.917 Y74.841 E12.79786
G1 X256.93 Y75.461 E12.83417
G1 X256.929 Y212.404 E20.85051
G1 X256.92 Y213.131 E20.89307
G1 X256.869 Y214.053 E20.94713
G1 X256.738 Y214.967 E21.00118
G1 X256.528 Y215.866 E21.05522
G1 X256.242 Y216.744 E21.10927
G1 X255.88 Y217.593 E21.1633
G1 X255.447 Y218.408 E21.21733
G1 X254.944 Y219.183 E21.27141
G1 X254.377 Y219.911 E21.32543
G1 X253.748 Y220.587 E21.37948
G1 X253.063 Y221.207 E21.43356
G1 X252.328 Y221.764 E21.48755
G1 X251.546 Y222.256 E21.54163
G1 X250.726 Y222.679 E21.59564
G1 X249.871 Y223.029 E21.64972
G1 X248.99 Y223.304 E21.70375
G1 X248.088 Y223.501 E21.75779
G1 X247.172 Y223.62 E21.81187
G1 X246.56 Y223.655 E21.84775
G1 X245.94 Y223.668 E21.88405
G1 X210.048 Y223.667 E23.98509
G1 X209.33 Y223.656 E24.02713
G1 X208.139 Y223.571 E24.09702
G1 X207.492 Y223.487 E24.13521
G1 X205.916 Y223.262 E24.2284
G1 X203.434 Y222.978 E24.37464
G1 X200.913 Y222.762 E24.52276
G1 X198.391 Y222.618 E24.67063
G1 X195.841 Y222.544 E24.81997
G1 X193.315 Y222.542 E24.96783
G1 X190.779 Y222.6 E25.11632
G1 X182.203 Y222.6 E25.61834
G1 X179.58 Y222.637 E25.7719
G1 X177.076 Y222.743 E25.91861
G1 X174.563 Y222.922 E26.06609
G1 X172.043 Y223.171 E26.21433
G1 X169.534 Y223.492 E26.36239
G1 X167.045 Y223.884 E26.50989
G1 X164.533 Y224.35 E26.65945
G1 X162.098 Y224.873 E26.80524
G1 X159.626 Y225.48 E26.95424
G1 X157.184 Y226.152 E27.1025
G1 X154.763 Y226.893 E27.25071
G1 X152.407 Y227.688 E27.39627
G1 X149.987 Y228.581 E27.54727
G1 X147.666 Y229.512 E27.69366
G1 X145.371 Y230.511 E27.84018
G1 X143.054 Y231.598 E27.98999
G1 X140.794 Y232.736 E28.13811
G1 X138.56 Y233.941 E28.2867
G1 X136.389 Y235.194 E28.43343
G1 X134.255 Y236.507 E28.5801
G1 X132.147 Y237.888 E28.72762
G1 X129.627 Y239.649 E28.90759
G1 X128.344 Y240.561 E28.99973
G1 X127.584 Y241.082 E29.05367
G1 X126.799 Y241.569 E29.10775
G1 X125.976 Y241.987 E29.16178
G1 X125.119 Y242.331 E29.21584
G1 X124.236 Y242.601 E29.26989
G1 X123.333 Y242.793 E29.32393
G1 X122.538 Y242.895 E29.37085
G1 X121.63 Y242.976 E29.42422
G1 X120.184 Y243.083 E29.50909
G1 X119.492 Y243.125 E29.54968
G1 X118.569 Y243.141 E29.60371
G1 X117.648 Y243.077 E29.65776
G1 X116.736 Y242.934 E29.7118
G1 X115.839 Y242.712 E29.76589
G1 X114.966 Y242.414 E29.81989
G1 X114.22 Y242.089 E29.86752
G1 X112.584 Y241.293 E29.97402
G1 X110.293 Y240.232 E30.12182
G1 X107.975 Y239.238 E30.26946
G1 X105.625 Y238.306 E30.41745
G1 X103.225 Y237.434 E30.56692
G1 X100.874 Y236.654 E30.71192
G1 X98.423 Y235.916 E30.86176
G1 X95.975 Y235.256 E31.01018
G1 X93.527 Y234.668 E31.15755
G1 X91.04 Y234.145 E31.30632
G1 X88.599 Y233.703 E31.45154
G1 X86.061 Y233.318 E31.60181
G1 X83.573 Y233.012 E31.74854
G1 X81.043 Y232.773 E31.8973
G1 X78.545 Y232.608 E32.04385
G1 X76.009 Y232.513 E32.19241
G1 X72.862 Y232.491 E32.37663
G1 X72.31 Y232.497 E32.40894
G1 X69.697 Y232.495 E32.5619
G1 X67.319 Y232.479 E32.70111
G1 X66.312 Y232.48 E32.76006
G1 X63.351 Y232.514 E32.9334
G1 X61.551 Y232.498 E33.03877
G1 X58.851 Y232.495 E33.19682
G1 X57.922 Y232.48 E33.25121
G1 X55.743 Y232.412 E33.37883
G1 X54.823 Y232.343 E33.43284
G1 X53.912 Y232.195 E33.48686
G1 X52.827 Y231.91 E33.55253
G1 X50.958 Y231.312 E33.6674
G1 X50.092 Y230.993 E33.72143
G1 X49.257 Y230.6 E33.77545
G1 X48.159 Y229.937 E33.85053
G1 X47.637 Y229.569 E33.88792
G1 X45.592 Y228.047 E34.03714
G1 X45.037 Y227.623 E34.07803
G1 X44.328 Y227.031 E34.1321
G1 X43.673 Y226.38 E34.18616
G1 X43.077 Y225.675 E34.2402
G1 X42.533 Y224.904 E34.29543
G1 X42.094 Y224.219 E34.34306
G1 X41.695 Y223.558 E34.38825
G1 X41.373 Y222.972 E34.4274
G1 X40.987 Y222.21 E34.4774
G1 X40.617 Y221.443 E34.52725
G1 X40.156 Y220.333 E34.59761
G1 X39.948 Y219.716 E34.63572
G1 X39.575 Y218.508 E34.70973
G1 X39.282 Y217.32 E34.78136
G1 X39.046 Y216.056 E34.85663
G1 X38.916 Y215.141 E34.91073
G1 X38.869 Y214.385 E34.95507
G1 X38.843 Y213.385 E35.01362
G1 X38.822 Y211.742 E35.10981
G1 X38.824 Y208.319 E35.31018
G1 X38.814 Y206.318 E35.42732
G1 X38.82 Y205.73 E35.46174
G1 X38.803 Y204.322 E35.54417
G1 X38.82 Y202.614 E35.64416
G1 X38.816 Y200.726 E35.75468
G1 X38.823 Y199.164 E35.84611
G1 X38.842 Y198.053 E35.91116
G1 X38.816 Y195.234 E36.07618
G1 X38.822 Y193.428 E36.1819
G1 X38.838 Y192.506 E36.23588
G1 X38.837 Y191.551 E36.29179
G1 X38.824 Y190.552 E36.35027
G1 X38.83 Y190.339 E36.36275
G1 X38.819 Y188.875 E36.44845
G1 X38.84 Y186.572 E36.58327
G1 X38.82 Y183.528 E36.76146
G1 X38.841 Y181.133 E36.90166
G1 X38.838 Y180.181 E36.95739
G1 X38.823 Y179.316 E37.00803
G1 X38.817 Y177.912 E37.09022
G1 X38.839 Y175.937 E37.20584
G1 X38.837 Y174.932 E37.26467
G1 X38.808 Y173.331 E37.35841
G1 X38.802 Y172.381 E37.41402
G1 X38.825 Y168.363 E37.64923
G1 X38.815 Y167.544 E37.69717
G1 X38.823 Y166.049 E37.78469
G1 X38.839 Y165.199 E37.83445
G1 X38.833 Y163.693 E37.92261
G1 X38.806 Y160.707 E38.09741
G1 X38.832 Y158.016 E38.25495
G1 X38.808 Y151.612 E38.62982
G1 X38.79 Y150.807 E38.67696
G1 X38.776 Y149.162 E38.77326
G1 X38.764 Y148.765 E38.79651
G1 X38.763 Y148.155 E38.83222
G1 X38.785 Y147.378 E38.87772
G1 X38.808 Y144.423 E39.0507
G1 X38.829 Y142.995 E39.1343
G1 X38.814 Y140.184 E39.29886
G1 X38.824 Y139.911 E39.31485
G1 X38.816 Y139.087 E39.36309
G1 X38.825 Y136.832 E39.49509
G1 X38.838 Y135.97 E39.54555
G1 X38.82 Y132.853 E39.72802
G1 X38.84 Y130.513 E39.865
G1 X38.819 Y127.451 E40.04425
G1 X38.84 Y125.24 E40.17368
G1 X38.838 Y124.297 E40.22888
G1 X38.808 Y122.648 E40.32543
G1 X38.802 Y121.678 E40.38221
G1 X38.811 Y121.093 E40.41646
G1 X38.825 Y117.662 E40.61731
G1 X38.812 Y116.81 E40.66719
G1 X38.827 Y114.904 E40.77876
G1 X38.838 Y114.405 E40.80798
G1 X38.835 Y112.939 E40.8938
G1 X38.813 Y111.16 E40.99794
G1 X38.825 Y109.631 E41.08745
G1 X38.838 Y109 E41.1244
G1 X38.815 Y104.628 E41.38033
G1 X38.807 Y104.442 E41.39122
G1 X38.821 Y103.017 E41.47465
G1 X38.822 Y100.999 E41.59277
G1 X38.769 Y98.348 E41.74799
G1 X38.739 Y97.501 E41.7976
G1 X38.739 Y96.742 E41.84203
G1 X38.76 Y96.138 E41.87741
G1 X38.808 Y93.62 E42.02484
G1 X38.845 Y90.968 E42.18009
G1 X38.816 Y88.402 E42.33031
G1 X38.821 Y86.852 E42.42104
G1 X38.839 Y85.828 E42.481
G1 X38.836 Y84.811 E42.54053
G1 X38.82 Y83.815 E42.59884
G1 X38.829 Y83.487 E42.61805
G1 X38.819 Y82.343 E42.68502
G1 X38.832 Y79.981 E42.82329
G1 X38.838 Y79.863 E42.8302
G1 X38.837 Y77.958 E42.94172
G1 X38.82 Y76.259 E43.04118
G1 X38.85 Y75.336 E43.09524
G1 X38.9 Y74.841 E43.12436
G1 X39.013 Y73.942 E43.1774
G1 X39.157 Y72.929 E43.2373
G1 X39.326 Y72.021 E43.29136
G1 X39.608 Y71.029 E43.35173
G1 X39.925 Y70.087 E43.40991
G1 X40.336 Y68.969 E43.47964
G1 X40.598 Y68.328 E43.52018
G1 X41.001 Y67.43 E43.57779
G1 X41.416 Y66.605 E43.63185
G1 X41.9 Y65.819 E43.68589
G1 X42.288 Y65.282 E43.72467
G1 X43.637 Y63.561 E43.85267
G1 X44.24 Y62.862 E43.90671
G1 X44.445 Y62.662 E43.92348
G0 F810 X44.901 Y62.217
G0 X45.825 Y61.48
G0 F6000 X46.08 Y61.838
G1 F900 X46.724 Y61.38 E43.96974
G1 X48.261 Y60.321 E44.079
G1 X48.821 Y59.947 E44.11842
G1 X49.594 Y59.479 E44.17132
G1 X50.406 Y59.081 E44.22425
G1 X51.249 Y58.756 E44.27714
G1 X51.828 Y58.581 E44.31255
G1 X53.576 Y58.108 E44.41855
G1 X54.458 Y57.91 E44.47147
G1 X55.354 Y57.792 E44.52437
G1 X56.065 Y57.755 E44.56605
G1 X60.211 Y57.678 E44.80879
G1 X61.864 Y57.682 E44.90555
G1 X62.834 Y57.698 E44.96234
G1 X65.237 Y57.694 E45.10301
G1 X66.771 Y57.704 E45.1928
G1 X73.775 Y57.695 E45.6028
G1 X79.082 Y57.713 E45.91347
G1 X83.376 Y57.694 E46.16483
G1 X84.295 Y57.704 E46.21863
G1 X85.822 Y57.695 E46.30802
G1 X86.044 Y57.704 E46.32102
G1 X89.123 Y57.697 E46.50126
G1 X91.373 Y57.706 E46.63297
G1 X94.355 Y57.696 E46.80753
G1 X95.049 Y57.703 E46.84816
G1 X97.313 Y57.704 E46.98069
G1 X98.699 Y57.689 E47.06183
G1 X103.14 Y57.689 E47.3218
G1 X103.328 Y57.697 E47.33281
G1 X107.262 Y57.705 E47.5631
G1 X109.816 Y57.686 E47.71261
G1 X114.601 Y57.693 E47.99271
G1 X116.146 Y57.68 E48.08316
G1 X121.198 Y57.732 E48.37891
G1 X123.517 Y57.787 E48.51469
G1 X124.419 Y57.848 E48.56762
G1 X125.672 Y58.069 E48.6421
G1 X127.454 Y58.499 E48.7494
G1 X128.315 Y58.747 E48.80185
G1 X129.775 Y59.238 E48.89202
G1 X132.235 Y60.017 E49.04307
G1 X134.7 Y60.723 E49.19317
G1 X137.137 Y61.346 E49.34042
G1 X139.618 Y61.906 E49.4893
G1 X142.142 Y62.401 E49.63987
G1 X144.593 Y62.81 E49.78533
G1 X147.15 Y63.164 E49.93643
G1 X149.636 Y63.436 E50.08283
G1 X152.196 Y63.643 E50.23317
G1 X154.7 Y63.774 E50.37995
G1 X158.249 Y63.842 E50.58774
G1 X169.312 Y63.85 E51.23535
G1 X170.407 Y63.842 E51.29945
G1 X190.574 Y63.843 E52.47998
G1 X191.292 Y63.854 E52.52202
G1 X192.428 Y63.935 E52.58868
G1 X193.069 Y64.018 E52.62652
G1 X194.625 Y64.241 E52.71853
G1 X197.171 Y64.532 E52.86854
G1 X199.703 Y64.749 E53.0173
G1 X202.209 Y64.893 E53.16424
G1 X204.774 Y64.967 E53.31445
G1 X207.32 Y64.969 E53.46349
G1 X209.832 Y64.911 E53.61058
G1 X224.457 Y64.919 E54.46669
G1 X225.553 Y64.911 E54.53085
G1 X245.709 Y64.912 E55.71074
G1 X246.407 Y64.922 E55.7516
G1 X247.31 Y64.975 E55.80455
G1 X248.204 Y65.107 E55.85745
G1 X249.083 Y65.318 E55.91037
G1 X249.94 Y65.606 E55.9633
G1 X250.768 Y65.969 E56.01622
G1 X251.561 Y66.403 E56.06914
G1 X252.313 Y66.905 E56.12206
G1 X253.017 Y67.472 E56.17498
G1 X253.668 Y68.099 E56.22789
G1 X254.261 Y68.781 E56.28079
G1 X254.792 Y69.513 E56.33373
G1 X255.256 Y70.289 E56.38665
G1 X255.649 Y71.103 E56.43957
G1 X255.969 Y71.948 E56.49246
G1 X256.214 Y72.819 E56.54542
G1 X256.38 Y73.707 E56.59831
G1 X256.477 Y74.854 E56.66569
G1 X256.49 Y75.461 E56.70123
G1 X256.489 Y212.399 E64.71728
G1 X256.48 Y213.126 E64.75984
G1 X256.429 Y214.028 E64.81273
G1 X256.298 Y214.923 E64.86568
G1 X256.089 Y215.802 E64.91857
G1 X255.803 Y216.659 E64.97146
G1 X255.442 Y217.488 E65.02438
G1 X255.01 Y218.282 E65.0773
G1 X254.508 Y219.035 E65.13027
G1 X253.943 Y219.74 E65.18316
G1 X253.317 Y220.392 E65.23607
G1 X252.636 Y220.987 E65.28901
G1 X251.905 Y221.519 E65.34193
G1 X251.131 Y221.984 E65.39479
G1 X250.317 Y222.379 E65.44775
G1 X249.473 Y222.701 E65.50063
G1 X248.603 Y222.947 E65.55356
G1 X247.715 Y223.115 E65.60646
G1 X246.547 Y223.215 E65.67508
G1 X245.94 Y223.228 E65.71062
G1 X210.054 Y223.227 E67.81131
G1 X209.336 Y223.216 E67.85335
G1 X208.195 Y223.134 E67.92031
G1 X207.554 Y223.051 E67.95815
G1 X205.995 Y222.828 E68.05034
G1 X203.481 Y222.541 E68.19846
G1 X200.907 Y222.32 E68.34969
G1 X198.429 Y222.179 E68.49498
G1 X195.854 Y222.104 E68.64578
G1 X193.305 Y222.102 E68.79499
G1 X190.779 Y222.16 E68.9429
G1 X182.197 Y222.16 E69.44527
G1 X179.591 Y222.197 E69.59783
G1 X177.026 Y222.306 E69.74812
G1 X174.522 Y222.483 E69.89506
G1 X171.98 Y222.735 E70.04459
G1 X169.482 Y223.055 E70.19202
G1 X166.963 Y223.451 E70.34128
G1 X164.474 Y223.913 E70.48947
G1 X162 Y224.444 E70.63759
G1 X159.511 Y225.056 E70.78764
G1 X157.046 Y225.734 E70.93729
G1 X154.676 Y226.46 E71.08239
G1 X152.221 Y227.288 E71.23405
G1 X149.841 Y228.166 E71.38255
G1 X147.509 Y229.102 E71.52965
G1 X145.148 Y230.129 E71.68036
G1 X142.881 Y231.192 E71.82693
G1 X140.598 Y232.342 E71.97657
G1 X138.342 Y233.559 E72.12662
G1 X136.198 Y234.796 E72.27152
G1 X133.995 Y236.152 E72.42295
G1 X131.89 Y237.53 E72.57023
G1 X129.375 Y239.288 E72.74985
G1 X128.089 Y240.202 E72.84221
G1 X127.335 Y240.719 E72.89572
G1 X126.567 Y241.195 E72.94862
G1 X125.76 Y241.602 E73.00152
G1 X124.919 Y241.935 E73.05447
G1 X124.053 Y242.193 E73.10737
G1 X123.167 Y242.374 E73.1603
G1 X122.499 Y242.457 E73.19971
G1 X121.598 Y242.538 E73.25266
G1 X120.3 Y242.635 E73.32886
G1 X119.465 Y242.686 E73.37783
G1 X118.561 Y242.701 E73.43075
G1 X117.66 Y242.636 E73.48363
G1 X116.767 Y242.491 E73.53659
G1 X115.891 Y242.269 E73.58949
G1 X115.038 Y241.969 E73.64242
G1 X114.411 Y241.692 E73.68255
G1 X112.783 Y240.9 E73.78853
G1 X110.482 Y239.835 E73.93695
G1 X108.128 Y238.826 E74.08687
G1 X105.768 Y237.89 E74.23549
G1 X103.406 Y237.032 E74.3826
G1 X100.958 Y236.219 E74.53359
G1 X98.567 Y235.499 E74.67977
G1 X96.111 Y234.837 E74.82867
G1 X93.58 Y234.229 E74.98104
G1 X91.137 Y233.715 E75.12718
G1 X88.643 Y233.264 E75.27554
G1 X86.144 Y232.885 E75.4235
G1 X83.631 Y232.575 E75.57172
G1 X81.08 Y232.334 E75.72172
G1 X78.555 Y232.168 E75.86984
G1 X76.03 Y232.073 E76.01775
G1 X72.86 Y232.051 E76.20332
G1 X72.31 Y232.057 E76.23552
G1 X69.7 Y232.055 E76.38831
