;FLAVOR:Marlin
;TIME:2921
;Filament used: 1.76982m
;Layer height: 0.2
;MINX:108.742
;MINY:97.837
;MINZ:0.2
;MAXX:191.277
;MAXY:202.164
;MAXZ:4.6
;Generated with Cura_SteamEngine 5.2.1
M140 S60
M105
M190 S60
M104 S215
M105
M109 S215
M82 ;absolute extrusion mode
; Ender 3 Max Custom Start G-code
G92 E0 ; Reset Extruder
G28 ; Home all axes
G1 Z2.0 F3000 ; Move Z Axis up little to prevent scratching of Heat Bed
G1 X0.1 Y20 Z0.3 F5000.0 ; Move to start position
G1 X0.1 Y200.0 Z0.3 F1500.0 E15 ; Draw the first line
G1 X0.4 Y200.0 Z0.3 F5000.0 ; Move to side a little
G1 X0.4 Y20 Z0.3 F1500.0 E30 ; Draw the second line
G92 E0 ; Reset Extruder
G1 Z2.0 F3000 ; Move Z Axis up little to prevent scratching of Heat Bed
G1 X5 Y20 Z0.3 F5000.0 ; Move over to prevent blob squish
G92 E0
G92 E0
G1 F1500 E-6.5
;LAYER_COUNT:23
;LAYER:0
M107
G0 F6000 X120.724 Y101.971 Z0.2
;TYPE:SKIRT
G1 F1500 E0
G1 F1200 X121.379 Y101.299 E0.03121
G1 X122.088 Y100.686 E0.06238
G1 X122.848 Y100.136 E0.09359
G1 X124.066 Y99.437 E0.1403
G1 X124.86 Y99.053 E0.16963
G1 X125.396 Y98.811 E0.18919
G1 X126.266 Y98.462 E0.22037
G1 X127.163 Y98.189 E0.25155
G1 X128.08 Y97.992 E0.28275
G1 X129.011 Y97.875 E0.31396
G1 X129.948 Y97.837 E0.34515
G1 X130.548 Y97.855 E0.36511
G1 X131.128 Y97.888 E0.38444
G1 X133.679 Y98 E0.46936
G1 X136.29 Y98.041 E0.55622
G1 X137.706 Y98.036 E0.60331
G1 X141.101 Y98.101 E0.71625
G1 X143.671 Y98.074 E0.80174
G1 X144.779 Y98.042 E0.8386
G1 X145.388 Y98.041 E0.85886
G1 X147.621 Y98.1 E0.93315
G1 X150.179 Y98.102 E1.01823
G1 X152.531 Y98.041 E1.09649
G1 X153.107 Y98.041 E1.11565
G1 X155.34 Y98.1 E1.18994
G1 X157.898 Y98.102 E1.27502
G1 X160.25 Y98.041 E1.35328
G1 X160.826 Y98.041 E1.37243
G1 X163.059 Y98.1 E1.44673
G1 X165.584 Y98.102 E1.53071
G1 X167.584 Y98.046 E1.59726
G1 X168.455 Y98.033 E1.62623
G1 X170.545 Y98.032 E1.69574
G1 X173.063 Y97.962 E1.77952
G1 X173.869 Y97.915 E1.80638
G1 X175.071 Y97.862 E1.8464
G1 X176.009 Y97.86 E1.87759
G1 X176.944 Y97.939 E1.9088
G1 X177.868 Y98.097 E1.93998
G1 X178.776 Y98.334 E1.97119
G1 X179.949 Y98.768 E2.01279
G1 X180.755 Y99.123 E2.04208
G1 X181.255 Y99.357 E2.06045
G1 X182.086 Y99.79 E2.09161
G1 X182.878 Y100.293 E2.12282
G1 X183.624 Y100.861 E2.154
G1 X184.319 Y101.491 E2.1852
G1 X184.958 Y102.178 E2.21641
G1 X185.536 Y102.916 E2.24759
G1 X185.831 Y103.35 E2.26504
G1 X186.264 Y104.031 E2.29188
G1 X186.539 Y104.489 E2.30965
G1 X186.987 Y105.312 E2.34082
G1 X187.363 Y106.172 E2.37203
G1 X187.574 Y106.764 E2.39294
G1 X187.884 Y107.722 E2.42643
G1 X188.174 Y108.687 E2.45994
G1 X188.403 Y109.597 E2.49115
G1 X188.553 Y110.522 E2.52232
G1 X188.628 Y111.606 E2.55846
G1 X188.64 Y112.331 E2.58258
G1 X188.64 Y118.656 E2.79295
G1 X188.677 Y121.264 E2.8797
G1 X188.784 Y123.785 E2.96362
G1 X188.961 Y126.28 E3.04681
G1 X189.209 Y128.78 E3.13037
G1 X189.528 Y131.273 E3.21397
G1 X189.919 Y133.766 E3.2979
G1 X190.381 Y136.25 E3.38193
G1 X191.017 Y139.181 E3.48169
G1 X191.177 Y140.105 E3.51288
G1 X191.262 Y141.178 E3.54868
G1 X191.277 Y141.841 E3.57073
G1 X191.276 Y145.897 E3.70564
G1 X191.266 Y146.627 E3.72992
G1 X191.213 Y147.563 E3.7611
G1 X191.081 Y148.492 E3.79231
G1 X190.87 Y149.405 E3.82348
G1 X190.582 Y150.298 E3.85468
G1 X190.219 Y151.163 E3.88588
G1 X189.783 Y151.993 E3.91707
G1 X189.279 Y152.784 E3.94826
G1 X188.709 Y153.529 E3.97946
G1 X188.077 Y154.222 E4.01066
G1 X187.389 Y154.859 E4.04184
G1 X186.649 Y155.435 E4.07303
G1 X185.863 Y155.946 E4.10421
G1 X185.363 Y156.224 E4.12324
G1 X184.62 Y156.612 E4.15112
G1 X182.31 Y157.862 E4.23848
G1 X180.142 Y159.116 E4.32178
G1 X177.993 Y160.441 E4.40575
G1 X175.878 Y161.828 E4.48987
G1 X173.829 Y163.258 E4.57298
G1 X171.809 Y164.753 E4.65656
G1 X169.817 Y166.317 E4.7408
G1 X167.881 Y167.928 E4.82457
G1 X165.991 Y169.593 E4.90834
G1 X164.167 Y171.293 E4.99127
G1 X162.372 Y173.064 E5.07514
G1 X160.634 Y174.88 E5.15875
G1 X158.92 Y176.774 E5.24371
G1 X157.308 Y178.662 E5.32628
G1 X155.71 Y180.641 E5.41088
G1 X154.197 Y182.63 E5.494
G1 X152.715 Y184.695 E5.57854
G1 X151.325 Y186.753 E5.66114
G1 X149.98 Y188.871 E5.74458
G1 X148.678 Y191.057 E5.82921
G1 X147.268 Y193.591 E5.92566
G1 X146.807 Y194.453 E5.95817
G1 X146.159 Y195.589 E6.00167
G1 X145.808 Y196.18 E6.02453
G1 X145.347 Y196.931 E6.05384
G1 X144.822 Y197.708 E6.08503
G1 X144.232 Y198.437 E6.11623
G1 X143.583 Y199.114 E6.14742
G1 X142.878 Y199.732 E6.1786
G1 X142.123 Y200.289 E6.20981
G1 X141.323 Y200.779 E6.24101
G1 X140.485 Y201.199 E6.27218
G1 X139.614 Y201.546 E6.30337
G1 X138.716 Y201.818 E6.33458
G1 X137.799 Y202.013 E6.36576
G1 X136.868 Y202.128 E6.39696
G1 X135.996 Y202.164 E6.42599
G1 X135.169 Y202.164 E6.45349
G1 X133.566 Y202.145 E6.50681
G1 X132.984 Y202.147 E6.52617
G1 X132.047 Y202.11 E6.55736
G1 X131.116 Y201.993 E6.58857
G1 X130.199 Y201.797 E6.61976
G1 X129.302 Y201.524 E6.65094
G1 X128.431 Y201.176 E6.68214
G1 X127.593 Y200.755 E6.71333
G1 X126.794 Y200.263 E6.74454
G1 X126.04 Y199.706 E6.77572
G1 X125.336 Y199.086 E6.80692
G1 X124.688 Y198.409 E6.83809
G1 X123.951 Y197.473 E6.87771
G1 X123.256 Y196.484 E6.91791
G1 X121.714 Y194.352 E7.00543
G1 X120.201 Y192.383 E7.08802
G1 X118.6 Y190.415 E7.1724
G1 X116.944 Y188.495 E7.25673
G1 X115.312 Y186.7 E7.33742
G1 X114.976 Y186.318 E7.35434
G1 X114.335 Y185.549 E7.38764
G1 X113.767 Y184.831 E7.41809
G1 X113.511 Y184.494 E7.43216
G1 X112.88 Y183.63 E7.46775
G1 X112.585 Y183.206 E7.48493
G1 X111.808 Y182.03 E7.53181
G1 X110.704 Y180.28 E7.60063
G1 X110.351 Y179.703 E7.62313
G1 X109.896 Y178.882 E7.65435
G1 X109.512 Y178.026 E7.68555
G1 X109.203 Y177.141 E7.71673
G1 X108.971 Y176.232 E7.74793
G1 X108.817 Y175.307 E7.77912
G1 X108.742 Y174.372 E7.81032
G1 X108.747 Y173.435 E7.84148
G1 X108.832 Y172.501 E7.87268
G1 X108.996 Y171.577 E7.90389
G1 X109.238 Y170.671 E7.93508
G1 X109.537 Y169.835 E7.96461
G1 X109.76 Y169.284 E7.98438
G1 X110.382 Y167.807 E8.03768
G1 X111.29 Y165.472 E8.12101
G1 X112.14 Y163.09 E8.20513
G1 X112.926 Y160.669 E8.28979
G1 X113.621 Y158.304 E8.37178
G1 X114.277 Y155.817 E8.45732
G1 X114.848 Y153.368 E8.54096
G1 X115.34 Y150.952 E8.62297
G1 X115.783 Y148.413 E8.70869
G1 X116.137 Y145.976 E8.7906
G1 X116.434 Y143.437 E8.87562
G1 X116.652 Y140.968 E8.95806
G1 X116.802 Y138.445 E9.04212
G1 X116.894 Y135.03 E9.15575
G1 X116.899 Y112.37 E9.90942
G1 X116.908 Y111.699 E9.93174
G1 X116.961 Y110.763 E9.96292
G1 X117.093 Y109.835 E9.9941
G1 X117.32 Y108.86 E10.02739
G1 X117.592 Y107.896 E10.06071
G1 X117.932 Y106.806 E10.09868
G1 X118.254 Y105.925 E10.12988
G1 X118.65 Y105.075 E10.16107
G1 X118.905 Y104.61 E10.17871
G1 X119.12 Y104.24 E10.19294
G1 X119.597 Y103.468 E10.22313
G1 X120.128 Y102.695 E10.25432
G1 X120.724 Y101.971 E10.28551
G0 F6000 X121.044 Y102.212
G1 F1200 X121.69 Y101.556 E10.31613
G1 X122.39 Y100.958 E10.34675
G1 X123.139 Y100.423 E10.37737
G1 X124.243 Y99.796 E10.41959
G1 X125.024 Y99.418 E10.44845
G1 X125.56 Y99.176 E10.46801
G1 X126.415 Y98.834 E10.49864
G1 X127.296 Y98.567 E10.52926
G1 X128.197 Y98.378 E10.55988
G1 X129.111 Y98.268 E10.5905
G1 X130.031 Y98.238 E10.62111
G1 X130.525 Y98.254 E10.63755
G1 X131.085 Y98.286 E10.65621
G1 X133.691 Y98.4 E10.74297
G1 X136.285 Y98.441 E10.82925
G1 X137.707 Y98.436 E10.87655
G1 X141.099 Y98.501 E10.98939
G1 X143.632 Y98.475 E11.07364
G1 X144.791 Y98.441 E11.11221
G1 X145.377 Y98.441 E11.1317
G1 X147.61 Y98.5 E11.20599
G1 X150.19 Y98.502 E11.2918
G1 X152.542 Y98.441 E11.37006
G1 X153.096 Y98.441 E11.38848
G1 X155.329 Y98.5 E11.46278
G1 X157.909 Y98.502 E11.54859
G1 X160.261 Y98.441 E11.62685
G1 X160.815 Y98.441 E11.64527
G1 X163.048 Y98.5 E11.71957
G1 X165.595 Y98.502 E11.80428
G1 X167.595 Y98.446 E11.87083
G1 X168.46 Y98.433 E11.8996
G1 X170.556 Y98.432 E11.96931
G1 X173.097 Y98.361 E12.05386
G1 X174.04 Y98.307 E12.08528
G1 X175.089 Y98.261 E12.1202
G1 X176.009 Y98.261 E12.1508
G1 X176.926 Y98.34 E12.18141
G1 X177.833 Y98.499 E12.21204
G1 X178.723 Y98.736 E12.24267
G1 X179.789 Y99.134 E12.28052
G1 X180.585 Y99.485 E12.30945
G1 X181.085 Y99.719 E12.32781
G1 X181.901 Y100.145 E12.35843
G1 X182.677 Y100.641 E12.38906
G1 X183.407 Y101.202 E12.41968
G1 X184.086 Y101.824 E12.45031
G1 X184.708 Y102.502 E12.48091
G1 X185.495 Y103.567 E12.52496
G1 X185.921 Y104.236 E12.55134
G1 X186.196 Y104.694 E12.5691
G1 X186.635 Y105.504 E12.59975
G1 X187.002 Y106.348 E12.63036
G1 X187.193 Y106.888 E12.64941
G1 X187.503 Y107.846 E12.6829
G1 X187.79 Y108.801 E12.71607
G1 X188.014 Y109.694 E12.74669
G1 X188.16 Y110.603 E12.77731
G1 X188.228 Y111.614 E12.81101
G1 X188.24 Y112.331 E12.83486
G1 X188.24 Y118.662 E13.04543
G1 X188.277 Y121.287 E13.13275
G1 X188.384 Y123.795 E13.21624
G1 X188.562 Y126.315 E13.30026
G1 X188.811 Y128.83 E13.38432
G1 X189.13 Y131.319 E13.46778
G1 X189.531 Y133.871 E13.5537
G1 X189.984 Y136.305 E13.63605
G1 X190.626 Y139.266 E13.73682
G1 X190.782 Y140.173 E13.76743
G1 X190.862 Y141.19 E13.80136
G1 X190.877 Y141.841 E13.82302
G1 X190.876 Y145.891 E13.95772
G1 X190.866 Y146.621 E13.98201
G1 X190.813 Y147.54 E14.01262
G1 X190.681 Y148.451 E14.04324
G1 X190.471 Y149.348 E14.07388
G1 X190.183 Y150.222 E14.10449
G1 X189.82 Y151.069 E14.13514
G1 X189.386 Y151.88 E14.16573
G1 X188.883 Y152.651 E14.19635
G1 X188.314 Y153.375 E14.22697
G1 X187.685 Y154.048 E14.25761
G1 X187 Y154.663 E14.28823
G1 X186.264 Y155.216 E14.31885
G1 X185.178 Y155.87 E14.36102
G1 X184.396 Y156.279 E14.39037
G1 X182.126 Y157.507 E14.47621
G1 X179.938 Y158.772 E14.56027
G1 X177.76 Y160.115 E14.64537
G1 X175.66 Y161.492 E14.7289
G1 X173.608 Y162.924 E14.81212
G1 X171.57 Y164.433 E14.89646
G1 X169.556 Y166.014 E14.98162
G1 X167.627 Y167.618 E15.06507
G1 X165.738 Y169.283 E15.14882
G1 X163.861 Y171.033 E15.23417
G1 X162.103 Y172.768 E15.31632
G1 X160.315 Y174.635 E15.4023
G1 X158.65 Y176.475 E15.48484
G1 X156.975 Y178.436 E15.57061
G1 X155.396 Y180.394 E15.65428
G1 X153.886 Y182.377 E15.73717
G1 X152.391 Y184.46 E15.82245
G1 X150.989 Y186.536 E15.90577
G1 X149.626 Y188.683 E15.99036
G1 X148.342 Y190.838 E16.07379
G1 X146.899 Y193.433 E16.17255
G1 X146.301 Y194.54 E16.21439
G1 X145.815 Y195.385 E16.24682
G1 X145.377 Y196.12 E16.27527
G1 X145.007 Y196.721 E16.29875
G1 X144.49 Y197.483 E16.32937
G1 X143.91 Y198.198 E16.36
G1 X143.27 Y198.86 E16.39062
G1 X142.574 Y199.463 E16.42125
G1 X141.829 Y200.004 E16.45187
G1 X141.04 Y200.478 E16.48249
G1 X140.213 Y200.882 E16.5131
G1 X139.354 Y201.213 E16.54372
G1 X138.469 Y201.468 E16.57435
G1 X137.566 Y201.645 E16.60496
G1 X136.65 Y201.743 E16.6356
G1 X135.996 Y201.764 E16.65736
G1 X135.174 Y201.764 E16.6847
G1 X133.57 Y201.745 E16.73805
G1 X132.983 Y201.747 E16.75758
G1 X132.063 Y201.71 E16.7882
G1 X131.15 Y201.593 E16.81881
G1 X130.25 Y201.397 E16.84945
G1 X129.371 Y201.124 E16.88006
G1 X128.519 Y200.776 E16.91067
G1 X127.7 Y200.355 E16.9413
G1 X126.921 Y199.865 E16.97191
G1 X126.187 Y199.309 E17.00254
G1 X125.504 Y198.691 E17.03317
G1 X124.878 Y198.017 E17.06377
G1 X124.278 Y197.243 E17.09634
G1 X123.552 Y196.21 E17.13833
G1 X122.044 Y194.125 E17.22392
G1 X120.509 Y192.128 E17.30769
G1 X118.915 Y190.168 E17.39172
G1 X117.242 Y188.228 E17.47692
G1 X115.606 Y186.429 E17.5578
G1 X115.282 Y186.061 E17.57411
G1 X114.649 Y185.3 E17.60703
G1 X114.081 Y184.582 E17.63748
G1 X113.834 Y184.258 E17.65103
G1 X113.203 Y183.394 E17.68662
G1 X112.919 Y182.985 E17.70318
G1 X112.017 Y181.616 E17.75771
G1 X111.118 Y180.189 E17.8138
G1 X110.692 Y179.494 E17.84091
G1 X110.246 Y178.688 E17.87155
G1 X109.872 Y177.847 E17.90217
G1 X109.572 Y176.977 E17.93277
G1 X109.348 Y176.084 E17.9634
G1 X109.204 Y175.174 E17.99404
G1 X109.138 Y174.256 E18.02465
G1 X109.153 Y173.336 E18.05525
G1 X109.247 Y172.42 E18.08588
G1 X109.42 Y171.516 E18.11649
G1 X109.671 Y170.63 E18.14712
G1 X109.908 Y169.985 E18.16998
G1 X110.189 Y169.294 E18.19479
G1 X110.76 Y167.94 E18.24366
G1 X111.668 Y165.603 E18.32705
G1 X112.518 Y163.222 E18.41114
G1 X113.295 Y160.831 E18.49476
G1 X114.017 Y158.371 E18.58003
G1 X114.659 Y155.938 E18.66372
G1 X115.243 Y153.433 E18.74927
G1 X115.733 Y151.029 E18.83087
G1 X116.172 Y148.508 E18.91598
G1 X116.536 Y146.008 E19.00001
G1 X116.831 Y143.482 E19.0846
G1 X117.054 Y140.956 E19.16894
G1 X117.202 Y138.479 E19.25147
G1 X117.294 Y135.041 E19.36586
G1 X117.299 Y112.376 E20.1197
G1 X117.308 Y111.705 E20.14202
G1 X117.36 Y110.786 E20.17264
G1 X117.492 Y109.875 E20.20325
G1 X117.705 Y108.969 E20.23421
G1 X117.977 Y108.005 E20.26752
G1 X118.314 Y106.928 E20.30506
G1 X118.63 Y106.063 E20.33568
G1 X119.021 Y105.229 E20.36632
G1 X119.251 Y104.811 E20.38219
G1 X119.649 Y104.138 E20.40819
G1 X119.936 Y103.68 E20.42617
G1 X120.458 Y102.922 E20.45678
G1 X121.044 Y102.212 E20.4874
G0 F6000 X121.364 Y102.455
G1 F1200 X122 Y101.813 E20.51746
G1 X122.69 Y101.231 E20.54748
G1 X123.429 Y100.712 E20.57752
G1 X124.419 Y100.155 E20.6153
G1 X124.887 Y99.925 E20.63264
G1 X125.725 Y99.541 E20.6633
G1 X126.563 Y99.206 E20.69332
G1 X127.429 Y98.946 E20.72339
G1 X128.313 Y98.765 E20.7534
G1 X129.21 Y98.662 E20.78343
G1 X130.502 Y98.654 E20.82641
G1 X131.045 Y98.685 E20.8445
G1 X133.666 Y98.8 E20.93176
G1 X136.281 Y98.841 E21.01874
G1 X137.709 Y98.836 E21.06624
G1 X141.096 Y98.901 E21.17891
G1 X143.647 Y98.874 E21.26376
G1 X144.802 Y98.841 E21.30219
G1 X145.367 Y98.841 E21.32098
G1 X147.6 Y98.9 E21.39528
G1 X150.162 Y98.902 E21.48049
G1 X152.552 Y98.84 E21.56001
G1 X153.086 Y98.841 E21.57777
G1 X155.319 Y98.9 E21.65207
G1 X157.881 Y98.902 E21.73728
G1 X160.271 Y98.84 E21.8168
G1 X160.805 Y98.841 E21.83456
G1 X163.038 Y98.9 E21.90886
G1 X165.606 Y98.902 E21.99427
G1 X167.749 Y98.843 E22.06557
G1 X168.608 Y98.832 E22.09414
G1 X170.567 Y98.832 E22.1593
G1 X173.098 Y98.761 E22.24351
G1 X174.057 Y98.707 E22.27546
G1 X175.106 Y98.661 E22.31039
G1 X176.009 Y98.661 E22.34042
G1 X176.909 Y98.742 E22.37047
G1 X177.798 Y98.901 E22.40051
G1 X178.669 Y99.139 E22.43054
G1 X179.63 Y99.501 E22.4647
G1 X180.169 Y99.736 E22.48426
G1 X180.916 Y100.082 E22.51164
G1 X181.716 Y100.5 E22.54166
G1 X182.476 Y100.988 E22.5717
G1 X183.19 Y101.541 E22.60174
G1 X183.852 Y102.155 E22.63177
G1 X184.457 Y102.826 E22.66182
G1 X185.159 Y103.785 E22.70135
G1 X185.578 Y104.442 E22.72726
G1 X185.853 Y104.9 E22.74503
G1 X186.283 Y105.694 E22.77506
G1 X186.641 Y106.523 E22.8051
G1 X186.813 Y107.011 E22.82231
G1 X187.123 Y107.969 E22.8558
G1 X187.407 Y108.915 E22.88865
G1 X187.626 Y109.791 E22.91868
G1 X187.766 Y110.683 E22.94871
G1 X187.828 Y111.622 E22.98001
G1 X187.84 Y112.331 E23.0036
G1 X187.84 Y118.668 E23.21437
G1 X187.877 Y121.274 E23.30105
G1 X187.986 Y123.839 E23.38644
G1 X188.164 Y126.346 E23.47003
G1 X188.415 Y128.887 E23.55496
G1 X188.736 Y131.395 E23.63905
G1 X189.13 Y133.9 E23.7234
G1 X189.593 Y136.39 E23.80763
G1 X190.235 Y139.35 E23.90837
G1 X190.387 Y140.241 E23.93843
G1 X190.462 Y141.202 E23.97049
G1 X190.477 Y141.841 E23.99175
G1 X190.476 Y145.886 E24.12629
G1 X190.466 Y146.616 E24.15057
G1 X190.414 Y147.517 E24.18059
G1 X190.282 Y148.411 E24.21065
G1 X190.071 Y149.289 E24.24068
G1 X189.784 Y150.145 E24.27071
G1 X189.422 Y150.973 E24.30077
G1 X188.989 Y151.765 E24.33079
G1 X188.487 Y152.516 E24.36083
G1 X187.92 Y153.219 E24.39087
G1 X187.294 Y153.869 E24.42089
G1 X186.612 Y154.462 E24.45095
G1 X185.881 Y154.992 E24.48098
G1 X184.993 Y155.515 E24.51525
G1 X184.198 Y155.931 E24.5451
G1 X181.956 Y157.144 E24.62988
G1 X179.708 Y158.444 E24.71625
G1 X177.577 Y159.757 E24.7995
G1 X175.417 Y161.174 E24.88542
G1 X173.363 Y162.607 E24.96872
G1 X171.331 Y164.112 E25.05283
G1 X169.32 Y165.691 E25.13787
G1 X167.37 Y167.312 E25.22221
G1 X165.447 Y169.007 E25.30747
G1 X163.59 Y170.738 E25.3919
