;FLAVOR:Marlin
;TIME:2819
;Filament used: 0.805972m
;Layer height: 0.12
;MINX:119.259
;MINY:133.736
;MINZ:0.12
;MAXX:180.741
;MAXY:166.264
;MAXZ:18.72
;Generated with Cura_SteamEngine 5.2.1
M140 S60
M105
M190 S60
M104 S215
M105
M109 S215
M82 ;absolute extrusion mode
; Ender 3 Max Custom Start G-code
G92 E0 ; Reset Extruder
G28 ; Home all axes
G1 Z2.0 F3000 ; Move Z Axis up little to prevent scratching of Heat Bed
G1 X0.1 Y20 Z0.3 F5000.0 ; Move to start position
G1 X0.1 Y200.0 Z0.3 F1500.0 E15 ; Draw the first line
G1 X0.4 Y200.0 Z0.3 F5000.0 ; Move to side a little
G1 X0.4 Y20 Z0.3 F1500.0 E30 ; Draw the second line
G92 E0 ; Reset Extruder
G1 Z2.0 F3000 ; Move Z Axis up little to prevent scratching of Heat Bed
G1 X5 Y20 Z0.3 F5000.0 ; Move over to prevent blob squish
G92 E0
G92 E0
G1 F1500 E-6.5
;LAYER_COUNT:156
;LAYER:0
M107
G0 F6000 X123.141 Y136.366 Z0.12
;TYPE:SKIRT
G1 F1500 E0
G1 F1200 X123.88 Y135.79 E0.0187
G1 X124.666 Y135.278 E0.03742
G1 X125.493 Y134.835 E0.05614
G1 X126.355 Y134.465 E0.07486
G1 X127.245 Y134.169 E0.09358
G1 X128.157 Y133.95 E0.11229
G1 X129.084 Y133.809 E0.13101
G1 X129.96 Y133.749 E0.14853
G1 X130.589 Y133.736 E0.16108
G1 X147.716 Y133.737 E0.50287
G1 X148.415 Y133.747 E0.51682
G1 X149.035 Y133.773 E0.52921
G1 X149.995 Y133.841 E0.54841
G1 X152.496 Y133.983 E0.5984
G1 X155.084 Y134.056 E0.65007
G1 X156.381 Y134.065 E0.67595
G1 X169.192 Y134.066 E0.93161
G1 X169.89 Y134.076 E0.94554
G1 X170.826 Y134.13 E0.96425
G1 X171.754 Y134.262 E0.98296
G1 X172.668 Y134.474 E1.00168
G1 X173.56 Y134.763 E1.02039
G1 X174.425 Y135.126 E1.03911
G1 X175.255 Y135.562 E1.05782
G1 X176.046 Y136.067 E1.07655
G1 X176.79 Y136.638 E1.09527
G1 X177.483 Y137.27 E1.11398
G1 X178.12 Y137.958 E1.1327
G1 X178.695 Y138.699 E1.15141
G1 X179.206 Y139.485 E1.17012
G1 X179.648 Y140.313 E1.18885
G1 X180.017 Y141.175 E1.20756
G1 X180.312 Y142.065 E1.22628
G1 X180.53 Y142.977 E1.24499
G1 X180.67 Y143.905 E1.26372
G1 X180.728 Y144.766 E1.28094
G1 X180.741 Y145.395 E1.29349
G1 X180.74 Y154.347 E1.47214
G1 X180.73 Y155.074 E1.48665
G1 X180.677 Y156.011 E1.50538
G1 X180.545 Y156.939 E1.52408
G1 X180.334 Y157.853 E1.5428
G1 X180.045 Y158.745 E1.56152
G1 X179.682 Y159.61 E1.58024
G1 X179.247 Y160.441 E1.59895
G1 X178.742 Y161.231 E1.61766
G1 X178.172 Y161.976 E1.63638
G1 X177.541 Y162.67 E1.6551
G1 X176.852 Y163.307 E1.67383
G1 X176.112 Y163.883 E1.69254
G1 X175.326 Y164.394 E1.71125
G1 X174.499 Y164.836 E1.72996
G1 X173.637 Y165.206 E1.74868
G1 X172.747 Y165.501 E1.7674
G1 X171.835 Y165.72 E1.78611
G1 X170.908 Y165.86 E1.80482
G1 X170.04 Y165.919 E1.82218
G1 X169.411 Y165.932 E1.83474
G1 X156.387 Y165.932 E2.09465
G1 X153.779 Y165.969 E2.1467
G1 X151.278 Y166.075 E2.19665
G1 X149.658 Y166.191 E2.22906
G1 X148.565 Y166.251 E2.25091
G1 X147.936 Y166.264 E2.26346
G1 X130.824 Y166.263 E2.60495
G1 X130.126 Y166.254 E2.61888
G1 X129.19 Y166.202 E2.63759
G1 X128.261 Y166.07 E2.65632
G1 X127.347 Y165.86 E2.67503
G1 X126.454 Y165.573 E2.69375
G1 X125.589 Y165.21 E2.71247
G1 X124.758 Y164.776 E2.73118
G1 X123.967 Y164.272 E2.7499
G1 X123.222 Y163.702 E2.76862
G1 X122.528 Y163.071 E2.78733
G1 X121.891 Y162.384 E2.80603
G1 X121.314 Y161.644 E2.82476
G1 X120.802 Y160.858 E2.84348
G1 X120.359 Y160.031 E2.8622
G1 X119.988 Y159.17 E2.88091
G1 X119.692 Y158.28 E2.89963
G1 X119.473 Y157.368 E2.91834
G1 X119.332 Y156.441 E2.93705
G1 X119.272 Y155.552 E2.95484
G1 X119.259 Y154.922 E2.96741
G1 X119.26 Y145.29 E3.15963
G1 X119.269 Y144.601 E3.17338
G1 X119.321 Y143.665 E3.19209
G1 X119.453 Y142.736 E3.21081
G1 X119.663 Y141.822 E3.22953
G1 X119.951 Y140.93 E3.24823
G1 X120.313 Y140.065 E3.26695
G1 X120.748 Y139.234 E3.28566
G1 X121.252 Y138.443 E3.30438
G1 X121.822 Y137.698 E3.3231
G1 X122.453 Y137.004 E3.34182
G1 X123.141 Y136.366 E3.36054
G0 F6000 X123.53 Y136.563
G1 F1200 X124.265 Y136.009 E3.37891
G1 X125.046 Y135.521 E3.39729
G1 X125.866 Y135.102 E3.41567
G1 X126.719 Y134.757 E3.43403
G1 X127.599 Y134.486 E3.4524
G1 X128.499 Y134.294 E3.47077
G1 X129.413 Y134.18 E3.48915
G1 X129.971 Y134.149 E3.5003
G1 X130.589 Y134.136 E3.51264
G1 X147.559 Y134.136 E3.85129
G1 X148.41 Y134.147 E3.86828
G1 X149.006 Y134.172 E3.88018
G1 X149.937 Y134.238 E3.89881
G1 X152.498 Y134.383 E3.95
G1 X155.07 Y134.456 E4.00134
G1 X156.379 Y134.465 E4.02747
G1 X169.186 Y134.466 E4.28304
G1 X169.884 Y134.476 E4.29697
G1 X170.803 Y134.529 E4.31534
G1 X171.714 Y134.662 E4.33372
G1 X172.61 Y134.873 E4.35209
G1 X173.484 Y135.161 E4.37045
G1 X174.331 Y135.524 E4.38884
G1 X175.142 Y135.959 E4.40721
G1 X175.912 Y136.463 E4.42557
G1 X176.636 Y137.032 E4.44395
G1 X177.308 Y137.662 E4.46233
G1 X177.923 Y138.347 E4.4807
G1 X178.476 Y139.083 E4.49907
G1 X178.963 Y139.864 E4.51744
G1 X179.38 Y140.685 E4.53582
G1 X179.725 Y141.539 E4.5542
G1 X179.994 Y142.419 E4.57256
G1 X180.186 Y143.32 E4.59094
G1 X180.299 Y144.233 E4.6093
G1 X180.328 Y144.777 E4.62017
G1 X180.341 Y145.395 E4.63251
G1 X180.34 Y154.342 E4.81106
G1 X180.33 Y155.069 E4.82557
G1 X180.277 Y155.988 E4.84394
G1 X180.145 Y156.899 E4.86231
G1 X179.934 Y157.795 E4.88068
G1 X179.647 Y158.67 E4.89905
G1 X179.284 Y159.516 E4.91742
G1 X178.85 Y160.328 E4.9358
G1 X178.346 Y161.099 E4.95418
G1 X177.778 Y161.823 E4.97254
G1 X177.149 Y162.495 E4.99091
G1 X176.464 Y163.11 E5.00928
G1 X175.728 Y163.663 E5.02766
G1 X174.947 Y164.151 E5.04603
G1 X174.127 Y164.569 E5.0644
G1 X173.273 Y164.914 E5.08278
G1 X172.393 Y165.183 E5.10115
G1 X171.492 Y165.376 E5.11953
G1 X170.579 Y165.489 E5.13789
G1 X170.029 Y165.519 E5.14888
G1 X169.411 Y165.532 E5.16122
G1 X156.381 Y165.532 E5.42125
G1 X153.756 Y165.569 E5.47364
G1 X151.266 Y165.675 E5.52337
G1 X149.49 Y165.801 E5.5589
G1 X148.554 Y165.851 E5.57761
G1 X147.936 Y165.864 E5.58995
G1 X130.829 Y165.863 E5.93133
G1 X130.131 Y165.854 E5.94526
G1 X129.212 Y165.802 E5.96363
G1 X128.301 Y165.671 E5.982
G1 X127.405 Y165.461 E6.00037
G1 X126.53 Y165.174 E6.01874
G1 X125.683 Y164.812 E6.03712
G1 X124.871 Y164.378 E6.0555
G1 X124.1 Y163.876 E6.07386
G1 X123.375 Y163.308 E6.09224
G1 X122.702 Y162.679 E6.11062
G1 X122.087 Y161.995 E6.12898
G1 X121.533 Y161.26 E6.14735
G1 X121.045 Y160.479 E6.16572
G1 X120.626 Y159.659 E6.1841
G1 X120.28 Y158.806 E6.20247
G1 X120.01 Y157.926 E6.22084
G1 X119.817 Y157.025 E6.23923
G1 X119.703 Y156.112 E6.25759
G1 X119.672 Y155.541 E6.269
G1 X119.659 Y154.922 E6.28136
G1 X119.66 Y145.296 E6.47345
G1 X119.669 Y144.607 E6.4872
G1 X119.721 Y143.687 E6.50559
G1 X119.852 Y142.776 E6.52396
G1 X120.063 Y141.88 E6.54233
G1 X120.35 Y141.005 E6.56071
G1 X120.712 Y140.159 E6.57907
G1 X121.146 Y139.347 E6.59744
G1 X121.648 Y138.575 E6.61582
G1 X122.216 Y137.851 E6.63418
G1 X122.845 Y137.178 E6.65257
G1 X123.53 Y136.563 E6.67094
G0 F6000 X123.918 Y136.763
G1 F1200 X124.649 Y136.233 E6.68896
G1 X125.423 Y135.769 E6.70697
G1 X126.236 Y135.376 E6.72499
G1 X127.081 Y135.056 E6.74302
G1 X127.951 Y134.812 E6.76105
G1 X128.838 Y134.646 E6.77906
G1 X129.982 Y134.549 E6.80197
G1 X130.589 Y134.536 E6.81409
G1 X147.559 Y134.536 E7.15274
G1 X148.404 Y134.547 E7.1696
G1 X148.978 Y134.571 E7.18107
G1 X149.889 Y134.635 E7.19929
G1 X152.498 Y134.783 E7.25144
G1 X155.057 Y134.856 E7.30253
G1 X156.376 Y134.865 E7.32885
G1 X169.18 Y134.866 E7.58437
G1 X169.878 Y134.876 E7.5983
G1 X170.78 Y134.929 E7.61633
G1 X171.673 Y135.061 E7.63435
G1 X172.551 Y135.272 E7.65237
G1 X173.407 Y135.56 E7.67039
G1 X174.234 Y135.922 E7.68841
G1 X175.026 Y136.357 E7.70644
G1 X175.777 Y136.859 E7.72447
G1 X176.48 Y137.426 E7.74249
G1 X177.13 Y138.053 E7.76051
G1 X177.722 Y138.735 E7.77854
G1 X178.252 Y139.466 E7.79655
G1 X178.714 Y140.242 E7.81458
G1 X179.107 Y141.055 E7.8326
G1 X179.425 Y141.9 E7.85062
G1 X179.668 Y142.77 E7.86864
G1 X179.833 Y143.658 E7.88667
G1 X179.928 Y144.788 E7.9093
G1 X179.941 Y145.395 E7.92141
G1 X179.94 Y154.336 E8.09984
G1 X179.93 Y155.063 E8.11435
G1 X179.878 Y155.965 E8.13238
G1 X179.746 Y156.858 E8.15039
G1 X179.535 Y157.737 E8.16843
G1 X179.248 Y158.593 E8.18645
G1 X178.886 Y159.42 E8.20447
G1 X178.452 Y160.212 E8.22249
G1 X177.95 Y160.963 E8.24051
G1 X177.384 Y161.666 E8.25853
G1 X176.757 Y162.317 E8.27656
G1 X176.076 Y162.909 E8.29457
G1 X175.345 Y163.439 E8.31259
G1 X174.569 Y163.902 E8.33062
G1 X173.756 Y164.295 E8.34864
G1 X172.911 Y164.615 E8.36667
G1 X172.042 Y164.858 E8.38468
G1 X171.154 Y165.023 E8.40271
G1 X170.018 Y165.119 E8.42546
G1 X169.411 Y165.132 E8.43757
G1 X156.375 Y165.132 E8.69772
G1 X153.769 Y165.169 E8.74973
G1 X151.222 Y165.277 E8.8006
G1 X149.467 Y165.402 E8.83572
G1 X148.85 Y165.438 E8.84805
G1 X148.223 Y165.46 E8.86057
G1 X130.834 Y165.463 E9.20759
G1 X130.136 Y165.454 E9.22152
G1 X129.235 Y165.403 E9.23953
G1 X128.341 Y165.271 E9.25756
G1 X127.463 Y165.062 E9.27557
G1 X126.606 Y164.775 E9.29361
G1 X125.779 Y164.414 E9.31161
G1 X124.986 Y163.981 E9.32965
G1 X124.235 Y163.48 E9.34766
G1 X123.531 Y162.914 E9.36569
G1 X122.88 Y162.288 E9.38371
G1 X122.287 Y161.607 E9.40173
G1 X121.757 Y160.876 E9.41975
G1 X121.293 Y160.101 E9.43778
G1 X120.899 Y159.288 E9.45581
G1 X120.579 Y158.444 E9.47382
G1 X120.335 Y157.574 E9.49185
G1 X120.169 Y156.686 E9.50988
G1 X120.072 Y155.531 E9.53301
G1 X120.059 Y154.922 E9.54516
G1 X120.06 Y145.301 E9.73716
G1 X120.069 Y144.612 E9.75091
G1 X120.121 Y143.71 E9.76894
G1 X120.252 Y142.817 E9.78695
G1 X120.462 Y141.938 E9.80499
G1 X120.748 Y141.082 E9.823
G1 X121.11 Y140.254 E9.84103
G1 X121.543 Y139.462 E9.85905
G1 X122.044 Y138.711 E9.87706
G1 X122.61 Y138.007 E9.89509
G1 X123.236 Y137.356 E9.91311
G1 X123.918 Y136.763 E9.93115
G1 F1500 E3.43115
;MESH:Porta_Micro_SD.stl
G0 F6000 X130.673 Y144.071
G0 X130.673 Y145.15
G0 X147.094 Y145.908
G0 X147.266 Y154.264
;TYPE:WALL-INNER
G1 F1500 E9.93115
G1 F1200 X147.266 Y150 E10.01624
G1 X147.266 Y145.736 E10.10133
G1 X131.259 Y145.736 E10.42077
G1 X131.259 Y154.264 E10.59096
G1 X147.266 Y154.264 E10.91039
G0 F6000 X147.666 Y154.664
G1 F1200 X147.666 Y150 E11.00347
G1 X147.666 Y145.336 E11.09654
G1 X130.859 Y145.336 E11.43195
G1 X130.859 Y154.664 E11.6181
G1 X147.666 Y154.664 E11.9535
G0 F6000 X148.066 Y155.064
;TYPE:WALL-OUTER
G1 F1200 X148.066 Y150 E12.05455
G1 X148.066 Y144.936 E12.15561
G1 X130.459 Y144.936 E12.50698
G1 X130.459 Y155.064 E12.70909
G1 X148.066 Y155.064 E13.06046
G0 F6000 X147.796 Y154.794
G0 X147.166 Y153.904
G0 X146.906 Y153.904
;TYPE:SKIN
G1 F1200 X146.906 Y150 E13.13837
G1 X146.906 Y146.096 E13.21628
G1 X131.619 Y146.096 E13.52135
G1 X131.619 Y153.904 E13.67716
G1 X146.906 Y153.904 E13.98223
G0 F6000 X147.166 Y153.904
G0 X147.166 Y146.705
G0 X146.705 Y146.705
G1 F1200 X146.296 Y146.296 E13.99378
G0 F6000 X145.73 Y146.296
G1 F1200 X146.705 Y147.271 E14.02129
G0 F6000 X146.705 Y147.836
G1 F1200 X145.164 Y146.296 E14.06477
G0 F6000 X144.599 Y146.296
G1 F1200 X146.705 Y148.402 E14.1242
G0 F6000 X146.705 Y148.968
G1 F1200 X144.033 Y146.296 E14.19961
G0 F6000 X143.467 Y146.296
G1 F1200 X146.705 Y149.533 E14.29098
G0 F6000 X146.705 Y150.099
G1 F1200 X142.902 Y146.296 E14.39831
G0 F6000 X142.336 Y146.296
G1 F1200 X146.705 Y150.665 E14.52161
G0 F6000 X146.705 Y151.231
G1 F1200 X141.77 Y146.296 E14.66089
G0 F6000 X141.204 Y146.296
G1 F1200 X146.705 Y151.796 E14.81613
G0 F6000 X146.705 Y152.362
G1 F1200 X140.639 Y146.296 E14.98732
G0 F6000 X140.073 Y146.296
G1 F1200 X146.705 Y152.928 E15.17449
G0 F6000 X146.705 Y153.493
G1 F1200 X139.507 Y146.296 E15.37762
G0 F6000 X138.942 Y146.296
G1 F1200 X146.349 Y153.703 E15.58666
G0 F6000 X145.783 Y153.703
G1 F1200 X138.376 Y146.296 E15.7957
G0 F6000 X137.81 Y146.296
G1 F1200 X145.217 Y153.703 E16.00475
G0 F6000 X144.652 Y153.703
G1 F1200 X137.245 Y146.296 E16.21379
G0 F6000 X136.679 Y146.296
G1 F1200 X144.086 Y153.703 E16.42283
G0 F6000 X143.52 Y153.703
G1 F1200 X136.113 Y146.296 E16.63187
G0 F6000 X135.548 Y146.296
G1 F1200 X142.955 Y153.703 E16.84091
G0 F6000 X142.389 Y153.703
G1 F1200 X134.982 Y146.296 E17.04995
G0 F6000 X134.416 Y146.296
G1 F1200 X141.823 Y153.703 E17.25899
G0 F6000 X141.258 Y153.703
G1 F1200 X133.851 Y146.296 E17.46804
G0 F6000 X133.285 Y146.296
G1 F1200 X140.692 Y153.703 E17.67708
G0 F6000 X140.126 Y153.703
G1 F1200 X132.719 Y146.296 E17.88612
G0 F6000 X132.154 Y146.296
G1 F1200 X139.56 Y153.703 E18.09515
G0 F6000 X138.995 Y153.703
G1 F1200 X131.818 Y146.526 E18.2977
G0 F6000 X131.818 Y147.092
G1 F1200 X138.429 Y153.703 E18.48427
G0 F6000 X137.863 Y153.703
G1 F1200 X131.818 Y147.658 E18.65488
G0 F6000 X131.818 Y148.223
G1 F1200 X137.298 Y153.703 E18.80953
G0 F6000 X136.732 Y153.703
G1 F1200 X131.818 Y148.789 E18.94822
G0 F6000 X131.818 Y149.355
G1 F1200 X136.166 Y153.703 E19.07093
G0 F6000 X135.601 Y153.703
G1 F1200 X131.818 Y149.92 E19.17769
G0 F6000 X131.818 Y150.486
G1 F1200 X135.035 Y153.703 E19.26848
G0 F6000 X134.469 Y153.703
G1 F1200 X131.818 Y151.052 E19.3433
G0 F6000 X131.818 Y151.617
G1 F1200 X133.904 Y153.703 E19.40217
G0 F6000 X133.338 Y153.703
G1 F1200 X131.818 Y152.183 E19.44507
G0 F6000 X131.818 Y152.749
G1 F1200 X132.772 Y153.703 E19.47199
G0 F6000 X132.207 Y153.703
G1 F1200 X131.818 Y153.314 E19.48297
G1 F1500 E12.98297
G0 F6000 X131.359 Y153.314
G0 X131.431 Y154.092
G0 X147.094 Y154.092
G0 X147.846 Y153.932
G0 X148.931 Y153.932
G0 X151.886 Y153.932
G0 X152.971 Y153.932
G0 X153.552 Y153.932
;TYPE:WALL-INNER
G1 F1500 E19.48297
G1 F1200 X157.485 Y153.932 E19.56146
G1 X168.741 Y153.932 E19.78608
G1 X168.741 Y146.066 E19.94306
G1 X153.552 Y146.066 E20.24617
G1 X153.552 Y153.932 E20.40315
G0 F6000 X153.152 Y154.332
G1 F1200 X157.485 Y154.332 E20.48962
G1 X169.141 Y154.332 E20.72222
G1 X169.141 Y145.666 E20.89516
G1 X153.152 Y145.666 E21.21424
G1 X153.152 Y154.332 E21.38718
G0 F6000 X152.752 Y154.732
;TYPE:WALL-OUTER
G1 F1200 X157.485 Y154.732 E21.48163
G1 X169.541 Y154.732 E21.72222
G1 X169.541 Y145.266 E21.91113
G1 X152.752 Y145.266 E22.24617
G1 X152.752 Y154.732 E22.43507
G0 F6000 X153.021 Y154.462
G0 X153.652 Y153.572
G0 X153.912 Y153.572
;TYPE:SKIN
G1 F1200 X168.381 Y153.572 E22.72382
G1 X168.381 Y149.999 E22.79512
G1 X168.381 Y146.426 E22.86643
G1 X153.912 Y146.426 E23.15517
G1 X153.912 Y153.572 E23.29778
G0 F6000 X154.503 Y153.372
G1 F1200 X154.111 Y152.979 E23.30885
G0 F6000 X154.111 Y152.414
G1 F1200 X155.069 Y153.372 E23.33589
G0 F6000 X155.634 Y153.372
G1 F1200 X154.111 Y151.848 E23.37889
G0 F6000 X154.111 Y151.282
G1 F1200 X156.2 Y153.372 E23.43786
G0 F6000 X156.766 Y153.372
G1 F1200 X154.111 Y150.716 E23.5128
G0 F6000 X154.111 Y150.151
G1 F1200 X157.331 Y153.372 E23.60369
G0 F6000 X157.897 Y153.372
G1 F1200 X154.111 Y149.585 E23.71055
G0 F6000 X154.111 Y149.019
G1 F1200 X158.463 Y153.372 E23.83339
G0 F6000 X159.029 Y153.372
G1 F1200 X154.111 Y148.454 E23.97219
G0 F6000 X154.111 Y147.888
G1 F1200 X159.594 Y153.372 E24.12694
G0 F6000 X160.16 Y153.372
G1 F1200 X154.111 Y147.322 E24.29767
G0 F6000 X154.111 Y146.757
G1 F1200 X160.726 Y153.372 E24.48436
G0 F6000 X161.291 Y153.372
G1 F1200 X154.545 Y146.626 E24.67475
G0 F6000 X155.111 Y146.626
G1 F1200 X161.857 Y153.372 E24.86514
G0 F6000 X162.423 Y153.372
G1 F1200 X155.677 Y146.626 E25.05552
G0 F6000 X156.243 Y146.626
G1 F1200 X162.988 Y153.372 E25.2459
G0 F6000 X163.554 Y153.372
G1 F1200 X156.808 Y146.626 E25.43628
G0 F6000 X157.374 Y146.626
G1 F1200 X164.12 Y153.372 E25.62667
G0 F6000 X164.685 Y153.372
G1 F1200 X157.94 Y146.626 E25.81704
G0 F6000 X158.505 Y146.626
G1 F1200 X165.251 Y153.372 E26.00743
G0 F6000 X165.817 Y153.372
G1 F1200 X159.071 Y146.626 E26.19781
G0 F6000 X159.637 Y146.626
G1 F1200 X166.382 Y153.372 E26.38819
G0 F6000 X166.948 Y153.372
G1 F1200 X160.202 Y146.626 E26.57857
G0 F6000 X160.768 Y146.626
