;FLAVOR:Marlin
;TIME:3190
;Filament used: 2.06596m
;Layer height: 0.2
;MINX:88.209
;MINY:85.653
;MINZ:0.2
;MAXX:211.671
;MAXY:214.323
;MAXZ:2.8
;Generated with Cura_SteamEngine 5.2.1
M140 S60
M105
M190 S60
M104 S210
M105
M109 S210
M82 ;absolute extrusion mode
; Ender 3 Max Custom Start G-code
G92 E0 ; Reset Extruder
G28 ; Home all axes
G1 Z2.0 F3000 ; Move Z Axis up little to prevent scratching of Heat Bed
G1 X0.1 Y20 Z0.3 F5000.0 ; Move to start position
G1 X0.1 Y200.0 Z0.3 F1500.0 E15 ; Draw the first line
G1 X0.4 Y200.0 Z0.3 F5000.0 ; Move to side a little
G1 X0.4 Y20 Z0.3 F1500.0 E30 ; Draw the second line
G92 E0 ; Reset Extruder
G1 Z2.0 F3000 ; Move Z Axis up little to prevent scratching of Heat Bed
G1 X5 Y20 Z0.3 F5000.0 ; Move over to prevent blob squish
G92 E0
G92 E0
G1 F1500 E-6.5
;LAYER_COUNT:14
;LAYER:0
M107
G0 F6000 X92.133 Y108.603 Z0.2
;TYPE:SKIRT
G1 F1500 E0
G1 F1200 X92.876 Y108.031 E0.03119
G1 X93.666 Y107.525 E0.06239
G1 X94.495 Y107.087 E0.09357
G1 X95.359 Y106.722 E0.12477
G1 X96.251 Y106.432 E0.15597
G1 X97.164 Y106.218 E0.18716
G1 X98.092 Y106.084 E0.21834
G1 X99.14 Y106.027 E0.25325
G1 X99.661 Y106.026 E0.27058
G1 X101.671 Y106.049 E0.33744
G1 X104.152 Y106.006 E0.41997
G1 X106.709 Y105.889 E0.5051
G1 X109.204 Y105.705 E0.58831
G1 X111.736 Y105.445 E0.67297
G1 X114.183 Y105.124 E0.75505
G1 X116.7 Y104.722 E0.83983
G1 X119.174 Y104.253 E0.92358
G1 X121.636 Y103.715 E1.0074
G1 X124.031 Y103.121 E1.08947
G1 X126.475 Y102.439 E1.17387
G1 X128.924 Y101.681 E1.25913
G1 X131.261 Y100.885 E1.34125
G1 X133.662 Y99.989 E1.42648
G1 X135.964 Y99.057 E1.50908
G1 X138.27 Y98.045 E1.59284
G1 X140.563 Y96.962 E1.67719
G1 X142.809 Y95.821 E1.76098
G1 X144.989 Y94.636 E1.8435
G1 X147.191 Y93.355 E1.92823
G1 X149.323 Y92.036 E2.01162
G1 X151.428 Y90.649 E2.09546
G1 X153.476 Y89.212 E2.17867
G1 X155.393 Y87.796 E2.25794
G1 X156.171 Y87.272 E2.28914
G1 X156.99 Y86.816 E2.32032
G1 X157.845 Y86.431 E2.35151
G1 X158.73 Y86.12 E2.38271
G1 X159.639 Y85.886 E2.41392
G1 X160.563 Y85.73 E2.44509
G1 X161.498 Y85.653 E2.4763
G1 X162.436 Y85.657 E2.50749
G1 X163.37 Y85.74 E2.53868
G1 X164.294 Y85.902 E2.56988
G1 X165.2 Y86.143 E2.60106
G1 X166.083 Y86.46 E2.63227
G1 X166.935 Y86.851 E2.66345
G1 X167.752 Y87.313 E2.69466
G1 X168.525 Y87.843 E2.72584
G1 X169.251 Y88.437 E2.75704
G1 X169.924 Y89.091 E2.78825
G1 X170.538 Y89.799 E2.81942
G1 X171.09 Y90.558 E2.85063
G1 X171.575 Y91.36 E2.88181
G1 X171.99 Y92.201 E2.913
G1 X172.422 Y93.348 E2.95376
G1 X173.115 Y95.554 E3.03067
G1 X173.945 Y97.968 E3.11557
G1 X174.833 Y100.332 E3.19956
G1 X175.776 Y102.641 E3.28252
G1 X176.8 Y104.958 E3.36677
G1 X177.869 Y107.204 E3.44951
G1 X179.024 Y109.463 E3.53389
G1 X180.234 Y111.674 E3.61772
G1 X181.502 Y113.844 E3.70132
G1 X182.837 Y115.986 E3.78526
G1 X184.217 Y118.067 E3.86831
G1 X185.676 Y120.136 E3.95252
G1 X187.192 Y122.164 E4.03673
G1 X188.737 Y124.112 E4.11943
G1 X190.364 Y126.049 E4.20356
G1 X192.044 Y127.937 E4.28762
G1 X193.749 Y129.749 E4.37037
G1 X195.554 Y131.56 E4.45542
G1 X197.359 Y133.272 E4.53816
G1 X199.259 Y134.973 E4.62298
G1 X201.158 Y136.58 E4.70572
G1 X203.131 Y138.157 E4.78973
G1 X205.141 Y139.672 E4.87344
G1 X207.069 Y141.05 E4.95226
G1 X207.808 Y141.628 E4.98347
G1 X208.495 Y142.266 E5.01465
G1 X209.125 Y142.961 E5.04585
G1 X209.694 Y143.706 E5.07703
G1 X210.198 Y144.498 E5.10825
G1 X210.632 Y145.329 E5.13944
G1 X210.993 Y146.194 E5.17061
G1 X211.28 Y147.087 E5.20181
G1 X211.489 Y148.002 E5.23303
G1 X211.62 Y148.93 E5.2642
G1 X211.671 Y149.867 E5.29541
G1 X211.642 Y150.804 E5.32659
G1 X211.534 Y151.736 E5.35779
G1 X211.347 Y152.655 E5.38899
G1 X211.082 Y153.554 E5.42016
G1 X210.741 Y154.428 E5.45136
G1 X210.327 Y155.27 E5.48257
G1 X209.843 Y156.073 E5.51375
G1 X209.292 Y156.832 E5.54495
G1 X208.679 Y157.542 E5.57615
G1 X208.007 Y158.196 E5.60734
G1 X207.06 Y158.954 E5.64768
G1 X205.152 Y160.315 E5.72563
G1 X203.115 Y161.849 E5.81044
G1 X201.171 Y163.403 E5.89322
G1 X199.22 Y165.054 E5.97823
G1 X197.35 Y166.729 E6.06173
G1 X195.556 Y168.429 E6.14393
G1 X193.74 Y170.253 E6.22954
G1 X192.042 Y172.056 E6.31191
G1 X190.34 Y173.969 E6.39708
G1 X188.752 Y175.858 E6.47916
G1 X187.16 Y177.865 E6.56436
G1 X185.674 Y179.851 E6.64686
G1 X184.21 Y181.93 E6.73143
G1 X182.826 Y184.016 E6.81469
G1 X181.494 Y186.151 E6.89839
G1 X180.219 Y188.332 E6.98242
G1 X179.024 Y190.514 E7.06516
G1 X177.867 Y192.78 E7.14978
G1 X176.776 Y195.072 E7.23421
G1 X175.775 Y197.337 E7.31658
G1 X174.802 Y199.72 E7.40219
G1 X173.942 Y202.012 E7.48361
G1 X173.097 Y204.467 E7.56996
G1 X172.41 Y206.64 E7.64576
G1 X172.09 Y207.522 E7.67697
G1 X171.695 Y208.373 E7.70818
G1 X171.229 Y209.187 E7.73937
G1 X170.696 Y209.958 E7.77055
G1 X170.099 Y210.682 E7.80176
G1 X169.443 Y211.351 E7.83292
G1 X168.732 Y211.963 E7.86412
G1 X167.971 Y212.511 E7.89531
G1 X167.166 Y212.993 E7.92652
G1 X166.324 Y213.405 E7.9577
G1 X165.449 Y213.743 E7.9889
G1 X164.549 Y214.006 E8.02008
G1 X163.629 Y214.191 E8.05129
G1 X162.697 Y214.297 E8.08249
G1 X161.76 Y214.323 E8.11367
G1 X160.823 Y214.269 E8.14489
G1 X159.895 Y214.136 E8.17607
G1 X158.981 Y213.924 E8.20727
G1 X158.089 Y213.635 E8.23846
G1 X157.225 Y213.271 E8.26964
G1 X156.395 Y212.834 E8.30084
G1 X155.49 Y212.247 E8.33672
G1 X155.031 Y211.915 E8.35556
G1 X153.514 Y210.787 E8.41844
G1 X151.451 Y209.341 E8.50223
G1 X149.365 Y207.966 E8.58533
G1 X147.203 Y206.627 E8.66991
G1 X145.048 Y205.376 E8.75279
G1 X142.815 Y204.161 E8.83734
G1 X140.556 Y203.014 E8.9216
G1 X138.31 Y201.952 E9.00423
G1 X136.01 Y200.945 E9.08774
G1 X133.652 Y199.988 E9.17238
G1 X131.303 Y199.113 E9.25576
G1 X128.948 Y198.311 E9.3385
G1 X126.498 Y197.553 E9.4238
G1 X124.093 Y196.883 E9.50684
G1 X121.635 Y196.273 E9.59107
G1 X119.184 Y195.737 E9.67452
G1 X116.735 Y195.274 E9.75741
G1 X114.22 Y194.871 E9.84213
G1 X111.722 Y194.544 E9.92592
G1 X109.239 Y194.289 E10.00894
G1 X106.745 Y194.105 E10.09212
G1 X104.177 Y193.988 E10.17762
G1 X101.7 Y193.945 E10.26002
G1 X99.313 Y193.964 E10.33941
G1 X98.376 Y193.931 E10.3706
G1 X97.445 Y193.819 E10.40178
G1 X96.526 Y193.628 E10.433
G1 X95.628 Y193.359 E10.46418
G1 X94.755 Y193.015 E10.49539
G1 X93.916 Y192.598 E10.52655
G1 X93.114 Y192.11 E10.55778
G1 X92.357 Y191.557 E10.58896
G1 X91.65 Y190.94 E10.62017
G1 X90.998 Y190.266 E10.65136
G1 X90.406 Y189.539 E10.68254
G1 X89.878 Y188.764 E10.71373
G1 X89.418 Y187.946 E10.74495
G1 X89.029 Y187.093 E10.77613
G1 X88.715 Y186.209 E10.80733
G1 X88.476 Y185.302 E10.83853
G1 X88.316 Y184.378 E10.86972
G1 X88.235 Y183.444 E10.9009
G1 X88.235 Y182.506 E10.93209
G1 X88.313 Y181.571 E10.9633
G1 X88.472 Y180.647 E10.99448
G1 X88.797 Y179.463 E11.03532
G1 X89.504 Y177.357 E11.10921
G1 X90.254 Y174.915 E11.19417
G1 X90.918 Y172.51 E11.27716
G1 X91.521 Y170.055 E11.36124
G1 X92.055 Y167.582 E11.44539
G1 X92.515 Y165.118 E11.52876
G1 X92.905 Y162.645 E11.61202
G1 X93.229 Y160.128 E11.69643
G1 X93.477 Y157.648 E11.77933
G1 X93.658 Y155.129 E11.86333
G1 X93.766 Y152.611 E11.94715
G1 X93.804 Y150.087 E12.03111
G1 X93.77 Y147.563 E12.11507
G1 X93.666 Y145.077 E12.19782
G1 X93.489 Y142.549 E12.28211
G1 X93.242 Y140.044 E12.36583
G1 X92.924 Y137.539 E12.44982
G1 X92.536 Y135.059 E12.53331
G1 X92.077 Y132.579 E12.61719
G1 X91.555 Y130.147 E12.69992
G1 X90.957 Y127.697 E12.7838
G1 X90.287 Y125.257 E12.86796
G1 X89.552 Y122.849 E12.9517
G1 X88.771 Y120.506 E13.03384
G1 X88.513 Y119.604 E13.06505
G1 X88.332 Y118.684 E13.09623
G1 X88.231 Y117.751 E13.12744
G1 X88.209 Y116.814 E13.15862
G1 X88.267 Y115.878 E13.18981
G1 X88.405 Y114.95 E13.22101
G1 X88.621 Y114.037 E13.25222
G1 X88.914 Y113.146 E13.28342
G1 X89.282 Y112.284 E13.31459
G1 X89.722 Y111.456 E13.34577
G1 X90.231 Y110.668 E13.37698
G1 X90.806 Y109.926 E13.4082
G1 X91.441 Y109.237 E13.43936
G1 X92.133 Y108.603 E13.47058
G0 F6000 X92.573 Y108.76
G1 F1200 X93.315 Y108.215 E13.5012
G1 X94.102 Y107.737 E13.53182
G1 X94.928 Y107.329 E13.56247
G1 X95.785 Y106.994 E13.59307
G1 X96.669 Y106.735 E13.62371
G1 X97.571 Y106.554 E13.65431
G1 X98.486 Y106.452 E13.68493
G1 X99.142 Y106.427 E13.70676
G1 X99.656 Y106.426 E13.72386
G1 X101.673 Y106.449 E13.79095
G1 X104.179 Y106.406 E13.87431
G1 X106.721 Y106.29 E13.95895
G1 X109.238 Y106.103 E14.04289
G1 X111.758 Y105.845 E14.12715
G1 X114.261 Y105.517 E14.21111
G1 X116.772 Y105.115 E14.29569
G1 X119.255 Y104.645 E14.37974
G1 X121.712 Y104.108 E14.46339
G1 X124.129 Y103.508 E14.54622
G1 X126.628 Y102.811 E14.63251
G1 X129.002 Y102.076 E14.71516
G1 X131.413 Y101.255 E14.79988
G1 X133.816 Y100.359 E14.88518
G1 X136.109 Y99.43 E14.96746
G1 X138.452 Y98.401 E15.05258
G1 X140.707 Y97.336 E15.13552
G1 X143.002 Y96.171 E15.22112
G1 X145.201 Y94.975 E15.30438
G1 X147.397 Y93.698 E15.38887
G1 X149.532 Y92.377 E15.47238
G1 X151.648 Y90.982 E15.55667
G1 X153.731 Y89.521 E15.6413
G1 X155.631 Y88.118 E15.71985
G1 X156.395 Y87.604 E15.75048
G1 X157.2 Y87.158 E15.78109
G1 X158.041 Y86.783 E15.81171
G1 X158.911 Y86.483 E15.84232
G1 X159.805 Y86.26 E15.87297
G1 X160.714 Y86.115 E15.90358
G1 X161.632 Y86.049 E15.9342
G1 X162.553 Y86.063 E15.96483
G1 X163.468 Y86.158 E15.99543
G1 X164.373 Y86.331 E16.02607
G1 X165.258 Y86.582 E16.05667
G1 X166.119 Y86.909 E16.0873
G1 X166.948 Y87.309 E16.11792
G1 X167.739 Y87.78 E16.14854
G1 X168.486 Y88.318 E16.17915
G1 X169.184 Y88.918 E16.20977
G1 X169.827 Y89.577 E16.24039
G1 X170.411 Y90.289 E16.27102
G1 X170.931 Y91.049 E16.30165
G1 X171.382 Y91.851 E16.33225
G1 X171.762 Y92.69 E16.36289
G1 X172.041 Y93.468 E16.39038
G1 X172.742 Y95.7 E16.46819
G1 X173.565 Y98.091 E16.55229
G1 X174.465 Y100.488 E16.63745
G1 X175.411 Y102.805 E16.72069
G1 X176.422 Y105.093 E16.80389
G1 X177.516 Y107.392 E16.88857
G1 X178.675 Y109.659 E16.97325
G1 X179.881 Y111.862 E17.05678
G1 X181.149 Y114.032 E17.14038
G1 X182.507 Y116.212 E17.2258
G1 X183.89 Y118.296 E17.30899
G1 X185.344 Y120.36 E17.39296
G1 X186.874 Y122.406 E17.47794
G1 X188.45 Y124.393 E17.56229
G1 X190.058 Y126.306 E17.64541
G1 X191.737 Y128.194 E17.72944
G1 X193.492 Y130.058 E17.81459
G1 X195.242 Y131.814 E17.89705
G1 X197.1 Y133.577 E17.98224
G1 X198.98 Y135.26 E18.06616
G1 X200.917 Y136.899 E18.15056
G1 X202.882 Y138.469 E18.23421
G1 X204.933 Y140.015 E18.31964
G1 X206.836 Y141.376 E18.39745
G1 X207.561 Y141.943 E18.42806
G1 X208.234 Y142.571 E18.45868
G1 X208.85 Y143.256 E18.48932
G1 X209.405 Y143.991 E18.51995
G1 X209.893 Y144.771 E18.55056
G1 X210.312 Y145.591 E18.58118
G1 X210.658 Y146.444 E18.6118
G1 X210.929 Y147.324 E18.64242
G1 X211.122 Y148.224 E18.67304
G1 X211.237 Y149.138 E18.70368
G1 X211.272 Y150.058 E18.7343
G1 X211.227 Y150.977 E18.7649
G1 X211.102 Y151.889 E18.79552
G1 X210.899 Y152.787 E18.82614
G1 X210.618 Y153.664 E18.85677
G1 X210.263 Y154.513 E18.88738
G1 X209.835 Y155.328 E18.918
G1 X209.338 Y156.103 E18.94862
G1 X208.775 Y156.832 E18.97925
G1 X208.152 Y157.51 E19.00988
G1 X207.472 Y158.13 E19.04048
G1 X206.828 Y158.628 E19.06756
G1 X204.919 Y159.99 E19.14556
G1 X202.871 Y161.533 E19.23084
G1 X200.891 Y163.115 E19.31514
G1 X198.977 Y164.734 E19.39852
G1 X197.092 Y166.424 E19.48272
G1 X195.245 Y168.174 E19.56735
G1 X193.483 Y169.943 E19.65039
G1 X191.735 Y171.799 E19.73519
G1 X190.052 Y173.692 E19.81944
G1 X188.434 Y175.615 E19.90302
G1 X186.842 Y177.622 E19.98823
G1 X185.343 Y179.626 E20.07147
G1 X183.894 Y181.683 E20.15515
G1 X182.486 Y183.805 E20.23985
G1 X181.153 Y185.943 E20.32365
G1 X179.873 Y188.132 E20.40799
G1 X178.654 Y190.358 E20.4924
G1 X177.506 Y192.605 E20.57633
G1 X176.42 Y194.888 E20.66041
G1 X175.402 Y197.191 E20.74416
G1 X174.445 Y199.535 E20.82837
G1 X173.548 Y201.924 E20.91325
G1 X172.732 Y204.295 E20.99665
G1 X172.029 Y206.52 E21.07426
G1 X171.713 Y207.385 E21.10489
G1 X171.324 Y208.219 E21.13549
G1 X170.864 Y209.016 E21.1661
G1 X170.336 Y209.771 E21.19674
G1 X169.745 Y210.477 E21.22737
G1 X169.095 Y211.128 E21.25796
G1 X168.391 Y211.721 E21.28858
G1 X167.638 Y212.251 E21.31921
G1 X166.841 Y212.713 E21.34985
G1 X166.008 Y213.105 E21.38047
G1 X165.144 Y213.422 E21.41108
G1 X164.256 Y213.664 E21.44169
G1 X163.35 Y213.827 E21.4723
G1 X162.433 Y213.912 E21.50294
G1 X161.512 Y213.916 E21.53357
G1 X160.595 Y213.841 E21.56417
G1 X159.687 Y213.686 E21.59481
G1 X158.796 Y213.453 E21.62544
G1 X157.929 Y213.143 E21.65606
G1 X157.092 Y212.76 E21.68668
G1 X156.292 Y212.305 E21.71729
G1 X155.724 Y211.923 E21.74005
G1 X153.76 Y210.471 E21.82129
G1 X151.671 Y209.007 E21.90613
G1 X149.564 Y207.618 E21.99007
G1 X147.419 Y206.29 E22.07398
G1 X145.219 Y205.012 E22.1586
G1 X143.023 Y203.817 E22.24176
G1 X140.758 Y202.668 E22.32623
G1 X138.476 Y201.589 E22.41019
G1 X136.141 Y200.566 E22.49498
G1 X133.793 Y199.614 E22.57924
G1 X131.466 Y198.747 E22.66184
G1 X129.026 Y197.916 E22.74757
G1 X126.641 Y197.178 E22.83061
G1 X124.2 Y196.498 E22.91489
G1 X121.711 Y195.88 E23.00018
G1 X119.271 Y195.346 E23.08326
G1 X116.801 Y194.879 E23.16687
G1 X114.264 Y194.473 E23.25232
G1 X111.778 Y194.148 E23.33571
G1 X109.273 Y193.89 E23.41947
G1 X106.758 Y193.705 E23.50334
G1 X104.202 Y193.588 E23.58845
G1 X101.703 Y193.545 E23.67158
G1 X99.31 Y193.564 E23.75117
G1 X98.39 Y193.531 E23.78179
G1 X97.476 Y193.419 E23.81242
G1 X96.575 Y193.228 E23.84305
G1 X95.695 Y192.959 E23.87365
G1 X94.841 Y192.615 E23.90428
G1 X94.02 Y192.198 E23.9349
G1 X93.238 Y191.712 E23.96553
G1 X92.502 Y191.159 E23.99615
G1 X91.816 Y190.545 E24.02677
G1 X91.186 Y189.873 E24.0574
G1 X90.617 Y189.15 E24.088
G1 X90.113 Y188.38 E24.11861
G1 X89.677 Y187.568 E24.14927
G1 X89.314 Y186.723 E24.17986
G1 X89.025 Y185.848 E24.2105
G1 X88.813 Y184.952 E24.24113
G1 X88.68 Y184.041 E24.27175
G1 X88.626 Y183.122 E24.30237
G1 X88.652 Y182.202 E24.33298
G1 X88.758 Y181.288 E24.36358
G1 X88.943 Y180.386 E24.39421
G1 X89.176 Y179.591 E24.42176
G1 X89.894 Y177.453 E24.49678
G1 X90.626 Y175.067 E24.57979
G1 X91.305 Y172.607 E24.66466
G1 X91.914 Y170.13 E24.7495
G1 X92.446 Y167.669 E24.83325
G1 X92.91 Y165.183 E24.91736
G1 X93.302 Y162.692 E25.00123
G1 X93.625 Y160.186 E25.08527
G1 X93.876 Y157.677 E25.16914
G1 X94.058 Y155.141 E25.2537
G1 X94.166 Y152.633 E25.33719
G1 X94.204 Y150.058 E25.42285
G1 X94.17 Y147.576 E25.50541
G1 X94.064 Y145.033 E25.59006
G1 X93.887 Y142.514 E25.67405
G1 X93.639 Y139.99 E25.7584
G1 X93.322 Y137.498 E25.84196
G1 X92.932 Y134.999 E25.92608
G1 X92.468 Y132.493 E26.01085
G1 X91.941 Y130.039 E26.09433
G1 X91.346 Y127.602 E26.17776
G1 X90.672 Y125.149 E26.26237
G1 X89.928 Y122.71 E26.34719
G1 X89.151 Y120.379 E26.42891
G1 X88.898 Y119.494 E26.45952
G1 X88.723 Y118.59 E26.49015
G1 X88.627 Y117.674 E26.52078
G1 X88.611 Y116.754 E26.55139
G1 X88.674 Y115.835 E26.58202
G1 X88.817 Y114.926 E26.61263
G1 X89.039 Y114.032 E26.64327
G1 X89.337 Y113.161 E26.67388
G1 X89.71 Y112.319 E26.70451
G1 X90.154 Y111.513 E26.73512
G1 X90.667 Y110.748 E26.76576
G1 X91.244 Y110.031 E26.79637
G1 X91.881 Y109.366 E26.82699
G1 X92.573 Y108.76 E26.85759
G0 F6000 X93.013 Y108.923
G1 F1200 X93.754 Y108.407 E26.88762
G1 X94.538 Y107.958 E26.91767
G1 X95.359 Y107.581 E26.94772
G1 X96.209 Y107.277 E26.97774
G1 X97.083 Y107.051 E27.00777
G1 X97.974 Y106.902 E27.03781
G1 X99.145 Y106.827 E27.07684
G1 X101.676 Y106.849 E27.16103
G1 X104.204 Y106.806 E27.24512
G1 X106.733 Y106.69 E27.32932
G1 X109.275 Y106.502 E27.4141
G1 X111.814 Y106.242 E27.49899
G1 X114.305 Y105.915 E27.58255
G1 X116.838 Y105.51 E27.66787
G1 X119.316 Y105.041 E27.75175
G1 X121.814 Y104.494 E27.83681
G1 X124.269 Y103.886 E27.92093
G1 X126.707 Y103.205 E28.00512
G1 X129.144 Y102.451 E28.08996
G1 X131.545 Y101.633 E28.17433
G1 X133.926 Y100.745 E28.25885
G1 X136.283 Y99.79 E28.34343
