;FLAVOR:Marlin
;TIME:29308
;Filament used: 18.1549m
;Layer height: 0.2
;MINX:63.56
;MINY:21.326
;MINZ:0.2
;MAXX:240.694
;MAXY:260.505
;MAXZ:15.4
;Generated with Cura_SteamEngine 5.2.1
M140 S60
M105
M190 S60
M104 S215
M105
M109 S215
M82 ;absolute extrusion mode
; Ender 3 Max Custom Start G-code
G92 E0 ; Reset Extruder
G28 ; Home all axes
G1 Z2.0 F3000 ; Move Z Axis up little to prevent scratching of Heat Bed
G1 X0.1 Y20 Z0.3 F5000.0 ; Move to start position
G1 X0.1 Y200.0 Z0.3 F1500.0 E15 ; Draw the first line
G1 X0.4 Y200.0 Z0.3 F5000.0 ; Move to side a little
G1 X0.4 Y20 Z0.3 F1500.0 E30 ; Draw the second line
G92 E0 ; Reset Extruder
G1 Z2.0 F3000 ; Move Z Axis up little to prevent scratching of Heat Bed
G1 X5 Y20 Z0.3 F5000.0 ; Move over to prevent blob squish
G92 E0
G92 E0
G1 F1500 E-6.5
;LAYER_COUNT:77
;LAYER:0
M107
G0 F6000 X66.319 Y48.504 Z0.2
;TYPE:SKIRT
G1 F1500 E0
G1 F1200 X67.4 Y47.144 E0.05778
G1 X68.949 Y45.119 E0.14258
G1 X70.427 Y43.068 E0.22666
G1 X70.927 Y42.336 E0.25615
G1 X71.412 Y41.647 E0.28417
G1 X71.773 Y41.164 E0.30423
G1 X71.978 Y40.905 E0.31521
G1 X72.872 Y39.907 E0.35978
G1 X73.205 Y39.578 E0.37535
G1 X73.9 Y38.948 E0.40655
G1 X74.309 Y38.623 E0.42392
G1 X74.619 Y38.389 E0.43684
G1 X75.515 Y37.78 E0.47287
G1 X75.9 Y37.545 E0.48788
G1 X76.721 Y37.091 E0.51908
G1 X77.169 Y36.88 E0.53555
G1 X77.685 Y36.651 E0.55433
G1 X78.388 Y36.367 E0.57954
G1 X80.922 Y35.446 E0.66922
G1 X83.274 Y34.514 E0.75336
G1 X85.605 Y33.513 E0.83774
G1 X87.857 Y32.47 E0.92029
G1 X89.024 Y31.891 E0.96361
G1 X89.604 Y31.613 E0.98501
G1 X90.467 Y31.244 E1.01622
G1 X91.357 Y30.951 E1.04739
G1 X92.27 Y30.734 E1.0786
G1 X93.198 Y30.597 E1.1098
G1 X94.164 Y30.538 E1.14199
G1 X95.217 Y30.525 E1.17702
G1 X95.706 Y30.532 E1.19328
G1 X98.962 Y30.631 E1.30163
G1 X101.485 Y30.631 E1.38554
G1 X103.999 Y30.561 E1.46919
G1 X107.309 Y30.361 E1.57948
G1 X107.803 Y30.322 E1.59596
G1 X108.458 Y30.291 E1.61777
G1 X109.282 Y30.276 E1.64518
G1 X110.129 Y30.282 E1.67336
G1 X113.392 Y30.378 E1.78193
G1 X115.915 Y30.378 E1.86585
G1 X118.388 Y30.307 E1.94813
G1 X121.609 Y30.114 E2.05546
G1 X122.205 Y30.068 E2.07534
G1 X122.855 Y30.037 E2.09698
G1 X124.002 Y30.022 E2.13513
G1 X124.767 Y30.038 E2.16058
G1 X125.712 Y30.078 E2.19204
G1 X128.365 Y30.153 E2.28032
G1 X130.852 Y30.153 E2.36304
G1 X133.385 Y30.081 E2.44732
G1 X136.472 Y29.896 E2.55018
G1 X136.936 Y29.878 E2.56562
G1 X138.191 Y29.861 E2.60737
G1 X139.313 Y29.878 E2.64469
G1 X141.003 Y29.926 E2.70092
G1 X143.494 Y29.928 E2.78377
G1 X146.015 Y29.857 E2.86765
G1 X149.28 Y29.661 E2.97644
G1 X150.381 Y29.576 E3.01317
G1 X151.036 Y29.545 E3.03498
G1 X152.175 Y29.53 E3.07287
G1 X152.969 Y29.546 E3.09928
G1 X154.123 Y29.595 E3.1377
G1 X156.667 Y29.668 E3.22235
G1 X159.19 Y29.668 E3.30626
G1 X161.694 Y29.598 E3.38958
G1 X163.437 Y29.492 E3.44766
G1 X164.814 Y29.429 E3.4935
G1 X166.065 Y29.412 E3.53512
G1 X166.876 Y29.428 E3.5621
G1 X167.794 Y29.467 E3.59266
G1 X170.337 Y29.54 E3.67727
G1 X172.861 Y29.54 E3.76122
G1 X175.384 Y29.47 E3.84517
G1 X177.356 Y29.351 E3.91088
G1 X178.65 Y29.287 E3.95397
G1 X180.215 Y29.236 E4.00605
G1 X182.717 Y29.086 E4.08941
G1 X185.247 Y28.862 E4.17389
G1 X187.729 Y28.571 E4.25701
G1 X190.211 Y28.209 E4.34043
G1 X192.707 Y27.773 E4.42471
G1 X195.197 Y27.264 E4.50924
G1 X197.602 Y26.703 E4.59138
G1 X200.049 Y26.058 E4.67554
G1 X202.46 Y25.347 E4.75915
G1 X204.9 Y24.554 E4.84448
G1 X207.223 Y23.724 E4.92653
G1 X209.881 Y22.686 E5.02144
G1 X211.028 Y22.218 E5.06264
G1 X211.911 Y21.901 E5.09384
G1 X212.818 Y21.66 E5.12506
G1 X213.741 Y21.497 E5.15623
G1 X214.667 Y21.414 E5.18715
G1 X215.672 Y21.368 E5.22061
G1 X216.543 Y21.341 E5.2496
G1 X217.395 Y21.326 E5.27794
G1 X218.333 Y21.35 E5.30915
G1 X219.265 Y21.453 E5.34033
G1 X220.185 Y21.636 E5.37153
G1 X221.086 Y21.896 E5.40272
G1 X221.962 Y22.233 E5.43394
G1 X222.805 Y22.642 E5.4651
G1 X223.988 Y23.38 E5.51148
G1 X224.4 Y23.675 E5.52833
G1 X226.188 Y25.006 E5.60247
G1 X226.726 Y25.418 E5.62501
G1 X227.446 Y26.019 E5.6562
G1 X228.089 Y26.655 E5.68628
G1 X229.061 Y27.699 E5.73373
G1 X229.591 Y28.286 E5.76003
G1 X230.189 Y29.01 E5.79126
G1 X230.71 Y29.762 E5.82169
G1 X231.363 Y30.795 E5.86234
G1 X232.39 Y32.445 E5.92698
G1 X233.847 Y34.699 E6.01625
G1 X235.266 Y36.763 E6.09955
G1 X236.844 Y38.926 E6.18861
G1 X237.363 Y39.706 E6.21977
G1 X237.815 Y40.528 E6.25097
G1 X238.195 Y41.386 E6.28218
G1 X238.358 Y41.827 E6.29782
G1 X238.545 Y42.37 E6.31692
G1 X238.774 Y43.094 E6.34217
G1 X239.013 Y44 E6.37334
G1 X239.174 Y44.924 E6.40453
G1 X239.256 Y45.859 E6.43575
G1 X239.258 Y46.797 E6.46695
G1 X239.141 Y48.008 E6.50741
G1 X239.065 Y48.504 E6.5241
G1 X238.703 Y51.117 E6.61184
G1 X238.429 Y53.608 E6.69519
G1 X238.228 Y56.096 E6.77821
G1 X238.093 Y58.634 E6.86275
G1 X238.031 Y61.164 E6.94692
G1 X238.037 Y63.378 E7.02056
G1 X238.044 Y63.476 E7.02383
G1 X238.067 Y65.07 E7.07685
G1 X238.174 Y67.593 E7.16084
G1 X238.351 Y70.087 E7.244
G1 X238.599 Y72.585 E7.32749
G1 X238.917 Y75.074 E7.41095
G1 X239.311 Y77.583 E7.49542
G1 X239.773 Y80.067 E7.57946
G1 X240.244 Y82.288 E7.65497
G1 X240.399 Y83.213 E7.68617
G1 X240.475 Y84.148 E7.71737
G1 X240.474 Y85.022 E7.74644
G1 X240.415 Y86.46 E7.7943
G1 X240.351 Y89.056 E7.88067
G1 X240.361 Y91.662 E7.96735
G1 X240.384 Y92.961 E8.01056
G1 X240.377 Y93.933 E8.04289
G1 X240.334 Y95.666 E8.10055
G1 X240.341 Y98.161 E8.18353
G1 X240.421 Y100.693 E8.26779
G1 X240.453 Y101.394 E8.29113
G1 X240.455 Y102.332 E8.32233
G1 X240.378 Y103.267 E8.35353
G1 X240.222 Y104.192 E8.38473
G1 X239.98 Y105.123 E8.41673
G1 X239.76 Y105.84 E8.44167
G1 X239.487 Y106.651 E8.47013
G1 X239.143 Y107.524 E8.50134
G1 X238.727 Y108.364 E8.53252
G1 X238.101 Y109.369 E8.5719
G1 X237.191 Y110.66 E8.62443
G1 X235.787 Y112.717 E8.70727
G1 X234.402 Y114.874 E8.79252
G1 X233.132 Y116.985 E8.87446
G1 X231.89 Y119.184 E8.95846
G1 X230.709 Y121.425 E9.04271
G1 X229.594 Y123.691 E9.12671
G1 X228.553 Y125.967 E9.20995
G1 X227.571 Y128.287 E9.29374
G1 X226.65 Y130.645 E9.37794
G1 X225.811 Y132.984 E9.46059
G1 X225.012 Y135.431 E9.54621
G1 X224.319 Y137.772 E9.62741
G1 X223.66 Y140.257 E9.71292
G1 X223.08 Y142.729 E9.79737
G1 X222.582 Y145.152 E9.87964
G1 X222.147 Y147.623 E9.96309
G1 X221.776 Y150.142 E10.04778
G1 X221.482 Y152.626 E10.13097
G1 X221.255 Y155.153 E10.21536
G1 X221.103 Y157.636 E10.2981
G1 X221.019 Y160.21 E10.38376
G1 X221.003 Y161.837 E10.43787
G1 X221.002 Y168.094 E10.64598
G1 X220.992 Y168.795 E10.6693
G1 X220.939 Y169.731 E10.70048
G1 X220.782 Y170.781 E10.73579
G1 X220.306 Y173.175 E10.81698
G1 X219.877 Y175.677 E10.90141
G1 X219.522 Y178.177 E10.98539
G1 X219.239 Y180.668 E11.06878
G1 X219.024 Y183.21 E11.15363
G1 X218.886 Y185.633 E11.23435
G1 X218.803 Y189.594 E11.36612
G1 X218.803 Y190.076 E11.38215
G1 X218.84 Y192.685 E11.46893
G1 X218.947 Y195.207 E11.55289
G1 X219.124 Y197.701 E11.63605
G1 X219.372 Y200.199 E11.71954
G1 X219.69 Y202.688 E11.803
G1 X220.084 Y205.197 E11.88747
G1 X220.548 Y207.692 E11.97188
G1 X221.065 Y210.1 E12.0538
G1 X221.669 Y212.561 E12.13808
G1 X222.343 Y215.008 E12.2225
G1 X223.071 Y217.387 E12.30524
G1 X223.882 Y219.79 E12.3896
G1 X224.756 Y222.16 E12.47361
G1 X225.692 Y224.493 E12.55722
G1 X226.689 Y226.785 E12.64035
G1 X227.775 Y229.099 E12.72537
G1 X228.891 Y231.316 E12.80792
G1 X230.092 Y233.542 E12.89205
G1 X231.661 Y236.241 E12.99589
G1 X232.349 Y237.382 E13.0402
G1 X232.799 Y238.205 E13.0714
G1 X233.282 Y239.345 E13.11258
G1 X233.562 Y240.154 E13.14105
G1 X233.762 Y240.799 E13.16351
G1 X234.001 Y241.706 E13.19471
G1 X234.162 Y242.63 E13.2259
G1 X234.244 Y243.564 E13.25709
G1 X234.246 Y244.502 E13.28829
G1 X234.168 Y245.437 E13.31949
G1 X234.011 Y246.361 E13.35067
G1 X233.779 Y247.259 E13.38151
G1 X233.615 Y247.798 E13.40025
G1 X233.426 Y248.369 E13.42026
G1 X233.084 Y249.242 E13.45144
G1 X232.669 Y250.083 E13.48263
G1 X232.183 Y250.885 E13.51382
G1 X231.632 Y251.644 E13.54502
G1 X231.017 Y252.352 E13.57621
G1 X230.344 Y253.006 E13.60742
G1 X229.633 Y253.588 E13.63798
G1 X229.018 Y254.046 E13.66349
G1 X228.763 Y254.227 E13.67389
G1 X227.976 Y254.737 E13.70508
G1 X227.148 Y255.178 E13.73628
G1 X226.286 Y255.546 E13.76745
G1 X225.094 Y255.921 E13.80902
G1 X224.284 Y256.126 E13.83681
G1 X221.814 Y256.787 E13.92185
G1 X219.373 Y257.514 E14.00656
G1 X217.503 Y258.102 E14.07176
G1 X216.56 Y258.387 E14.10453
G1 X215.652 Y258.619 E14.1357
G1 X214.727 Y258.774 E14.16689
G1 X213.61 Y258.855 E14.20414
G1 X212.923 Y258.862 E14.22699
G1 X212.537 Y258.856 E14.23983
G1 X211.482 Y258.788 E14.27499
G1 X208.955 Y258.505 E14.35957
G1 X206.399 Y258.287 E14.44489
G1 X205.17 Y258.2 E14.48587
G1 X204.7 Y258.157 E14.50157
G1 X201.847 Y257.831 E14.59707
G1 X199.362 Y257.619 E14.68003
G1 X196.876 Y257.478 E14.76284
G1 X194.331 Y257.406 E14.84752
G1 X191.378 Y257.412 E14.94574
G1 X188.217 Y257.466 E15.05089
G1 X186.336 Y257.54 E15.1135
G1 X185.324 Y257.56 E15.14717
G1 X184.654 Y257.554 E15.16945
G1 X183.827 Y257.503 E15.19701
G1 X183.04 Y257.425 E15.22332
G1 X180.441 Y257.204 E15.31007
G1 X177.925 Y257.063 E15.39389
G1 X175.399 Y256.992 E15.47793
G1 X172.875 Y256.992 E15.56188
G1 X170.39 Y257.063 E15.64457
G1 X167.857 Y257.208 E15.72895
G1 X165.357 Y257.421 E15.8124
G1 X162.854 Y257.706 E15.89619
G1 X160.406 Y258.055 E15.97844
G1 X156.052 Y258.812 E16.12542
G1 X154.678 Y259.033 E16.17171
G1 X153.545 Y259.202 E16.20981
G1 X150.381 Y259.616 E16.31594
G1 X149.237 Y259.75 E16.35425
G1 X147.51 Y259.931 E16.41201
G1 X146.612 Y260.017 E16.44201
G1 X144.17 Y260.215 E16.5235
G1 X142.764 Y260.305 E16.57036
G1 X140.472 Y260.418 E16.64668
G1 X139.052 Y260.469 E16.69394
G1 X138.014 Y260.492 E16.72848
G1 X136.709 Y260.505 E16.77188
G1 X134.405 Y260.488 E16.84852
G1 X133.406 Y260.463 E16.88175
G1 X131.037 Y260.351 E16.96064
G1 X129.305 Y260.242 E17.01836
G1 X128.156 Y260.14 E17.05672
G1 X126.128 Y259.913 E17.12459
G1 X124.808 Y259.739 E17.16888
G1 X123.478 Y259.53 E17.21366
G1 X122.277 Y259.314 E17.25424
G1 X118.776 Y258.648 E17.37278
G1 X116.296 Y258.253 E17.4563
G1 X113.803 Y257.927 E17.53992
G1 X111.261 Y257.668 E17.62491
G1 X108.801 Y257.488 E17.70695
G1 X106.245 Y257.373 E17.79205
G1 X103.741 Y257.331 E17.87534
G1 X101.624 Y257.343 E17.94575
G1 X100.784 Y257.316 E17.97371
G1 X99.991 Y257.26 E18.00015
G1 X98.772 Y257.157 E18.04084
G1 X96.29 Y257.015 E18.12352
G1 X93.734 Y256.943 E18.20857
G1 X91.641 Y256.939 E18.27818
G1 X90.936 Y256.929 E18.30163
G1 X88.034 Y256.846 E18.39819
G1 X86.015 Y256.82 E18.46535
G1 X85.616 Y256.808 E18.47863
G1 X83.019 Y256.68 E18.56511
G1 X81.721 Y256.63 E18.60831
G1 X80.787 Y256.554 E18.63948
G1 X79.535 Y256.324 E18.68182
G1 X78.424 Y256.053 E18.71986
G1 X76.677 Y255.655 E18.77945
G1 X75.933 Y255.477 E18.80489
G1 X75.031 Y255.22 E18.83609
G1 X74.154 Y254.887 E18.86729
G1 X73.308 Y254.481 E18.8985
G1 X72.165 Y253.777 E18.94315
G1 X71.636 Y253.405 E18.96466
G1 X70.892 Y252.833 E18.99587
G1 X70.2 Y252.2 E19.02706
G1 X69.564 Y251.511 E19.05825
G1 X68.99 Y250.769 E19.08945
G1 X68.48 Y249.982 E19.12064
G1 X68.04 Y249.154 E19.15183
G1 X67.672 Y248.291 E19.18303
G1 X67.378 Y247.401 E19.21421
G1 X67.162 Y246.488 E19.24541
G1 X67.024 Y245.56 E19.27662
G1 X66.965 Y244.616 E19.30808
G1 X66.951 Y243.879 E19.3326
G1 X66.96 Y242.983 E19.3624
G1 X67.017 Y242.047 E19.39359
G1 X67.154 Y241.119 E19.42479
G1 X67.37 Y240.207 E19.45596
G1 X67.663 Y239.315 E19.48719
G1 X68 Y238.516 E19.51603
G1 X68.36 Y237.749 E19.54421
G1 X69.408 Y235.431 E19.62882
G1 X70.394 Y233.069 E19.71395
G1 X71.299 Y230.721 E19.79765
G1 X72.122 Y228.391 E19.87983
G1 X72.911 Y225.938 E19.96554
G1 X73.6 Y223.57 E20.04756
G1 X74.238 Y221.122 E20.1317
G1 X74.816 Y218.612 E20.21737
G1 X75.296 Y216.215 E20.29868
G1 X75.725 Y213.713 E20.38311
G1 X76.082 Y211.205 E20.46737
G1 X76.365 Y208.722 E20.55049
G1 X76.579 Y206.212 E20.63427
G1 X76.721 Y203.695 E20.71812
G1 X76.794 Y201.179 E20.80184
G1 X76.803 Y199.836 E20.84651
G1 X76.804 Y183.683 E21.38376
G1 X76.815 Y182.977 E21.40724
G1 X76.87 Y182.04 E21.43846
G1 X77.025 Y181.005 E21.47327
G1 X77.5 Y178.616 E21.55429
G1 X77.929 Y176.114 E21.63872
G1 X78.284 Y173.614 E21.7227
G1 X78.567 Y171.123 E21.80608
G1 X78.782 Y168.581 E21.89093
G1 X78.92 Y166.158 E21.97165
G1 X79.003 Y162.197 E22.10343
G1 X79.003 Y158.788 E22.21681
G1 X78.966 Y156.179 E22.30359
G1 X78.859 Y153.657 E22.38755
G1 X78.682 Y151.163 E22.47071
G1 X78.435 Y148.668 E22.5541
G1 X78.115 Y146.167 E22.63796
G1 X77.724 Y143.678 E22.72176
G1 X77.257 Y141.166 E22.80674
G1 X76.741 Y138.764 E22.88846
G1 X76.134 Y136.292 E22.97312
G1 X75.469 Y133.874 E23.05653
G1 X74.728 Y131.456 E23.14064
G1 X73.921 Y129.064 E23.22461
G1 X73.058 Y126.724 E23.30756
G1 X72.114 Y124.371 E23.39188
G1 X71.117 Y122.079 E23.47502
G1 X70.031 Y119.765 E23.56003
G1 X68.91 Y117.538 E23.64296
G1 X67.712 Y115.319 E23.72683
G1 X66.45 Y113.132 E23.81081
G1 X66.078 Y112.524 E23.83452
G1 X65.707 Y111.895 E23.85881
G1 X65.267 Y111.067 E23.89
G1 X64.791 Y109.903 E23.93182
G1 X64.568 Y109.254 E23.95465
G1 X64.318 Y108.466 E23.98214
G1 X64.078 Y107.559 E24.01335
G1 X63.915 Y106.635 E24.04456
G1 X63.833 Y105.701 E24.07574
G1 X63.822 Y105.054 E24.09726
G1 X63.839 Y103.761 E24.14027
G1 X63.834 Y101.162 E24.22672
G1 X63.759 Y98.668 E24.3097
G1 X63.643 Y96.712 E24.37487
G1 X63.613 Y96.073 E24.39615
G1 X63.61 Y95.127 E24.42762
G1 X63.685 Y92.21 E24.52467
G1 X63.676 Y89.683 E24.60872
G1 X63.594 Y87.09 E24.695
G1 X63.563 Y86.437 E24.71675
G1 X63.561 Y85.458 E24.74931
G1 X63.63 Y83.819 E24.80387
G1 X63.689 Y81.253 E24.88924
G1 X63.676 Y78.711 E24.97379
G1 X63.608 Y76.493 E25.04759
G1 X63.612 Y75.72 E25.0733
G1 X63.656 Y74.619 E25.10995
G1 X63.7 Y73.79 E25.13756
G1 X63.762 Y71.264 E25.2216
G1 X63.754 Y68.763 E25.30479
G1 X63.711 Y67.396 E25.35028
G1 X63.696 Y66.611 E25.37639
G1 X63.702 Y65.671 E25.40765
G1 X63.746 Y63.825 E25.46907
G1 X63.736 Y61.294 E25.55325
G1 X63.655 Y58.792 E25.63651
G1 X63.612 Y58.067 E25.66067
G1 X63.564 Y57.044 E25.69473
G1 X63.56 Y56.106 E25.72593
G1 X63.636 Y55.171 E25.75713
G1 X63.791 Y54.246 E25.78833
G1 X64.034 Y53.306 E25.82062
G1 X64.253 Y52.591 E25.84549
G1 X64.53 Y51.769 E25.87434
G1 X64.872 Y50.896 E25.90552
G1 X65.288 Y50.055 E25.93673
G1 X65.774 Y49.253 E25.96792
G1 X66.319 Y48.504 E25.99873
G0 F6000 X66.632 Y48.753
G1 F1200 X67.724 Y47.379 E26.0571
G1 X69.263 Y45.366 E26.14138
G1 X70.756 Y43.295 E26.2263
G1 X71.257 Y42.562 E26.25583
G1 X71.739 Y41.878 E26.28366
G1 X72.086 Y41.412 E26.30298
G1 X72.291 Y41.153 E26.31397
G1 X73.153 Y40.192 E26.35691
G1 X73.486 Y39.863 E26.37248
G1 X74.168 Y39.245 E26.40309
G1 X74.86 Y38.709 E26.4322
G1 X75.723 Y38.121 E26.46693
G1 X76.108 Y37.886 E26.48193
G1 X76.914 Y37.441 E26.51256
G1 X77.331 Y37.245 E26.52788
G1 X77.847 Y37.016 E26.54666
G1 X78.525 Y36.743 E26.57097
G1 X81.07 Y35.818 E26.66103
G1 X83.431 Y34.882 E26.74551
G1 X85.752 Y33.885 E26.82952
G1 X88.024 Y32.833 E26.9128
G1 X89.202 Y32.249 E26.95653
G1 X89.777 Y31.973 E26.97774
G1 X90.624 Y31.613 E27.00835
G1 X91.499 Y31.327 E27.03897
G1 X92.395 Y31.118 E27.06957
G1 X93.307 Y30.987 E27.10022
G1 X94.171 Y30.938 E27.129
G1 X95.212 Y30.925 E27.16363
G1 X95.701 Y30.932 E27.17989
G1 X98.986 Y31.031 E27.2892
G1 X101.496 Y31.031 E27.37268
G1 X104.004 Y30.961 E27.45613
G1 X107.364 Y30.758 E27.56809
G1 X107.834 Y30.721 E27.58377
G1 X108.465 Y30.691 E27.60478
G1 X109.633 Y30.675 E27.64363
G1 X110.417 Y30.69 E27.66971
G1 X110.786 Y30.706 E27.682
G1 X113.381 Y30.778 E27.76834
G1 X115.892 Y30.778 E27.85186
G1 X118.423 Y30.705 E27.93607
G1 X121.606 Y30.515 E28.04213
G1 X122.236 Y30.466 E28.06315
G1 X122.862 Y30.437 E28.08399
